/* XPM */
static char *result[] = {
/* columns rows colors chars-per-pixel */
"128 128 256 2 ",
"   c #0B090C",
".  c #0F0E10",
"X  c #130E12",
"o  c #141215",
"O  c #1A1316",
"+  c #16151A",
"@  c #1B161A",
"#  c #161819",
"$  c #1C191E",
"%  c #21161A",
"&  c #271619",
"*  c #231A1E",
"=  c #351517",
"-  c #1E1C21",
";  c #231D22",
":  c #291E22",
">  c #351E23",
",  c #1F2023",
"<  c #242126",
"1  c #2A252A",
"2  c #36262B",
"3  c #2E2C31",
"4  c #322E33",
"5  c #383538",
"6  c #470D0D",
"7  c #510C0F",
"8  c #580E12",
"9  c #4B1314",
"0  c #541214",
"q  c #5B1215",
"w  c #5B171A",
"e  c #660B0F",
"r  c #640E12",
"t  c #6C0E13",
"y  c #740D14",
"u  c #7B0D15",
"i  c #7C0F18",
"p  c #631315",
"a  c #6B1216",
"s  c #681619",
"d  c #641A1B",
"f  c #6B1B1D",
"g  c #771417",
"h  c #731A1D",
"j  c #7C1A1D",
"k  c #5D1B20",
"l  c #6A1E21",
"z  c #771E21",
"x  c #482C30",
"c  c #672527",
"v  c #6D2124",
"b  c #732225",
"n  c #7B2225",
"m  c #78272A",
"M  c #7C2A2D",
"N  c #682D30",
"B  c #7C2D31",
"V  c #7D3335",
"C  c #40423F",
"Z  c #3C3C41",
"A  c #423E42",
"S  c #484749",
"D  c #524E50",
"F  c #585758",
"G  c #665553",
"H  c #605F61",
"J  c #656464",
"K  c #686767",
"L  c #6D6C6C",
"P  c #706F6F",
"I  c #707070",
"U  c #7A7272",
"Y  c #830D16",
"T  c #8A0C16",
"R  c #850E18",
"E  c #8B0E19",
"W  c #940D15",
"Q  c #9B0D16",
"!  c #930E1A",
"~  c #9D0E18",
"^  c #86121A",
"/  c #87171C",
"(  c #8B131B",
")  c #94131B",
"_  c #97151A",
"`  c #9C131C",
"'  c #A20713",
"]  c #A30E17",
"[  c #AC0E16",
"{  c #A30E19",
"}  c #AC0E1A",
"|  c #B20F16",
" . c #B30E1A",
".. c #BA0E1A",
"X. c #A4131C",
"o. c #A8151A",
"O. c #AC131C",
"+. c #B41117",
"@. c #BB1217",
"#. c #B4131A",
"$. c #BB131A",
"%. c #B51A1C",
"&. c #BA191C",
"*. c #A2201E",
"=. c #861E22",
"-. c #9C1B23",
";. c #981825",
":. c #9D1F30",
">. c #AC1521",
",. c #A51822",
"<. c #A41E2D",
"1. c #AC1C2C",
"2. c #B91524",
"3. c #B41A25",
"4. c #BB1B24",
"5. c #B5192B",
"6. c #B41B2B",
"7. c #BB1A2A",
"8. c #85262A",
"9. c #99262A",
"0. c #852D31",
"q. c #892E35",
"w. c #833335",
"e. c #843B3D",
"r. c #88383A",
"t. c #983032",
"y. c #A8242C",
"u. c #B9242A",
"i. c #A82532",
"p. c #AF2E32",
"a. c #B73534",
"s. c #C70E1C",
"d. c #C21316",
"f. c #C4151A",
"g. c #CA141D",
"h. c #C41A1B",
"j. c #C8191C",
"k. c #C7221E",
"l. c #C61924",
"z. c #C41A24",
"x. c #D71325",
"c. c #ED1A2B",
"v. c #F51B2B",
"b. c #C62427",
"n. c #C63633",
"m. c #D33534",
"M. c #EF2A32",
"N. c #94413E",
"B. c #CE423A",
"V. c #E8443C",
"C. c #893E42",
"Z. c #B23743",
"A. c #ED2D4A",
"S. c #F63B58",
"D. c #F53C62",
"F. c #8A4444",
"G. c #8D4948",
"H. c #954A47",
"J. c #9B5253",
"K. c #B0504F",
"L. c #A94B55",
"P. c #A7565A",
"I. c #A66359",
"U. c #A95B62",
"Y. c #9A7572",
"T. c #A86367",
"R. c #B07171",
"E. c #D25146",
"W. c #ED4D48",
"Q. c #F3534B",
"!. c #C56D5A",
"~. c #ED645F",
"^. c #D17965",
"/. c #9E817D",
"(. c #AC8A7E",
"). c #CB8A6D",
"_. c #CD8D70",
"`. c #CC9474",
"'. c #CC9977",
"]. c #CE9B7A",
"[. c #D19D7C",
"{. c #EA856C",
"}. c #EE8D73",
"|. c #D2A27E",
" X c #7E7F81",
".X c #B57F84",
"XX c #949697",
"oX c #BB8888",
"OX c #AB9685",
"+X c #B79B88",
"@X c #AC9393",
"#X c #B8A390",
"$X c #BAA79A",
"%X c #ADA6A7",
"&X c #BDADA3",
"*X c #B6AAA8",
"=X c #BBADAB",
"-X c #BAB1AA",
";X c #BCB1AD",
":X c #BDB5B2",
">X c #BCB9B7",
",X c #C59A85",
"<X c #C7A68A",
"1X c #D4A582",
"2X c #D8AB88",
"3X c #DBB18C",
"4X c #C4AC96",
"5X c #CAB29A",
"6X c #D8B898",
"7X c #E3BC98",
"8X c #C2ADA4",
"9X c #CAB4A3",
"0X c #C4B3AC",
"qX c #C9B7AB",
"wX c #D2BEAA",
"eX c #C2B5B2",
"rX c #C4B9B5",
"tX c #CABBB5",
"yX c #C5BCBA",
"uX c #DDC29E",
"iX c #E6C49C",
"pX c #DAC4A7",
"aX c #C9C1B8",
"sX c #CCC2BD",
"dX c #D5C7B8",
"fX c #DFD1BC",
"gX c #E8CBA6",
"hX c #F2D5AD",
"jX c #E9D2B3",
"kX c #F4DBB6",
"lX c #F8E2BC",
"zX c #BCBFC0",
"xX c #CBC7C5",
"cX c #D4CCC6",
"vX c #DAD3CB",
"bX c #CFD2D2",
"nX c #D9D6D4",
"mX c #DCDCDB",
"MX c #E2D8CB",
"NX c #E2DDD7",
"BX c #DEE0DF",
"VX c #F9E7C1",
"CX c #E5E2DB",
"ZX c #DEE1E1",
"AX c #E3E5E4",
"SX c #E8E7E5",
"DX c #EBE9E5",
"FX c #E6EAE9",
"GX c #EBEDED",
"HX c #EFEFEE",
"JX c #EEF0EF",
"KX c #EEF2F2",
"LX c #F2F5F5",
"PX c #F5F8F7",
"IX c #F6F9F9",
"UX c #F9FCFC",
/* pixels */
"PXPXIXGXFXFXKXUXIXLXIXIXIXIXGXGXKXIXLXIXIXIXIXUXIXUXLXPXIXIXIXIXIXKXIXIXIXIXLXIXIXIXUXUXIXFXGXUXKXIXLXKXKXIXKXIXIXIXKXGXKXGXIXIXIXIXKXZXFXZXIXLXKXLXIXUXUXGXZXIXIXIXKXKXIXLXIXIXKXGXLXIXGXGXIXLXGXKXIXUXIXLXIXIXIXIXIXIXIXIXIXIXKXIXUXUXUXKXPXUXIXKXIXIXIXIXIXIX",
"KXKXKXFXGXKXPXUXKXLXLXIXIXKXZXmXZXIXIXIXIXUXUXUXKXIXIXLXIXKXGXGXIXIXUXIXIXIXKXKXZXLXIXKXIXPXFXIXGXFXFXLXIXZXGXIXIXLXGXKXIXIXIXKXFXIXLXGXKXIXKXFXGXLXIXIXUXPXIXUXIXIXIXLXKXKXFXKXLXZXFXKXGXZXLXKXKXIXLXIXKXPXIXIXIXIXIXLXZXKXIXIXIXLXIXIXGXFXIXIXIXPXGXIXIXIXIXKX",
"KXFXIXUXFXPXUXPXIXIXLXGXIXKXIXZXZXIXIXIXIXIXIXLXIXUXUXGXLXLXKXLXIXIXUXIXIXIXZXZXFXGXLXIXUXIXZXGXFXKXKXGXZXGXLXZXKXLXLXIXLXLXIXKXIXIXZXFXIXUXIXIXIXLXIXIXIXPXIXIXIXLXKXLXFXIXIXLXZXGXKXKXKXKXLXGXLXLXIXZXGXIXFXIXGXKXGXKXGXKXIXIXIXKXKXIXUXUXIXIXUXUXIXIXLXLXKXLX",
"FXIXUXUXUXPXPXUXIXKXGXZXKXKXIXIXKXKXKXIXIXLXKXGXPXIXIXUXIXIXLXLXLXKXIXIXIXLXLXLXKXUXUXUXIXIXLXKXPXGXZXIXZXKXFXKXGXIXKXZXZXIXKXKXIXIXKXLXIXKXIXGXKXLXIXKXKXIXIXIXLXKXLXKXIXIXIXIXIXIXLXLXIXLXKXGXLXLXLXKXKXGXZXKXKXLXLXUXIXIXIXKXIXIXPXPXUXUXIXLXIXIXIXIXIXLXIXIX",
"KXIXPXPXPXUXLXJXIXLXZXKXGXKXIXUXIXIXPXKXFXFXZXGXKXIXKXKXIXLXKXGXKXLXIXIXIXIXIXLXIXIXIXKXFXIXFXmXZXGXKXIXIXKXLXIXKXKXLXZXZXZXKXLXKXIXIXKXKXIXUXKXGXLXIXKXIXIXIXIXIXKXKXGXKXPXPXGXGXLXKXLXIXLXKXKXLXKXKXKXIXFXIXIXZXGXKXPXKXKXPXIXKXLXIXIXIXIXUXUXIXLXIXIXIXIXGXKX",
"UXUXIXIXLXJXKXKXGXIXIXGXKXKXIXIXIXUXUXKXKXKXKXGXGXFXZXFXKXKXKXKXKXLXKXIXIXGXIXIXKXGXIXGXKXIXIXLXLXKXLXZXLXGXIXIXLXGXKXZXIXIXFXIXLXKXKXIXLXIXIXIXIXLXGXIXIXIXIXKXPXLXIXLXIXKXIXKXIXLXGXIXIXLXLXIXIXLXKXLXGXLXLXIXKXKXIXUXIXIXIXFXKXIXLXLXIXIXPXUXUXIXIXIXIXIXIXZX",
"UXUXIXIXIXUXPXIXFXLXIXKXGXIXIXIXUXIXUXLXKXFXKXKXZXKXIXZXIXIXIXKXLXGXGXLXIXIXLXKXLXKXIXIXIXIXIXUXIXLXIXKXIXLXIXIXLXLXKXGXGXIXLXIXKXZXLXIXLXIXIXIXLXKXIXIXGXLXIXIXUXLXFXGXIXZXFXZXGXLXKXIXLXLXIXUXIXIXLXKXKXGXZXIXPXPXUXUXUXUXKXZXGXKXLXIXIXFXKXUXUXUXLXIXIXGXLXZX",
"PXKXIXUXIXIXPXIXIXIXKXIXKXIXPXIXUXUXUXUXPXGXKXFXGXIXUXIXIXKXIXLXIXZXZXFXIXIXIXKXIXIXIXGXIXIXIXIXKXGXLXIXIXIXIXIXIXIXLXFXKXIXKXKXGXZXIXLXLXLXIXIXKXKXIXIXUXGXFXKXKXKXZXZXFXIXIXKXZXKXIXIXIXLXKXKXKXIXIXIXIXLXLXIXGXKXPXKXIXPXIXZXZXZXZXLXIXLXLXIXUXKXGXIXGXLXIXUX",
"KXAXIXUXIXIXUXUXUXPXGXGXKXGXLXIXLXLXIXGXKXKXKXUXIXGXKXIXUXLXZXIXIXKXGXIXKXUXUXPXFXGXPXUXUXUXUXUXIXLXKXLXLXIXIXUXIXGXGXGXZXIXUXUXLXKXUXIXIXPXUXKXKXIXIXIXIXKXIXIXLXKXLXIXIXIXKXKXPXUXKXKXIXGXJXKXKXLXGXLXIXIXIXIXIXLXKXLXLXKXUXGXPXKXUXUXUXUXIXIXIXKXFXKXKXGXPXIX",
"LXPXUXKXKXUXIXGXFXIXUXGXGXGXIXIXFXIXIXGXZXFXUXIXIXIXGXKXIXKXKXIXIXUXUXIXKXKXUXIXKXUXUXUXUXUXUXUXIXIXLXLXIXIXIXIXIXIXUXIXIXIXUXGXLXKXIXIXPXUXUXUXIXIXKXKXIXIXLXIXIXGXIXUXUXIXUXUXUXIXKXPXGXZXnXKXIXUXUXUXUXLXFXGXIXIXKXGXUXIXUXKXPXKXUXUXUXIXLXUXUXPXPXUXKXKXUXUX",
"KXIXGXGXKXPXJXLXLXIXGXGXZXKXGXPXFXGXPXPXPXGXPXIXLXIXIXKXGXKXIXIXIXIXPXPXGXIXUXIXPXKXKXKXKXUXIXIXIXIXKXLXIXIXLXGXIXUXUXUXIXKXKXGXZXGXLXIXPXUXIXUXIXIXIXKXGXLXIXGXIXFXLXIXUXUXIXUXKXPXUXUXUXIXIXUXUXPXUXIXLXIXIXKXKXLXIXFXPXPXLXKXIXGXKXKXKXUXPXKXPXUXIXKXGXKXGXUX",
"UXUXKXKXPXUXUXUXIXLXLXIXPXPXUXUXIXLXPXIXUXKXKXUXIXIXIXLXLXIXUXUXLXFXGXIXIXIXIXKXKXKXPXGXKXPXKXLXIXLXLXKXIXIXKXLXKXIXKXZXFXZXKXUXUXZXGXPXKXLXKXIXUXIXKXGXGXLXIXZXZXKXLXKXPXPXIXUXUXUXUXIXIXIXUXLXIXKXKXIXKXLXLXKXLXKXGXGXKXFXIXIXKXLXPXUXPXPXPXKXKXKXKXKXIXPXGXKX",
"IXIXUXKXKXKXLXPXIXKXGXKXUXUXUXUXIXPXIXLXIXIXKXIXUXZXPXUXGXLXLXIXLXIXLXIXPXUXIXLXUXUXPXKXKXGXKXKXIXIXKXKXIXIXZXZXKXGXGXFXKXGXZXIXUXUXUXLXIXZXbXZXZXIXKXLXIXIXKXIXIXKXGXFXZXFXKXIXUXIXIXIXLXUXLXJXKXIXLXIXIXIXKXIXIXKXLXKXFXGXKXZXFXIXUXUXUXUXUXLXKXKXLXIXIXIXLXGX",
"KXPXUXIXIXIXUXPXKXKXGXGXZXZXKXUXUXUXIXIXUXIXPXUXUXGXIXKXGXKXGXIXPXIXKXLXIXIXIXKXUXUXUXUXIXIXIXLXLXKXIXIXIXIXGXGXUXUXPXIXLXFXFXGXUXKXUXUXIXIXGXZXGXZXFXGXGXZXLXIXIXIXZXGXIXGXKXPXPXIXUXIXLXUXIXUXIXKXKXIXIXIXKXLXIXLXIXLXZXKXGXFXKXPXIXPXIXIXPXKXIXIXGXIXLXPXLXLX",
"IXUXLXKXGXIXKXPXIXKXIXIXUXKXGXFXAXGXUXUXIXKXUXPXKXUXKXFXIXUXIXUXUXPXGXZXIXUXIXKXPXPXUXPXLXLXLXFXZXZXKXIXLXGXLXIXUXUXUXUXIXIXKXIXPXKXUXIXKXIXIXUXIXIXIXKXIXZXLXKXGXKXFXKXUXUXKXIXIXPXKXKXIXLXGXGXIXGXGXKXLXKXGXLXIXLXLXKXIXUXIXUXIXIXKXKXLXLXIXKXIXIXUXIXKXLXLXLX",
"UXUXKXFXGXKXFXFXIXKXGXFXLXUXGXGXKXLXUXKXIXKXUXGXKXPXIXKXKXIXUXIXIXUXKXIXUXIXPXPXPXKXUXUXLXKXLXFXZXIXLXKXLXKXKXKXPXIXPXUXIXIXKXKXKXIXUXUXZXFXIXKXIXIXUXLXIXFXKXIXIXKXIXGXIXKXIXPXIXPXIXUXUXKXmXHXFXLXIXLXKXZXGXKXIXIXIXKXIXGXKXUXPXKXKXKXKXLXZXZXGXKXIXIXIXLXGXKX",
"PXIXKXLXDXGXJXJXKXKXDXDXKXKXJXJXUXUXFXFXGXLXLXLXIXLXIXUXLXPXUXKXJXZXJXLXUXIXIXUXKXLXPXUXGXZXJXJXPXPXLXKXLXLXPXKXLXPXUXPXUXLXLXUXUXUXUXPXLXAXAXLXKXKXKXLXLXLXDXGXLXLXPXHXPXJXPXIXKXIXUXUXLXGXHXCXCXDXLXUXPXGXPXPXPXKXKXJXDXDXGXKXPXKXKXLXLXIXZXZXFXFXKXLXLXFXJXKX",
"GXKXGXZXKXKXKXZXJXFXAXAXKXKXKXFXIXKXIXKXmXFXGXLXLXLXPXPXKXKXLXLXLXJXFXUXLXLXLXLXKXLXLXLXJXLXKXGXGXKXLXFXDXLXLXKXPXJXPXPXPXLXIXKXFXLXUXIXPXGXDXLXJXKXKXGXPXLXJXFXDXPXHXHXCXDXCXUXFXKXLXIXUXIXLXDXNXHXUXUXLXDXDXDXDXJXJXBXAXCXZXJXKXLXGXLXGXGXUXLXIXZXJXLXIXJXKXUX",
"KXKXLXGXLXLXJXJXJXCXnXCXBXZXAXZXFXCXAXnXbXFXJXFXGXJXGXGXFXSXZXFXDXDXSXAXGXDXCXNXnXZXDXDXDXCXZXZXDXCXmXCXDXDXDXJXCXCXHXJXGXDXGXAXAXGXGXDXHXDXGXDXFXDXFXCXCXFXDXCXDXCXHXHXHXDXCXDXZXCXnXZXDXDXCXCXMXCXCXDXCXCXMXvXNXvXbXNXNXCXDXJXKXGXGXFXmXGXLXUXIXLXLXUXUXIXUXIX",
"UXLXLXJXKXKXZXmXAXCXbXvXvXnXbXfXxX>XyXaXsXsXfXMXbXnXnXbXnXnXmXvXvXvXcXvXvXvXvXdXdXdXfXvXcXdXdXsXfXfXdXfXfXfXvXnXCXCXMXNXNXMXvXMXvXMXMXCXCXCXMXMXMXMXMXfXMXMXMXlXVXCXCXCXVXCXMXCXMXfXfXfXdXnXMXfXfXvXMXMXfXfXfXdXfXdXdXfXfXMXCXAXCXNXNXCXHXAXHXLXLXKXLXKXPXPXKXKX",
"UXIXKXKXFXFXmXnXmXxXaXaXzXaX-X-X$X$X%X#X$X$X$X-X5X-X-XwXaXpXaXaXwXqXqXqXqX0X9X9X9XaXpXaX$X6XpXpXpXpXpXaXpXpXfXdXdXdXpXdXdXpXfXfXfXvXfXfXfXfXfXfXfXdXjXfXfXjXfXjXkXfXfXjXfXfXfXfXuXuXpXuXuXuXiXiXuX9XpXpXwXuX6X5X6XwXwXwXpXpXdXdXfXdXdXcXNXCXDXGXSXSXZXFXPXLXPXKX",
"IXLXKXUXJXAXnXvXsXqX%X#X$X#XOXOXOXOXOXOXOXOX#X(.#X#X#X#X#X$X$X#X4X4X4X5X5X4X5X9X5X5X5X5X5XuX6XuXpX6XuXuXuXuXuXuXuXuXpXpXpXpXpXgXgXpXgXpXpXgXpXgXjXhXjXkXjXhXjXhXjXgXjXhXgXgXiXuXuXiXuXuXuXiXiX3X6X6X6X6X6X6X4X3X5X4X5X<X<X5X5XqX9X4X4X5XdXvXCXDXSXLXLXLXGXKXGXGX",
"PXLXPXKXFXJXZXfX>X$XOX(.OXOX(.(.OXOX+X+X#X+X#X#X#X#X#X<X5X<X5X<X5X5X5X6X5X6X9X6X6X6XuXuXuXuXiXiXiXgXiXgXgXgXhXhXhXhXhXkXkXkXkXkXkXlXVXVXlXVXVXVXlXlXlXkXkXkXhXhXhXhXgXgXgXhXgXgXgXiXiXiXiXuXiX3X7X6X3X6X3X<X<X3X<X3X<X<X<X5X<X#X<X<X+X<X4XwXcXCXDXKXLXKXFXLXZXKX",
"UXLXLXFXFXZXbX>X#XOXOX(.(.OX(.(.OX#X+X+X#X#X#X#X|.4X5X$X<X4X5X5X5X5X5X5X5X6X6X6X6X6X6X6XuXuXuXiXiXiXuXgXgXgXgXgXhXgXhXhXhXkXkXkXkXkXkXlXlXlXlXlXlXlXkXlXkXkXhXhXhXjXhXgXhXgXgXgXiXiXiXiXiXiXiXiX3X6X6X3X6X3X3X<X3X<X2X<X#X|.<X#X+X,X<X+X+X<XqXcXCXGXFXGXZXGXFXGX",
"PXPXLXHXAXbXxX&X(.(.(.(.(.(.'.(.+X(.OX'.(.+X+X].#X4X|.5X4X4X5X5XwX5X6X5X6X6X9X6XiX6X6XiX7X7X7XiXuXiXuXiXiXgXgXhXhXhXhXhXkXkXkXlXVXVXVXVXVXVXVXVXlXlXlXkXhXhXhXhXhXhXgXgXiXiXiXiXiXiXiXiX3X3X3X3X3X3X3X3X2X2X<X1X|.|.<X#X|.|.].].'.(.(.'.].+X5XaXNXCXDXFXZXFXLXFX",
"FXLXLXHXmXcXyX#X(./.e.e.F.G.N.H.H.H.J.H.I.J.J.K.H.I.K.K.K.I.K.!.K.!.!.!.!.!.!.^.^.^.^.^.^.^.{.{.).{.{.{.{.{.{.{.{.{.{.{.{.{.{.}.{.{.{.}.}.}.}.}.}.}.}.}.}.}.{.}.{.{.{.{.{.{.{.~.{.Q.Q.Q.{.E.Q.!.E.E.E.B.E.B.K.B.a.n.a.B.a.N.a.a.a.p.N.R.#X+X4XdXNXDXSXDXFXFXPXKX",
"AXFXPXKXCXbXyX#X(./.M 8.8.8.w.t.t.t.t.t.9.p.t.p.p.p.p.a.u.a.u.u.u.b.n.b.b.m.b.m.m.m.m.m.m.V.m.m.M.M.V.M.V.M.V.V.V.V.V.W.W.W.W.Q.Q.Q.Q.Q.Q.Q.Q.~.Q.Q.Q.Q.Q.Q.Q.Q.Q.V.V.Q.V.Q.V.V.V.V.V.V.B.B.B.B.B.B.B.B.n.n.n.n.n.a.n.a.a.a.a.p.p.N.t.(.(.#X$XdXNXDXDXDXFXGXLXPX",
"PXFXUXHXFXNXeX@X(./.n h f v h b z 8.=.n n 8.8.8.8.t.t.*.t.9.p.a.p.p.p.a.u.a.a.n.n.a.a.n.n.m.m.m.B.m.m.V.V.V.m.V.V.W.M.W.V.W.B.W.W.W.W.Q.W.Q.W.Q.~.Q.Q.Q.Q.Q.E.V.Q.W.E.V.E.B.B.B.B.B.B.E.B.a.B.a.a.a.a.t.t.p.t.t.t.t.9.0.0.0.8.8.8.9.t.I.+X].4XaXnXDXGXGXUXUXLXLX",
"UXIXUXLXGXnX-XOXOX/.n 9.n 6 0 w w w w w w d d d d d f d f l l c c b b b m m M B M B B B 0.0.0.w.0.V w.w.w.w.r.r.G.C.F.C.C.C.V F.F.H.G.G.H.H.G.J.H.H.H.H.H.H.H.H.H.H.H.N.F.e.e.N.V w.w.w.w.w.M M M M m m b b v v c d c c d c c 9 *.n.p.J.oX,X$XdXMXNXGXHXPXJXJXLX",
"UXLXHXJXFXvX&X#X(.Y.=.8.y.h = 9 0 0 w w w w w d d d d d f f f f v l v v c m c m b m M m N M M B B M B V V V V e.V V C.C.C.C.G G.F.F.F.G.G.G.J.G.G.G.G.G.H.H.F.F.F.F.e.F.e.w.e.V V V V V N M M M m b c b b v v c c c d w w w 9 m b.a.p.K.+X+X<XqXvXNXGXHXLXAXFXLX",
"PXLXFXFXZXxX$XOX+XI.=.9.*.9.9 9 6 9 0 w w q w w d d d d f d f c l l l b c b v b m b c m m b N m m M M B B V V V V V V C.C.C.V C.F.F.G.G.J.G.J.G.G.G.G.G.G.F.F.F.e.e.e.e.w.w.V w.V M M N M M b b c v v v l c d d c w k w 9 9 k *.k.u.a.J.#X,X4XqXvXDXSXIXLXLXPXIX",
"PXKXKXFXBXaX$X#X#XJ.9.9.p.y.j 9 6 6 9 9 0 0 w w w w d d d d f d l l l l l b b v c b b c b b b m m m M M B V V V V V C.w.r.C.V C.C.F.G.F.G.G.G.G.G.G.H.G.G.F.F.e.e.e.e.V V V V w.M M M M M b c M v v l l l c d k w w w 9 9 k b k.k.u.u.I.#X<X<X9XdXNXDXHXIXKXKXIX",
"UXLXGXCXnXaX$X$X#XI.9.9.y.y.*.p 0 9 6 6 9 9 q q 0 q d d w d s f f f f f f f b b b f f b b b b b b m m m M M B B w.w.C.V C.V C.C.C.C.C.C.F.G.H.H.G.F.F.F.F.C.e.e.e.w.w.w.w.B M M M n m n b b v v v v f l f d k w 0 9 9 9 w 0 *.k.k.u.a.I.4X<X$X9XaXvXCXKXLXLXFXUX",
"PXLXGXAXsXaX#X#XOXY.9.9.y.y.*./ 0 9 9 6 6 6 9 0 0 q d q d d d s f f f d f f f f f b h v f b b b b b m m m M M M B w.B w.B C.B w.C.C.C.C.C.F.C.F.F.F.F.C.r.r.r.w.V w.w.M M M M M m m b b b b h v v d d d k w d 9 0 9 9 w w f d.k.k.k.k.J.$X<X4XpXdXvXCXCXCXLXIXKX",
"PXLXGXCXaX-X#X$X#XI.8.9.u.*.y.%.d 0 0 9 6 6 6 9 0 q 0 p p p p d d f f d f f f f f v v f f h h b z b z m m m m 0.B 0.B w.q.V M C.C.C.C.C.C.C.F.C.e.F.e.e.r.r.w.w.w.M w.M M n n n b b b v v f f f d d d d w w 0 9 9 9 0 w w / k.k.k.u.u.I.$X4X4XqXdXdXvXnXJXLXLXJX",
"PXJXGXnXdXaX$X$X#XY.9.9.u.y.%.y.*.q 0 0 0 9 6 6 0 0 0 0 w p d d p d d f f s f s f f f h h b f h z z b b n n n m m m M 0.B 0.0.0.r.q.r.C.r.C.r.C.r.r.r.r.w.w.0.0.8.w.M M 8.n n n n h z f f f f d d d d 0 0 0 0 9 9 0 w w f k.&.k.k.u.u.K.4X4X4XwXcXvXvXFXJXLXLXGX",
"UXUXLXCXcXtX$X$X$XT.t.y.u.y.%.*.*./ q q 0 7 9 6 6 6 q 0 q q q p d p d a s a s h f a a f f h h h z z z b z n n n z 8.m 0.M 0.B B r.r.r.w.r.r.C.C.r.r.r.r.0.0.M 8.M 8.M n n n b b h f h f f d s d p w w w q 7 9 0 0 w w q *.d.d.k.b.b.u.I.5X5X4XtXvXCXCXKXLXLXLXJX",
"UXUXIXAXvXeX&X$X&XT.9.y.u.%.%.u.*.*.p 0 0 q 0 0 7 6 6 0 q q q p p p a p a p s s a f h f h h h b z z z z h n n n n m 8.M M 8.q.0.q.w.w.w.r.r.r.q.r.r.r.t.0.0.0.M n n n n b n h z f z f h s s d p w q q 0 7 9 0 0 0 w w f &.d.k.j.b.b.u.P.5X5X4XdXMXCXSXGXUXLXUXLX",
"LXKXFXmXbXqX&X&X&XI.p.t.u.u.y.%.*.%./ q q q 7 q 0 7 7 7 7 0 q p p q p p p p s a a h f g f h h h h j z z z z 8.n z 8.m 8.8.m q.m q.0.q.q.r.q.q.q.q.q.q.0.0.m n n =.n n n n z h z h h h s s s p p q q q 7 0 0 8 0 0 p p _ d.h.j.k.k.b.u.I.4X5X4XwXMXDXGXGXJXLXUXLX",
"JXKXKXFXnXtX&X5X$XI.9.y.u.*.u.%.%.%.*.p q q q 7 0 8 0 7 7 7 q q p p p p a a a s h a a h g h h h h j j j h =.j j =.z =.z n 8.8.m 0.q.q.q.q.q.q.q.q.0.0.0.8.8.8.8.n n n n j z h h h a h s s p q q q 0 7 7 q 0 q p p p s %.d.h.d.j.b.b.u.P.4X9X8XaXMXDXJXKXLXUXKXLX",
"IXIXIXJXbXqX&X$X$XT.i.i.u.%.%.u.%.%.%./ p q r q q 8 8 8 7 7 7 8 8 r r r a a a a a a g a g g h h h j h j j j j j z z z =.=.8.8.M 0.8.8.0.0.q.q.q.q.8.0.8.8.8.n 8.n j j j z j j h h a s a p p q 8 7 7 q q q q p p p p ( h.d.d.k.j.b.b.u.P.4X5X9XtXvXDXHXPXLXHXLXJX",
"IXUXUXJXMXpX&X&X$XI.i.y.u.%.%.%.%.%.%.*.g q q q q q q q 8 8 7 7 8 8 8 r r a a a a g a g g h h g g j j g j j j j =./ =.z z z =.z 8.8.q.8.q.8.q.8.q.8.8.8.8.=.=.=.j =.j j j h g h h s a a p q q e 7 7 8 q q q p q p a %.d.d.k.d.k.l.b.u.P.5X5X9XwXMXNXHXLXPXPXLXFX",
"JXIXPXDXcXqX5X&X$XT.i.p.u.k.%.%.%.%.%.%._ p p q e 8 q q 8 8 8 8 8 7 r r q r t a g a g g g g g g g j g g j j j j j / z =.=.=.=.=.8.8.0.q.8.0.8.8.8.8.8.8.z =.z z j j j j g j h g h g a a p q 8 7 q 7 q r p p p p a / d.d.k.d.j.j.b.b.b.U.9X9X9XdXvXNXHXLXPXJXPXLX",
"UXLXFXmXsXrX&X&X*XT.t.y.u.%.u.%.%.%.%.%.*./ q r q r r q r e 8 8 8 8 8 8 r t t y a g y y g g g g Y j j j j j / j ^ z ^ =.z =.=.=.=.=.8.8.8.:.8.8.=.8.8.8.=.=.=./ =.=./ j / g / j i i z s t r e q e q r r a p r p g o.&.d.d.d.d.j.b.l.z.P.9X5X9XtXdXNXGXLXUXLXUXPX",
"IXKXJXnXaXaX&X&X&XT.y.y.u.u.%.&.&.&.&.%.%.*.r r r r q r p p e e e e e 8 e e t y y u u i / g / g j i ^ ^ / ^ ^ ^ / / / / =.=.=.=./ 8.=.8.=.8.8.:.=.8./ =.8./ / / / / / ( / / / W ( ^ i y r p t p p e p p t p p a / d.h.d.d.k.j.k.x.l.b.U.9X9X9XwXvXMXDXLXLXIXUXLX",
"JXLXDXCXdXaX&X$X&XI.p.u.u.&.u.&.%.&.&.%.+.%./ r r r r r e r e p t t t t e e y Y Y Y Y E T T W T W E ^ ( ^ ^ / T ( ( / / R =.R =./ =.=.8.;.=.;.=.8.9._ =._ / _ _ _ ) ) ` _ _ _ _ { ` ( y g y t a a p a a p t a y *.d.d.d.d.h.j.j.b.b.u.T.9X9X9XdXvXNXDXLXPXPXLXIX",
"LXUXLXCXcXtX8X&X&XI.p.y.u.u.%.%.%.%.&.%.+.%._ g p e r r e r e e t t t y u T T {  .} } } } O.o.+.>.O.} >.' ' Q Q Q T W W Y R ^ =./ _ ( _ 9._ -.-.X.` ,.o.o.>.O.>.>.2.2.2.7.s.h.k.b.b.[ ~ E i y y t a a a t a a / d.d.d.d.d.d.j.j.j.b.b.T.9X9X9XdXvXDXJXLXLXKXLXGX",
"LXUXKXDXcXtX&X8X4XT.y.p.&.&.%.k.%.@.&.%.@.%.%._ r p e e a r r t t y y Y T Q ..A.D.S.S.S.S.S.S.W.D.D.D.Q.D.D.D.D.D.S.S.A.A.M.A.c.A.M.A.A.A.A.S.A.A.S.A.A.S.S.S.S.S.S.S.D.S.S.S.Q.D.D.x.} W Y u g y r t y y a g o.d.d.d.d.d.k.d.j.l.z.4.R.9X9X9XwXvXDXGXIXIXFXGXGX",
"LXUXGXHXvXtX&X&X$XU.6.p.z.4.u.&.&.&.&.+.&.+.@.o.g a e e t t t y u u u u T Q ..v.v.v.v.v.v.v.v.v.v.v.v.v.v.v.v.v.v.v.M.v.M.v.M.c.c.c.M.M.M.M.v.c.M.M.M.v.v.v.M.v.v.v.v.v.v.v.v.v.v.v.c.} W ( i g g e y t t g / +.d.d.j.d.d.d.j.j.k.b.b.T.9X9X9XdXNXCXHXLXIXIXIXIX",
"LXPXUXJXNXsX-X&X$XU.i.6.u.4.&.4.&.&.&.&.@.%.+.%._ a a a t t e y y y u Y W W s.c.s.x.x.s.g.s.g.g.g.x.g.g.g.g.x.l.l.j.g.j.l.l.&.3.,.o.%.%.&.4.z.h.f.f.z.h.j.j.j.x.l.j.l.x.j.j.g.s.s.x.x.' ) Y Y u g t y g t y o.@.d.d.d.d.d.j.d.j.x.b.b.T.9X9X9XwXvXSXHXHXIXHXIXIX",
"PXFXKXLXCXaX8X0X$XU.i.u.4.&.&.&.&.$.&.%.&.&.%.@.o./ t t t y e y y u u Y W ' s.c. . . .}  .#.O.O.O.#.>.O.>.%.%.O.3.>.>.,.>.,.>.o.` X.-.,.*.o.y.,.>.O.O.3.>.%.%.%.O.%.O.#.+.O.#.}  .s.x...W T i i y t y y y / +.@.d.d.d.d.d.g.g.g.k.l.z.T.5X9X9XdXvXDXIXIXKXKXHXIX",
"LXJXLXFXvXaX-X&X&XU.i.i.u.&.4.&.4.&.%.$.@.@.&.+.+.o.g y t y y y u y u Y W | s.x.{ { ` ,.` ` -.{ ` -.X.-.` _ ,.-.,._ -.-.-._ -.-./ ;.=.) -._ _ _ -.-.-.` -.` ,.,.,.X.` X.` X.` X.` s.x. .) Y i i u y y t g o.@.d.d.d.d.d.d.d.d.d.x.l.l.R.8X9XwXtXvXDXIXHXHXKXLXLX",
"FXPXFXLXmXaX0X&X&XU.i.u.u.4.&.4.&.%.&.@.%.@.&.@.+.%./ t e y y y y u u R W  .l.s.~ ;.! ! ` ) ! ! ) ) ) ) _ _ ;._ _ ;._ ) ;._ ;.;./ _ / =._ ;._ ;.;._ ;._ _ _ _ ;._ _ ;._ ) ) ) ) ! 2.x. .! R R i u y u y W o.d.d.d.d.d.d.d.d.g.g.l.b.z.R.9X5X9XwXcXCXLXUXLXIXLXLX",
"GXPXGXFXCXaX-X&X4XU.i.6.3.&.4.&.&.@.%.@.@.%.@.%.@.%.*.u y y e y y u u T Q  .s.s.! ! ! E ( ( ! =.( E ;.;.;.( ) ( ! ;.;.( / / ( ! / / / ( ( / ( ( / ) ( ;.;.( / ( ( ( ( ( ( ( W ( ! ..s...` T Y i y y y u Q @.@.d.d.d.d.d.d.d.g.g.x.l.l.U.4X9XqXwXcXNXGXLXUXIXLXLX",
"KXKXAXmXnXsX8X-X=XT.p.6.4.&.%.$.&.@.%.%.%.@.&.@.+.@.o._ u y y y u u Y E ,. .s.s.! E E R R ( ^ ( ( ^ ^ ( ( ( =.( ( =.;.=.=.) ( =./ / / / / ( / =./ / =.( ( =.( ( / ^ ^ ^ ^ ^ ^ W E } s.2.~ R Y i u y u / | @.d.d.d.d.d.j.d.g.g.g.j.l.z.!.9X9X9XdXcXMXHXPXAXGXLXLX",
"LXKXGXCXvXsX&X8X8XU.i.6.u.&.&.&.d.%.@.%.@.@.%.%.@.@.+.] T y y y y u Y E ~  .s.s.( R R R R R R ^ ^ ^ ^ ( ^ ( ( ( / ( ^ ( ( / =.( ^ / / / / / / / / / ^ / ( / ( / ^ ^ ^ ^ ^ Y ^ Y R { .. .` E i i u y u _ d.d.d.d.d.d.d.d.g.d.d.d.l.b.u.R.9X9X9XtXcXMXGXIXLXIXLXIX",
"PXPXFXcXcXtX&X=X0XT.6.6.u.&.&.%.%.%.%.@.&.@.&.&.@.%.+.o._ u t y y u T ! {  .2...E Y Y Y R R Y R ^ ^ R ^ R E ^ ( ( ^ =.E ^ ( / R ^ ( ^ / ^ / / ( ( / / ^ ^ ^ ^ ^ ^ i ^ ^ Y g ^ Y R { ..#.X.( Y u y u T o.@.@.@.d.d.d.d.d.s.d.d.g.x.z.x.!.9X9XwXtXdXMXNXPXSXIXIXUX",
"PXPXDXvXxXaX&X8X&XT.i.i.7.%.%.$.%.@.@.%.+.&.&.+.+.@.@.+.o.( y y u u R ! ,. .....T T Y i i Y Y Y R ^ ^ i R R ^ R ( ^ ( ^ / ^ ^ =.^ R =.^ / ^ ^ ^ ^ / ^ ^ ^ ^ Y ^ ^ Y i Y Y Y Y Y R { .. .] ( Y u u u _ | @.@.d.@.d.d.d.d.d.s.d.g.l.l.5.U.9X9XtXdXcXNXSXHXHXIXAXLX",
"LXFXAXcXsXtX*X&XeXU.6.6.7.%.%.%.@.%.%.%.+.@.@.+.@.@.@.%.o._ Y y u Y R ! { } .. .T Y Y Y Y R Y R ^ R R ^ ^ =.^ R R ^ ^ ^ / ^ ^ ^ ^ ^ ^ / ^ ^ ^ / ^ ^ ^ / ^ ^ ^ R Y ^ Y Y Y Y Y u Y Q .. .X.W Y Y u T [ +.@.@.@.d.d...d.d.d.d.d.s.x.5.5.R.9X0XwXtXMXNXDXPXUXLXAXGX",
"LXAXNXvXxXrX&X&X0XT.6.i.3.3.$.$.%.+.%.@.%.&.&.@.+.%.@.+.+.X.T u u Y E ! {  . . .R i Y i R i Y Y R ^ R R R R ^ R ( ^ ( ( ( ^ / ^ ^ / ( / ( ^ ^ ^ ^ ^ ( ^ ^ i R ^ i R R i Y i ^ u Y Q  .[ X.( T Y Y W [ @.@.@.@.d.d...d.d.s.d.d.s.l.z.x.!.8X9XwXcXvXCXNXLXUXUXGXGX",
"KXAXcXcXxXrX&X*X0XU.6.6.6.3.%.%.%.@.+.+.%.@.@.%.%.@.+.+.+.o._ T Y Y T W ] +. . .R u i Y Y Y Y R R R R R ^ ( =.T E ( ( ( ( ( ^ ( R =.E E ( ( ^ ( ( ^ ( ^ ^ R ^ R ^ R R R u R R R i Q  .} X.) T Y W ] | @.@.@.d...d...d.d.d.$...s.l.z.z.R.0X9XtXdXvXSXBXLXUXLXLXGX",
"KXSXnXxXsXeX&X=X=XU.i.6.3.3.2.$.@.%.%.@.@.%.%.@.&.%.@.+.+.+.o.W T T T Q X.[  .} R Y Y Y i Y Y R R ^ ^ ^ ^ E ( E ( ( E ^ ( ( ( ( R ( ( ( ( ( ( ^ E ( ^ R ^ Y ^ R R R R i Y R u u Y W  .} ] ) T T ) [ +.| @...@.d.d...d.d.d.s.f.l.l.l.l.R.9XqXtXcXvXNXHXLXGXHXLXLX",
"LXDXNXvXyXeX=X=X=XP.6.6.7.%.%.#.%.%.+.+.+.@.%.+.+.@.+.+.+.+.o.` W T T Q ~ } } } T Y Y Y T T Y R R ^ R ^ ( ( ( ( ( E E ( ( ( E R E ( ( ! ( ( ( ( ( ^ ^ ( E R E ^ R R R i Y R R i i Q } >.{ ~ T W ` +.| ..@.....d.d.d.d...d.d.s.s.l.l.l.U.0XqXtXtXMXAXLXKXAXKXLXLX",
"HXSXnXvXyXeX=X8X=XU.6.6.6.%.%.%.@.%.@.%.+.%.@.%.+.+.%.+.+.O.#.X.W W W W ~ } O.} T Y Y Y Y R R R ^ E ( E E ( E ) ! ;.;.E ;.E ) ;.E E ;.( E ) ( E ( ( E ( ( ( ^ E R R R R R R R Y Y ! } { { W W ` [ +.@.| @.@.@.@...d...d.d...s.s.l.l.s.R.9XwXtXcXNXDXLXUXGXIXKXIX",
"FXBXmXvXsX0X;X;X0XP.1.1.7.>.%.#.%.#.+.%.%.+.+.#.+.%.#.+.+.+.+.+.{ Q ! Q ~ { } { E Y R R E R E E R ( ( ( ( ( ! ! E ;.;.! ! ! ;.! ) ) ! ( ;.E E E ! E ( E E E E R R R E R R R R i R ! } { ~ Q ~ ] | #.+.| ..@.$.@.d.d.$.d.d.d.d.f.l.7.2.T.9X0XtXcXNXSXSXSXHXLXIXIX",
"HXZXmXvXsXtX;X=X=XP.5.6.6.3.#.%.#.%.$.$.+.%.+.+.+.#.+.+.+.+.o.[ } { Q Q ~ ~ { { T T Y R R E E E ( ! E ! ! ! ! ;.! ! ! ! ;.! ! ! ( ) ) ) ! ! ;.E E ! ( ! ;.E E ( ( E R R E R R R R ! } { { Q { [ #.| +.| @.....$.@...d...d...$.s.l.l.s.R.tX9XtXdXNXSXHXHXIXIXIXHX",
"GXHXAXnXxXyX=X;XeXP.5.1.2.%.%.#.$.#.+.+.+.+.%.+.+.+.+.+.o.+.+.o.} } { ~ ~ { { } T i R R E R E E E ! ! ( ;.E ! ! ;.! ! ;.! ;.! ;.! ) ! ! ! ! ! ! ;.! ( E ( ! E ( ( E E E R R R R Y ! { { ~ ~ {  .| | +.@.@.| @.$.@.@.d.$...d.f.f.z.z.s.R.0XtXtXdXvXSXHXHXIXIXLXIX",
"HXAXCXnXxXsX;X;XtXP.>.3.3.%.O.#.#.#.%.+.+.%.+.#.#.+.o.+.+.+.+.+. .} } ~ ~ ~ ~ { T Y R R E E E E E ;.( ! E ;.;.! ! ;.! ;.! ! ! { ) ` ! ;.;.! ;.;.! ! ;.E ;.( E ! E E E E E R R i i ! { { { { [ | +.| | | | @.....@.....d.f.....l.s.z.s.R.9XtX0XcXvXSXSXHXIXIXLXLX",
"LXSXBXvXxXxX:X0XrXP.3.5.3.%.%.#.%.#.#.O.+.+.+.+.+.+.+.+.+.o.+.[ #.[ O.] ~ Q ~ { T Y T E E E E E R ! ( ;.! ;.! ! ! ~ ! ;.{ ;.! ;.` ` ` ;.! ` ! ! ! ! ! ! E ! ( ! E E E E Y R Y Y Y ! { Q } { | | | @.| | ..+...@...@.$...s.....f.z.5.2.R.eXtXtXtXnXSXGXKXIXHXLXHX",
"LXHXmXvXxXyX;X:XeXL.>.3.6.%.#.#.#.#.#.+.+.o.#.+.O.%.+.+.+.+.+.+.|  .#.[ { Q { Q Y T E E E E E ! ! ( ! ! ! ;.! ;.;.;.;.~ ;.{ ;.{ ;.` ` ` ;.` { ;.;.;.! ;.! ! ;.E E E E E E E E E Y ! Q { { }  .| ..| | +.+.@.| ..@.+...@.$.d.$.l.l.z.2.R.0XtX0XsXnXSXLXIXIXSXGXLX",
"KXGXZXnXcXxX;XeXeXL.3.5.3.%.o.%.o.#.o.+.+.#.+.+.#.+.+.+.+.+.+.[ +.+.[  .} ~ { Q Y E E E E E E ! ! ! ! ;.! ! { ;.` ;.~ ` { ;.{ ;.~ ` ` ` { { ! ! ! ;.E ! ;.! E ! E E E E E E R Y Y T Q { } }  .| | | | ..| | @...$...$.@...$...f.l.l.2..XtXtX0XdXvXSXGXLXLXGXFXLX",
"KXGXAXnXcXaX:X:X=XL.>.3.2.%.o.#.#.#.+.o.+.o.+.+.o.#.+.O.+.[ +.+.[ +.+.[ } { Q Q Y T E T E E E ! E ! ! ! ;.! ! ! ` { ` ` ;.{ ;.{ { ` ,.` { ;.;.{ ~ ! ;.! ! ! ! ! ! E E E E E T E T W ' ' }  . . .| | | +.+.@.+.+.@.........$...l.l.5.s..X9XtX0XtXvXDXAXGXHXLXLXLX",
"HXSXnXnXsXyXeX:XeXL.2.5.2.} #.O.o.#.+.o.+.o.#.+.+.+.o.[ o.+.[ [ +.+.|  .[ { { W T T T T T T ! ! ! ! ! ! ! ! { ! ` X.` ` >.;.{ >.{ ,.,.` { ` { ;.` ;.! ;.! ! ! ! ! ! T E T T Y T T W ' ] [ | |  .| [ | | | +...+.@.+.$.....$.$.$.x.5.x.R.0XqXtXtXcXSXGXGXHXIXIXIX",
"BXmXbXvXxXsX:X:X8XL.>.5.3.>.O.#.o.#.O.o.o.+.#.o.o.+.+.+.[ [ +.+.| O.| [ | [ ] Q T T T T ! ! ! ! ! ! ! ! ;.;.;.{ ` { ,.` >.{ ;.{ ` ` X.X.,.,.{ { { ~ ;.! { ! ! ! ! ! E E E T T T T W Q }  . .| | |  .|  .| +.+...+.@.+...$.$.$.l.5.s.2..XtXtX0XsXcXSXGXGXLXHXLXIX",
"mXnXbXbXcXxXeX:X8XL.>.3.5.#.O.O.#.o.+.+.+.o.o.#.+.o.[ o.[ o.+.[ #.#.#.| | [ ] ' T W ! E ! ! ! ! ;.! ! { ~ ;.{ ,.;.X.{ >.{ >.{ >.>.>.>.} X.X.X.X.{ { ` ! ! { ! ! ! ! ! ! E T T T T W ' }  .} | | [  .}  .| |  .+.+.| | $.+.$.$...s.5.5..XqXtX0XtXvXSXHXIXUXUXUXIX",
"SXSXAXnXbXyX:X:XeXL.>.5.3.>.O.O.%.o.o.o.o.+.o.o.o.o.[ [ o.[ [ [ [ | [ | [ [ [ ` T ! ! ! ! ! Q ! ! ;.;.{ { { ;.>.{ >.>.>.>.>.>.>.} >.>.>.>.>.>.O.>.;.>.{ { ;.! ;.! ! ! ! ! ! ! ! T W { } [  .[ |  .[  .[ #.| | | | @...| ....$.l.l.7.5.~.tXtX0XdXvXSXIXIXUXUXUXUX",
"AXNXmXnXxXyXrX:X=XL.5.3.3.O.o.O.o.o.o.o.o.o.o.o.o.o.o.[ [ o.[ o.O.+.[ #.+.| [ ~ ! Q Q ~ ;.! ;.{ ` { { ` >.} >.{ >. .>.} >.#.#.2. .2.>. .#.>.2.>. .>.} >.>.{ ;.{ ` ` ~ ;.;.! ` ! Q Q ' }  . .}  .[ } | [ | |  .| @.+.+.+.$...$.2.z.l.2..XtXtX8XsXnXSXHXUXIXIXUXUX",
"AXZXnXbXbXyX:X;X=XK.>.5.6.1.O.o.o.o.o.o.o.o.o.o.o.o.o.] ] ] o.[ [ } } #.O.[ { { ! ! Q ~ { >.{ { { >.;.{ ;.} >.>.>.#. .2. .2.#.%.2. . .2.#.2. .#. .>.>. .;.} { { { ~ ` >.{ { ~ ~ Q Q { } } } } } } [ [ } }  .#.|  .+...+.+.+.#.s.5.5.2.oX0XtX0XdXvXNXGXLXUXUXUXUX",
"FXGXmXmXbXsX:X;X;XK.3.6.3.,.o.o.o.o.o.X.] o.] o.o.] o.o.] o.o.] O.O.[ [ O.[ X.{ { ~ { } { { { ;.>.;.>.>.} >.>.2.2.#.#.2.2.$.2.$.$.2.2.2. .2. .2.2. .>.>.>.{ >.>.>.` ` ~ { { { { { Q { }  .} [ } [ } [ [ } | #.+.+.+.+.+.#.$.$.2.z.z.2.oX0XtX0XsXnXNXHXLXLXLXLXLX",
"GXAXAXmXcXyX:X:X;XL.1.3.6.>.o.O.o.X.o.X.o.X.o.o.o.o.] ] ] ] o.] O.[ X.[ [ O.{ { ~ { ` ;.{ { >.{ } >.{ >.>.>.>.>.#.2.#.$.$.2.&.&.#.2.#...$.2.2.2. .2.>.>.>.>.>.{ { >.{ >.{ { { { Q Q { } ] ] [ } [ [ [ { [ +.} +.+.|  .+.$.+.#.z.5.5.z.oXtXtX0XsXNXHXUXAXBXIXKXIX",
"HXFXGXSXnXxX>X-X:XL.6.1.3.,.>.o.o.X.*._ o.o.*.o.o.o.o.X.Q o.Q ] [ o.] o.{ } X.{ { { { ,.X.{ >.>.O.>.>.>.>.,.O.>.4.u.&.3.%.%.%.%.3.4.%.%.%.%.#.#.O.} >.>.O.>.} >.X.>.{ X.} >.{ >.{ Q { } { { } [ [ ] [ [ [ } [ | [  .O.#.#.+. .l.l.5.5.oXtXtX8XcXNXSXHXFXHXLXIXIX",
"LXLXLXFXnXxX>X;XeXL.>.1.3.,.,.o.X.*.o.o._ o.X.X._ X.X.` o.Q o.] X.] { X.{ O.{ { { O.>.{ X.>.X.>.>.>.>.o.>.O.,.p.!.!.!.!.!.!.!.!.!.!.!.!.!.!.!.^.^.!.{ O.>.>.>.>.>.} >.>.>.{ >.X.{ { { { { { ] { ] O.] ] O.[ O.O.O.+.|  . .+. .z.z.5.l..XtXtX0XtXNXSXHXHXHXLXHXIX",
"LXUXLXFXmXxX:X:XeXL.1.1.3.1.X.X.X.X.` X.o.X.X.o.] X.~ ] ] o.] Q X.] { } { { { { { { >.>.>.>.>.>.>.>.>.>.o.o.-.).)._._._._.).).).).).).).).).).).)._.p.o.O.>.#.#.O.>.}  .} } } { { { ' { { { ' [ ] [ ] [ [ [ [ [ } [ } #.#.#.+.2.l.5.5.oX0XtXeXsXmXHXHXHXHXIXLXFX",
"PXJXGXSXnXaXrX:X:XL.1.3.1.,.o._ X.*.X.X._ X._ X._ X.` ` _ o.Q o.] ] X.{ { { } { { >.>.} X.>.>.} O.3.>.O.,.,.^.'.`.`._._._.).).).).).).).)._.).`.)._.!.O.>.O.>.>.O.#.>.>.>.} >.>.{ { Q { { { { { ] ] ] ] X.] O.[ O.[ #.O. .#.+.2.5.z.5.oX0XtXeXcXSXHXHXHXIXIXIXHX",
"KXGXKXGXbXxXrX;X0XL.1.3.3.,.X.` X.*._ X.o._ _ o.o._ Q Q _ ] _ ] X.] { ` ] ] X.{ { >.>.>.} } >.>.O.>.O.,.{ !.`.`.`.`.`.`.).).).`.).).`._.).`.).`.`.`._.y.O.3.%.3.>.>.>. .>.} >.} } Q { { { { ] { { { ~ X.{ ] X.{ O.[ O.O.O.+.#.2.l.5.5.oXyXyXtXcXAXHXGXKXLXLXIXLX",
"IXLXJXDXmXxX:X:X;XL.<.1.1.X.X.` ` ` X._ _ ` ` Q ` Q Q _ _ Q _ ] ` X.X.{ { { Q { Q { } } >.>.>.>.3.>.>.o.a.[.`.'.`._.`.`.`.`.`.`.`.`.`.`.`.`.`.'.`.`.1XK.o.,.O.O. . .>.>. .>.} >.} Q Q Q Q Q ~ { { Q ] Q { X.] X.] o.O.O.O.#.%.2.5.5.5.oXeXtXtXsXnXHXIXLXKXUXUXUX",
"PXPXKXFXvXxX:X;X0XL.1.1.y.X.9.X._ X.o.Q _ ` _ ` _ _ Q Q ] _ ] ] ] ~ X.~ { { ] ] { { } >.>. . .>.>.,.,.i.'.'.].].`._.'.`.`.(.`.'.'.'.'.`.`.'.`.'.].].'.1X_ o.,.O.>.>.} { } { } >.{ Q { Q Q Q { Q { { ~ ~ { { X.] o.] ] o.} O.%.2.l.5.5.oXeXtXtXsXnXDXUXHXLXFXSXHX",
"PXPXJXFXbXxX:X:XeXP.<.1.6.y._ _ _ _ _ _ ` _ _ Q _ Q Q _ W Q Q Q ~ ] Q ] Q Q Q { Q O.O.>.} >.O.>.O.>._ _.'.].].].'.'.'.'.'.'.`.].'.'.'.'.'.].'.].'.].].|.!.` o.O.>.} >.} >.} } } { Q Q Q ~ ' Q ' Q Q Q Q Q ` ~ ~ X.X.X.O.X.O.O.4.5.5.5.oX0X0XtXtXvXAXGXIXIXIXKXKX",
"GXAXFXmXbXxX:X:X=XU.1.1.1.,.;.` _ _ _ _ _ _ _ _ _ _ W Q _ Q Q Q Q Q ~ Q ~ { Q ] { } O.} O.O.O.O.o.o.).[.].|.].].'.'.|.'.'.'.'.'.'.].].].].'.].[.[.].<X[.[.o.%.#.2.O.#.O.} } #.O.} W Q Q W Q Q W Q ~ Q Q Q { Q { ] ] X.o.X.o.O.3.7.5.z.oX0X0XtXsXcXnXHXIXIXIXLXGX",
"AXGXFXAXnXxX:X=XeXL.<.1.1.:._ ) _ _ _ _ ) _ _ W W Q _ _ Q Q _ Q Q Q ] ~ Q Q Q }  ...+.$.$...%.+.%.K.].].[.|.].].'.|.'.'.].'.'.|.].].].].].].[.[.].].|.|.[.!.%.$...$.$...$.......$.} W Q ' Q Q ' Q Q Q Q Q Q ~ { X.] X.X.,.o.O.2.7.5.5.oX0XeXtXsXcXNXGXIXIXHXLXHX",
"GXKXHXHXmXcX:X:X=XL.1.1.1.-._ _ _ _ _ W W W _ _ _ _ _ W W Q _ Q ` Q ] ~ Q Q |  .$.$. . .@.%.+.+.a.2X1X|.1X|.|.].|.|.|.].].'.|.|.|.|.|.|.].].1X|.1X1X1X1X1X[.u.$.2.$.$.$...$.........| W W Q Q W Q Q Q Q ~ ~ ~ ~ X.` ` X.X.o.>.3.5.5.5.oX8X0XyXsXcXmXSXLXIXHXKXLX",
"LXKXGXFXSXbXyX:X=XU.i.1.1.-._ -._ _ _ _ _ _ _ W _ Q W W W _ W Q _ Q W Q ] |  .$. .+. .$.@.+.+.p.2X1X1X|.<X|.1X1X|.|.|.|.|.|.|.|.|.|.|.|.|.|.1X1X1X1X1X1X2X3XK...&.$.$.$.$.$.$.$...| ..[ W ' Q W Q Q Q Q ~ ~ ` ~ ~ ` ` X.X.,.,.3.5.7.l.oX0XeXtXxXvXmXSXLXIXIXUXUX",
"IXIXSXGXAXnXyX=X&XU.<.y.1.-.) _ _ _ ( _ W _ _ _ _ W W _ W W W W Q Q _ ] | @. .| +.+.+...%.%.%.'.2X2X2X2X2X3X|.|.2X|.3X|.1X1X|.|.|.|.1X1X2X2X2X2X2X2X1X2X2X3X2X| $.&.@.f.$.$.$.$.@.| ..@.[ W W ' Q Q W ~ ~ ~ ` W ~ ` ` X.X.,.{ 5.z.5.5.oX0X0XyXsXvXmXDXLXIXIXLXIX",
"IXUXIXKXAXbXeX=X*XU.<.1.1.-.;.) _ _ _ W _ _ W W W _ W W W Q W Q Q Q ] @...| @.+.+.$.$.$.+.+.).3X3X3X3X3X|.|.3X3X|.|.3X|.2X2X2X2X|.3X2X1X2X2X2X3X2X2X3X3X3X3X7X!.+.$.&.$.$.$.$.$.........@.[ W W W W Q ~ ~ ~ ~ ~ ` ~ ` X.` X.>.5.5.5.Z.oXeXeXtXcXcXCXHXPXIXIXIXHX",
"UXUXIXLXFXcX:X=X&XL.<.<.y.-._ / _ _ _ _ W _ W _ W _ W W W W W W W [ @.| | $.$. .$.$.$.#.%.!.6X3X3X3X3X3X3X3X3X3X3X3X3X|.3X2X2X2X3X3X3X3X2X2X2X3X3X2X3X2X2X3X3X2Xu.&.h.$.$.$.$.$.@.@.$.$.....[ W W Q W ~ ~ ~ ~ ~ ` ~ { -.;.{ { 5.5.5.5.oXeX0XeXcXmXAXHXLXIXUXIXIX",
"IXHXLXHXZXxX:X=X*XP.<.<.1.9._ _ / _ W _ / W _ W _ _ W W W W T W | @.| @.$. .$.$.+.$.$.$.u.$X0X8X&X&X&X$X$X$X$X$X$X$X$X5X$X$X&X$X$X$X$X4X$X5X-X8X=X8X8X0X0X0XqX0XZ.&.$.h.f.$.f.$.@.@.$.@.@...@.[ W Q W ~ W ~ ~ ~ ~ ` ~ ~ -.,.5.5.5.5.z..X0XeXeXsXNXAXGXIXIXIXIXIX",
"SXUXLXGXnXsX=X=X*XP.<.<.1.:.) ) / ) ) ) W _ W _ W _ W W W W W @.$. .| | | @.$. .$.$.%.+.u.4X0XqXqX8X0X0X&X8X$X&X*X&X&X=X&X&X*X-X=X=X=X=X0X0X0XeX0X0XtXtXqXqXqXwXK.&.$.&.$.$.$.$.$.$.$.$.d.....d.+.W Q Q ` W Q ` _ ` ` X._ X.,.3.6.6.1..X=XeXeXyXnXSXHXHXHXHXHXHX",
"LXUXGXGXnXeX=X=X*XL.<.<.1.;.) ) _ ) ) ) ( _ _ W W W W W T ] +.+. .+. .$.+.$.$.+.$.+.$.$.&.R.R..X.X/.Y./././././.OXY.Y.R.Y.Y.Y.Y.Y.Y..XY.Y./.Y./.Y.OXY.Y././.oX(.a.&.&.f.&.$.$.f.$.$.s...s.$.....@.| W W Q X.` Q ~ ~ ` ` X._ X.6.6.6.1.oX8X=X0XeXcXBXSXHXHXIXHXBX",
"IXUXFXBXnX>X=X:X*XL.<.<.:.-.) _ ( _ _ ( _ W _ W _ _ W W o.+.+.$. ...$. .$.$.$.$.$.$.%.$.%.| | [ e 6 x 7 0 8 q q p l f f z l : ; 9 b z h h l s s l w p 8 6 6 _ +.d.$.@.&.l.$.2.$.$.@.d.$.$.$...d...d...W ` W Q ~ _ ` X._ _ X.,.3.6.6.3.oX8X=X0XeXsXBXSXHXHXLXIXGX",
"HXSXmXAXbX>X=X=X*XU.<.<.1.:.;.( _ ( _ _ _ _ W _ ~ W W O.@.+.+.+.$. .#.+...+.+.$.%.+.$.+.+.%.#./ 0 9 x & & : : : > > 2 x x 2 % : ; x > x > x x x 2 > 2 2 & & j &.$.@.&.&.$.$.$.$.$.$.$.$.$...$...d.....+.Q ` ~ ` ` ` ` ` ,._ ,.y.6.6.>.oX8X8X=XeXyXnXSXHXIXIXGXHX",
"UXHXAXBXxXeX=X=X*XL.:.<.<.9.;._ ( _ ) ) W _ W _ W W #.#.+.#.| +. .@.+.$.+.$.$.$.$.$.%.$.+.$.O.f 7 x & % * * : : < 1 1 1 1 : ; : % > 1 1 > 2 1 2 2 > : 2 & % 0 &.h.&.$.$.$.&.f.$.d.$.$...$...f.$.f.$...f.@.W ` ` X._ _ X.X._ X.6.1.6.5.@X8X0X=XeXyXmXAXKXHXLXLXLX",
"IXIXLXAXxXyX=X=X%XJ.:.<.<.9./ ) ( _ ) W _ W W _ X.| #.#.+.+.+. .+.+.$.+.&.+.$.+.$.+.$.%.$.%./ q q x % O % * % % & 1 > & > : @ 1 - : : : : : : 1 : : ; : & O = *.&.h.h.$.&.$.$.h.$.$...$.$.$...$.....f.d.@.$.Q ` _ _ X._ ` _ -.6.6.i.5.oX8X=X=XeXcXBXLXLXLXLXLXLX",
"FXHXHXAXcXzX=X:X=XL.:.y.<.-._ / _ _ ) ) W _ W ] +.+.#.[ +.+.+.+.+.$.$.+.$.+.$.$.$.$.$.$.%.` h 0 N # O % O % O % * & & : : : % 1 @ : > ; : : : : : ; ; ; & O & j h.&.&.@.$.z.f.4.f.$.$.$.$.....$...$.$.$.$.$.@.~ ` ` ` ` ` ,._ y.i.5.1.@X=X=X=XtXnXAXHXHXIXLXIXIX",
"KXGXGXBXbXzX:X*X=XJ.<.<.y.-.) ) _ ( ) _ _ W o.+.+.#.+.+.#.#. .$.+.%.$.$.$.$.$.&.$.$.$.$.#.j r k x o O O O O % * : * : ; : ; O 1 @ : : : ; : : ; & & % % & O O 0 %.h.&.h.$.4.$.$.$.$.$.$...f.$...f.$.$.$.$.$.$.$._ X.` _ ,.` X.1.5.i.1.@X=X=X%XyXnXAXSXAXUXUXIXLX",
"LXFXFXAXmXxX:X-X-XJ.:.:.<.:.) ) _ ) _ _ W #.+.#.+.#. .#.#.+.+.$.$.$.$.$.$.$.&.@.+.$.$.$.) s q N O O O o O O O % * & * * : & + 1 @ ; : : ; ; : & * % % O % O X 6 _ @.&.@.h.d.&.h.$.$.$.$.$.$.$.$...$.$.$.$.$.$.$.$.` ` _ _ ,.,.1.5.i.5.@X=X*X=XzXnXFXHXKXIXIXIXIX",
"GXLXLXHXAXxX:X*X:XJ.<.:.i.-.) ) _ ) ) ` %.O.O.#.+.O.#.#.#.+.$.#.+.$.+.$.$.$.@.$.$.$.$.O.f p k 5 O O X O O O O % % * * * % ; + : + : ; ; : : : ; % % % % % & X & h %.d.h.&.d.$.$.f.$.f.$.$.$.$.f.$.$.$.$.$.$.$.$.$.4._ ,.` ` -.y.i.i.5.@X=X*X:XzXbXFXFXKXLXIXHXIX",
"IXIXIXLXFXxX>X%X:XL.<.<.<.-._ _ _ ( X.O.O.O.%. .+.+.+.%.#.$.+.$.$.$.$.$.$.$.$.$.$.$.%.=.a p N + O o O O O O O % * * & * ; % + 1 @ ; : : ; : : % % % % % % & O X p _ h.&.d.@.h.$.$.f.$.d.f.d.$.$.$.$.f.$.$.$.$.$...l.%.` -.-.,.1.i.i.1.@X:X%X:XzXbXAXFXKXHXLXIXLX",
"LXLXHXHXZXxX:X:X=XL.<.<.<.-.;.) _ O.3.O.%.#.>.#.%.%.$.$.$.%.$.%.$.$.$.@.$.$.&.@.h.@.o.f p c x O O O o O O O O % & & * * ; % + 1 + ; ; ; : ; : : & % % O O * O X 9 =.@.h.h.h.h.h.f.$.f.f.$.2.$.$.f.$.l.$.2.h.$.$.$.$.$.%.` -.,.i.1.i.1.%X=X*X=XzXmXAXHXKXLXIXIXIX",
"KXAXGXGXmXxX>X-X*XP.:.i.1.<.;.` 3.%.%.O.2.#.%.#.%.&.$.$.$.$.f.f.f.f.f.g.d.d.d.f.d.h.o.s a A & O O o O O O O O % % * % % ; % O : + ; ; ; ; : ; ; * * % % O * O X = h &.g.h.h.d.j.d.d.j.d.f.f.f.$.$.l.f.$.l.4.4.2.2.$.$.l.$._ ,.<.i.i.:.%X*X%X:XxXnXFXKXLXLXKXLXIX",
"LXLXJXFXZXxX>X-X%XL.:.:.<.;.-.7.>.4.$.2.2.z.2.f.f.f.f.s.f.f.f.f.d.d.d.d.d.f.f.f.h.d.o.g N 2 O O O o + O O @ @ ; * * * ; : ; + 1 @ ; ; ; ; : % ; * * & @ % % * O O w o.f.d.j.j.j.f.g.j.d.g.g.f.s.f.f.s.l.f.l.l.z.l.z.2.4.f.$.,.i.i.i.5.@X:X*X:XzXnXFXKXLXIXLXKXIX",
"UXIXUXJXZXxXzX:X*XT.:.1.1.6.6.7.7.z.z.7.l.z.z.b.z.z.l.l.l.l.l.l.l.l.l.g.j.j.h.l.l.&.-.f G X + + + @ + O @ @ - @ * ; : : ; ; + ; + ; ; * ; ; ; ; ; * * % O * * O O 9 / h.l.l.j.l.l.l.l.l.l.l.l.l.l.l.l.l.z.l.l.z.z.z.z.z.z.l.b.1.i.:.:.=X*X*X=XxXZXGXKXIXLXLXLXIX",
"IXKXFXAXmXxX>X:X*X/.i.5.6.6.i.6.u.6.6.7.5.7.5.7.7.7.5.z.7.7.z.7.7.4.z.4.z.l.h.z.b.%.=.V 2 O O o O @ O O O % % ; * ; * $ @ @ O ; + % ; ; : ; ; ; * * * * % @ : O X > j b.l.2.4.l.z.2.l.7.z.2.7.z.2.z.7.7.7.7.7.7.7.7.7.7.6.6.6.p.5.5.i.*X*X*XzXxXFXHXLXKXKXLXHXIX",
"IXKXKXGXFXnXxX>X:XR.i.1.i.i.1.1.1.6.6.i.5.1.5.5.5.5.5.5.5.z.5.7.z.7.z.5.l.5.7.7.6.y./ D @ + + o O @ @ @ @ $ * * $ ; ; % $ @ o ; + * ; ; : : ; ; ; ; % % $ $ ; $ X & j 3.7.7.7.7.5.2.7.5.5.5.5.7.5.5.5.5.5.5.1.5.6.6.5.5.5.i.i.i.i.i.Z.*X*X=XzXBXHXLXHXLXHXIXUXLX",
"IXIXLXHXSXmXxX>X:X.Xi.i.1.1.1.1.<.6.i.6.5.5.1.5.5.5.5.5.5.5.5.5.5.5.5.5.5.5.6.5.6.,.F.5 + + + o @ @ @ @ @ $ * ; ; $ ; ; % + + ; o * < < < ; ; ; ; $ ; % % @ % $ O . k y.7.6.6.6.5.5.5.3.5.5.>.1.5.1.1.5.1.1.1.1.i.1.i.i.i.6.i.i.i.i.:.*X*X:XbXGXIXIXUXLXFXUXUXUX",
"LXLXJXAXFXAXxX>X:XR.:.:.:.:.;.;.;.:.,.<.,.;.1.1.:.1.1.<.1.<.1.1.:.<.1.1.5.5.5.6.y.q.G . + o + + X @ @ @ * ; ; ; : ; ; $ $ @ O ; o - ; ; : - * ; ; % ; - @ @ % ; O o 2 6.6.1.5.>.5.>.>.>.>.>.,.1.1.1.5.1.1.1.<.<.1.:.:.:.i.i.:.:.i.:.1.*X=XyXnXHXUXUXUXHXGXLXUXIX",
"LXLXJXFXFXAXnXzX%X%X@X@X@X.X@X@X.X/..X.X.X.XY.T.T.T.T.U.U.U.U.L.L.L.L.L.L.L.Z.Z.i.I.4 # + + + - @ @ @ @ ; ; < < : ; ; $ $ O O $ X - ; * - @ * ; ; ; - % % @ + ; O o O r.U.T.T.T.T.U.U.U.U.U.P.P.L.L.L.C.J.L.P.P.P.P.J.U.U.U.U.T.T.T.T.*XeXxXAXIXUXUXLXUXIXLXLXHX",
"UXUXKXJXGXBXnXxXzX=X=X*X=X:X*X:X:X>X:X:X>X>X:XzXzX:XeXyXzX>X>X:X=X:X:X=X=X=XeX*XY.G $ # $ @ + + + @ $ ; ; ; < < : ; < < - + o $ o @ $ $ ; ; - - ; ; - * $ + @ ; @ o X G %X>X>X>X>X>X>X>X>X>X>X>X>X:X>XzX>X>X>X:X>X>X:X:X:X*X*X=X:XzXeXyXxXmXGXLXLXLXLXIXIXIXKXGX",
"LXKXLXKXKXAXZXbXzXyXzXzXyXzXzX>X:X>XyXeXyX>XyXyXyXyXyXyX:XyXyXyXeXyXyXyXyXyXeX=X/.5 # # + $ - # @ $ ; ; < < < : < < 1 < - + O $ o $ $ $ - - - < - ; ; - % $ + * - + o 4 %XyXeXyXrXyXrX>XyX>XeX;X:X:X:X=XeXeXeXeXeXeX:X:X:X:XzXxXbXbXmXBXGXGXHXIXLXFXKXIXIXIXGXFX",
"IXUXUXUXLXGXFXBXmXmXmXmXmXmXbXzX>X>XzX:X>XyXyXyXyXeXyXyXyXyXyXyXeXyXyXyXyXyXyXyXL . # # - - - - - ; ; ; ; : < : < < < < - - o - o % $ ; - - : < ; ; ; - * @ @ ; , - + ; @XyXxXyXyXyXzXrXyXyXyXtXyXtXyXyXyXyXyXeXeXeXeX:XyXxXnXZXFXGXHXGXGXHXIXIXUXLXIXIXIXGXGXFX",
"IXUXUXUXKXAXIXKXKXLXLXKXGXLXZXmXbX@X@X%X%X*X=XeXyXyXsXxXyXyXyXeXeXeXeX:X:X:XeXeX2 # # , - , < < 1 : 1 : 1 3 3 1 3 1 1 < - + X + + ; ; ; ; ; : < : ; < ; ; - - * ; - - - U @XXXXX@X@X@X%X@X%X%X%X%X*X*X=X:X=XeXeXeX:X=X*XxXnXFXGXHXGXHXGXBXGXHXIXIXLXIXLXGXGXKXKX",
"PXPXLXIXUXFXKXUXIXIXIXGXZXIXLXLXLXS       3 3 < : : < - < 1 3 4 Z Z 5 5 Z 5 A A - - - , 1 3 5 5 5 5 5 5 x Z A 5 5 3 1 < ; - o - - < ; 1 < : 1 1 4 4 2 4 1 : : ; , , - - - - - + - + - - + + # # O O - - - - - -       A IXGXZXIXUXUXKXGXIXKXZXGXKXKXLXFXZXUXPXUX",
"LXIXIXIXKXGXKXIXGXKXGXZXGXKXZXKXIX3   .   3 3 < 3 4 < < - - - - , , - + + X ; - - , 1 3 Z D D D D A S S F F D D A 5 3 3 3 < + - - < 3 3 4 4 5 Z A A A A A 4 3 3 3 3 , , - - + + + - - < - - # # - ; ; 3 3 3 3 3   .   4 LXIXIXKXGXIXFXUXUXIXGXKXKXLXUXUXGXPXUXUX",
"IXUXUXUXIXUXIXKXUXPXIXFXFXKXKXKXGX, .     1 3 3 3 - - + + + - - , , - + + X - - - < 3 S F J J J H F H H H J J J F S Z Z 5 3 - - - 4 5 Z S S D D H H H F D S S Z 5 3 3 , , , + + + + - - , , , # - - - 1 3 4 3 3 . . o 1 GXIXIXIXPXKXZXUXUXKXKXUXUXUXUXUXUXUXUXPX",
"KXIXIXIXIXIXUXIXUXUXIXIXIXGXZXmXzX- . o o ; < - - + + + + + - + - + + + + + $ - 3 5 S F K L L L J J J J K L L K K H F F A A 3 4 Z A D F H J J K K L K J H H H F F S Z 3 3 < - + - + - - - - , # + + X + 1 1 3 4 # o o 1 ZXKXLXIXUXPXFXFXIXKXIXIXUXUXUXUXUXIXPXLX",
"IXKXGXKXGXKXUXFXIXIXKXFXZXZXbXXXI + . o o . .     . . . + + . . + + + + , , 3 3 Z S F K L I L L L L L L P P L L L K K H H D F D F F H K L L L K L L L K K K K K J H F S Z Z 3 3 , , - # # . # # . . . . . . . X . . . < XXbXGXLXUXPXUXKXKXLXIXIXIXUXUXUXPXIXKXPX",
"IXIXGXGXFXIXLXKXLXIXKXLXGXbXXXH 3 . . . . . + + + + - - - - < 3 3 3 5 Z Z Z S D F H K I P I I P P L L I P P P P I I I L K H L H J J K I I L I I I I L I L L L I L L J H H F F S S Z 5 5 3 3 , , , - - $ - + + + o o . # F XXmXLXUXUXUXUXGXKXLXIXGXPXPXKXUXIXFXGX",
"IXKXFXKXFXKXIXFXZXIXLXKXZX%XK 3 , - - , < 3 5 Z Z S A D S D D F F H H H J J K L L L I I I P I I P P I P P I P P I L I I I I I L L I I I I I I I I I I I I I I I I I I I L L L J H H H F F D D S D S S S A S A S Z A Z Z S  XxXFXLXIXPXKXLXLXPXUXIXIXIXKXIXIXLXFX",
"LXUXUXUXUXKXKXLXKXIXIXLXZX%XH C 5 C S S S D F H J J J J L L L I L I I I I I I I I I I I I I I I I I P I I P P P I I I I I I I I I I I I I I I I I I I I I I I I I I I I I I I I I L L L L L L K L K K K J J J J J J H H K  XzXGXIXPXPXPXIXLXIXIXKXIXUXUXUXIXGXIX"
};
