/* XPM */
static char *d9768a2d4b2249dddaa725b3e26da4b3q9IyJEwCmjuRsSaV[] = {
/* columns rows colors chars-per-pixel */
"128 128 247 2 ",
"   c #050917",
".  c #000C25",
"X  c #06142B",
"o  c #031A3C",
"O  c #051637",
"+  c #121B31",
"@  c #15253D",
"#  c #0E223A",
"$  c #2C313A",
"%  c #031C44",
"&  c #041D48",
"*  c #04234B",
"=  c #09254B",
"-  c #152946",
";  c #1B3249",
":  c #052C5A",
">  c #072955",
",  c #142E54",
"<  c #06325E",
"1  c #0D335C",
"2  c #173759",
"3  c #27364A",
"4  c #353D49",
"5  c #263B55",
"6  c #2D3A50",
"7  c #053362",
"8  c #0B3463",
"9  c #0B3B6C",
"0  c #073868",
"q  c #143B65",
"w  c #093E72",
"e  c #053164",
"r  c #223F62",
"t  c #28435B",
"y  c #394758",
"u  c #3A424C",
"i  c #1A436A",
"p  c #0C4275",
"a  c #0B457A",
"s  c #0C4A7D",
"d  c #064478",
"f  c #134C7C",
"g  c #174875",
"h  c #1A527B",
"j  c #0E466E",
"k  c #284866",
"l  c #39536A",
"z  c #244D75",
"x  c #285679",
"c  c #385877",
"v  c #324F67",
"b  c #3B627A",
"n  c #28647C",
"m  c #444C55",
"M  c #4B525A",
"N  c #4E5258",
"B  c #725A4E",
"V  c #465768",
"C  c #575D65",
"Z  c #455C74",
"A  c #48576A",
"S  c #5B626A",
"D  c #486479",
"F  c #556878",
"G  c #5A6D7B",
"H  c #64676B",
"J  c #676C74",
"K  c #6A7279",
"L  c #7A7B7C",
"P  c #757778",
"I  c #7C6E64",
"U  c #7A6458",
"Y  c #85776E",
"T  c #8A827D",
"R  c #93857C",
"E  c #0C4D82",
"W  c #064C83",
"Q  c #114E82",
"!  c #0D5285",
"~  c #0D558B",
"^  c #0D588C",
"/  c #135384",
"(  c #1C5582",
")  c #12568A",
"_  c #145A8C",
"`  c #1B5C8C",
"'  c #1B5886",
"]  c #165E92",
"[  c #0C5C93",
"{  c #225D8B",
"}  c #275984",
"|  c #365D81",
" . c #146195",
".. c #1D6293",
"X. c #1B6699",
"o. c #19689C",
"O. c #136296",
"+. c #24618E",
"@. c #2B638B",
"#. c #396586",
"$. c #236493",
"%. c #2B6A96",
"&. c #246A9B",
"*. c #2B6D9B",
"=. c #266796",
"-. c #336E9A",
";. c #356B94",
":. c #2E709E",
">. c #33719D",
",. c #3B739B",
"<. c #1A75AA",
"1. c #136CA2",
"2. c #246FA1",
"3. c #2C73A3",
"4. c #2775A7",
"5. c #3374A3",
"6. c #3C79A5",
"7. c #3B7CAA",
"8. c #3778A6",
"9. c #257EB2",
"0. c #486A86",
"q. c #536D82",
"w. c #556E87",
"e. c #4D718B",
"r. c #587388",
"t. c #487597",
"y. c #577A97",
"u. c #456E93",
"i. c #677987",
"p. c #737C86",
"a. c #637D96",
"s. c #437BA4",
"d. c #437EAA",
"f. c #4B7EA5",
"g. c #547FA3",
"h. c #3C80AD",
"j. c #3884B4",
"k. c #2A84B6",
"l. c #5B839C",
"z. c #4E879F",
"x. c #79838A",
"c. c #67849A",
"v. c #778897",
"b. c #758B94",
"n. c #4482AD",
"m. c #4C82AB",
"M. c #4A81A7",
"N. c #5285AC",
"B. c #5885A7",
"V. c #4A86B1",
"C. c #4888B4",
"Z. c #5B8DB2",
"A. c #538BB4",
"S. c #5A92B9",
"D. c #5691AF",
"F. c #6C8BA4",
"G. c #678AA7",
"H. c #738DA4",
"J. c #6894AA",
"K. c #7894A9",
"L. c #6C9ABB",
"P. c #6695B7",
"I. c #739CBC",
"U. c #7899B4",
"Y. c #618FB3",
"T. c #78A1BD",
"R. c #6FA0BF",
"E. c #3D93C2",
"W. c #4695C2",
"Q. c #689CC1",
"!. c #729FC2",
"~. c #79A4C4",
"^. c #75A7CB",
"/. c #868788",
"(. c #938C88",
"). c #99928D",
"_. c #858E96",
"`. c #8A9398",
"'. c #979799",
"]. c #8F8F90",
"[. c #A59C99",
"{. c #A5978C",
"}. c #A9A39E",
"|. c #8899A6",
" X c #969DA5",
".X c #829DB4",
"XX c #9AA3AA",
"oX c #88A3B9",
"OX c #96AAB8",
"+X c #96ADB9",
"@X c #A7A6A8",
"#X c #B4ACA8",
"$X c #B9B2AD",
"%X c #A8ABB5",
"&X c #A3B4BD",
"*X c #ABB4BA",
"=X c #BBBDBD",
"-X c #B7B5B8",
";X c #B2AEB7",
":X c #A09EA2",
">X c #C3BDBC",
",X c #C1B9B5",
"<X c #C6C1BE",
"1X c #87ABC6",
"2X c #95ADC3",
"3X c #8CB1CB",
"4X c #98B4C8",
"5X c #97B9D1",
"6X c #87B5D5",
"7X c #A8BAC8",
"8X c #B7BBC4",
"9X c #A4BED2",
"0X c #C3BEC6",
"qX c #BEC2C2",
"wX c #B8C3CC",
"eX c #A7C3D7",
"rX c #B6C6D4",
"tX c #B2C5D2",
"yX c #BBD3E2",
"uX c #C3C5C5",
"iX c #CBC5C4",
"pX c #C6CACA",
"aX c #CBCECE",
"sX c #C7C5CA",
"dX c #D2CDCC",
"fX c #D4CBC6",
"gX c #CCCCD3",
"hX c #C3CBD3",
"jX c #D1CED3",
"kX c #CED2D2",
"lX c #CCD2DB",
"zX c #D2D5D6",
"xX c #D9D4D5",
"cX c #D4D4DB",
"vX c #D6D9D9",
"bX c #D9DDDD",
"nX c #DAD7DB",
"mX c #E1DDDF",
"MX c #DADDE3",
"NX c #D6DAE1",
"BX c #CAD7E1",
"VX c #E1DDE2",
"CX c #DDE1E1",
"ZX c #DEE2E9",
"AX c #DBE9F2",
"SX c #E1E4E4",
"DX c #E4E5EA",
/* pixels */
"vXvXbXaXaXaXkXbXvXvXbXCXbXvXaXaXzXvXzXbXvXvXbXbXbXbXvXbXbXbXbXvXvXzXbXvXbXvXvXvXbXbXbXCXbXaXaXCXzXvXvXzXkXzXzXbXCXvXzXkXkXkXbXbXbXbXzX=XaXuXvXvXzXvXCXSXbXkXpXvXbXbXzXzXbXvXvXvXvXkXzXvXaXkXbXvXaXvXCXCXbXvXvXvXbXbXbXbXvXbXbXbXzXbXCXCXCXvXvXCXvXvXvXbXvXvXbXvX",
"zXkXzXaXaXkXbXbXzXzXvXbXbXzXaXqXaXbXbXbXvXSXCXCXzXvXvXvXbXzXaXkXvXCXCXbXbXvXzXzXaXzXvXzXbXbXaXvXaXaXaXzXvXaXkXbXCXzXaXzXbXbXbXkXaXvXvXkXzXbXkXaXaXvXbXbXbXbXvXbXbXbXbXvXzXkXaXzXzXpXaXzXaXpXzXzXkXvXzXvXkXbXbXbXbXvXbXvXaXzXbXvXvXvXvXvXkXaXbXbXbXvXkXbXbXbXbXzX",
"zXaXbXbXaXbXbXbXbXbXvXkXbXkXbXqXpXvXbXbXbXbXbXvXbXbXbXkXvXzXzXvXvXbXCXbXbXbXaXuXaXaXvXbXCXvXaXkXaXzXkXaXpXaXvXaXzXvXzXvXvXvXbXzXvXbXaXpXCXCXvXbXbXvXbXvXbXbXbXbXbXvXzXvXaXbXbXvXuXaXzXzXzXzXvXaXvXbXbXpXkXzXaXbXkXkXkXzXaXzXbXvXbXzXzXbXCXCXbXbXbXCXbXbXvXvXzXzX",
"aXvXSXSXbXbXvXCXbXzXkXuXzXzXvXbXzXzXzXbXbXvXkXkXbXbXvXCXbXbXvXvXvXzXvXbXbXzXzXvXvXCXSXCXbXvXkXzXbXkXpXvXpXzXaXaXkXbXkXpXaXzXzXzXbXCXzXvXvXvXvXaXkXvXbXkXkXvXbXbXvXzXvXkXvXbXvXbXbXbXzXvXvXvXzXkXvXvXvXzXzXaXpXzXzXvXzXbXbXvXvXvXzXbXbXbXCXbXvXvXvXbXvXbXbXvXvXbX",
"zXbXbXbXbXbXvXzXbXzXuXkXaXzXvXCXbXbXvXzXaXaXuXkXzXvXzXzXbXvXzXkXzXvXbXvXbXbXvXvXvXbXbXkXaXvXaXqXpXkXaXvXzXzXvXbXzXkXvXuXuXpXzXvXzXbXbXzXzXbXbXzXkXvXbXvXvXbXbXbXvXzXzXkXvXvXvXaXaXbXzXvXvXvXzXzXvXzXkXzXvXaXbXvXpXaXzXbXzXkXvXbXzXvXvXbXbXbXbXbXbXzXbXvXCXvXkXzX",
"bXbXbXbXvXzXzXzXaXbXbXkXvXvXbXbXbXbXCXvXzXzXkXkXkXpXuXpXkXzXvXkXzXvXzXbXvXzXbXbXzXkXvXzXvXbXvXvXzXzXvXaXzXaXvXbXzXkXzXuXbXvXaXbXzXzXzXbXvXbXbXbXvXvXaXvXbXbXbXkXvXvXvXvXvXvXvXzXbXzXaXbXbXvXvXbXbXvXkXvXaXvXvXvXkXzXbXbXbXbXbXpXzXvXvXzXbXbXbXCXCXbXbXCXbXbXzXaX",
"bXbXbXbXvXbXbXbXaXvXbXzXaXbXbXvXbXbXbXvXzXaXzXkXuXzXzXaXbXvXbXzXzXaXkXvXbXbXzXzXvXzXvXvXvXvXbXbXvXvXbXzXbXvXbXvXzXvXkXaXaXbXzXvXkXuXzXbXzXbXbXCXvXkXvXvXkXzXvXbXCXzXaXkXvXuXpXuXkXbXzXbXvXbXbXSXCXbXvXkXkXkXaXvXbXbXbXCXSXCXzXuXkXaXzXbXbXaXzXCXCXbXzXbXvXkXvXaX",
"bXvXvXCXbXbXbXvXvXvXzXvXzXvXbXbXCXCXbXbXvXkXkXaXaXbXCXCXbXzXbXvXvXuXpXaXvXbXbXzXvXvXbXzXbXbXbXbXzXkXvXbXbXbXbXbXbXbXvXaXzXvXzXzXkXpXvXvXvXvXbXvXzXzXbXbXCXkXaXvXzXzXpXqXaXbXbXvXuXkXvXbXbXvXkXzXkXbXbXbXbXzXzXbXkXkXvXvXvXvXvXpXpXpXpXzXbXzXzXbXbXzXkXbXkXvXvXbX",
"zXpXbXCXbXbXbXbXbXbXkXaXzXkXvXbXvXvXvXkXkXzXzXbXvXkXzXbXbXzXpXbXbXzXaXbXzXCXCXbXaXkXvXbXbXbXCXCXbXvXkXvXzXCXbXCXbXaXkXkXpXvXCXCXvXkXbXbXvXvXbXvXzXvXbXvXvXvXbXvXvXzXvXvXbXvXkXzXbXbXkXzXvXkXaXzXzXvXkXvXbXbXvXbXvXvXvXzXvXvXCXaXvXvXCXCXCXCXbXbXbXzXaXzXzXkXvXbX",
"vXbXbXzXzXCXbXkXaXvXbXkXaXkXvXvXaXbXvXkXuXaXbXbXvXvXkXzXvXzXkXvXbXbXCXbXzXzXbXvXzXbXCXSXCXCXCXCXbXvXvXvXbXbXbXvXvXbXCXbXvXbXCXkXvXvXvXbXbXbXCXSXbXbXzXzXbXbXvXbXvXaXbXSXCXbXbXCXCXvXvXvXkXuX=XvXbXCXCXCXSXvXaXkXvXvXzXkXbXbXbXzXvXkXbXbXbXbXvXbXbXbXvXCXzXkXCXCX",
"vXvXkXkXzXvXkXzXzXbXkXkXpXkXkXvXaXkXbXvXvXkXbXbXvXvXbXzXaXzXbXbXbXbXbXbXkXbXCXbXbXzXvXzXzXCXbXbXbXbXkXvXbXbXvXaXbXbXbXbXbXzXzXkXuXaXvXvXbXCXbXCXbXbXvXkXkXzXbXkXvXaXvXvXCXCXbXSXzXvXbXCXCXvXbXCXbXbXbXbXvXbXvXkXzXvXvXaXbXbXzXzXbXkXvXzXzXbXbXvXvXCXvXkXaXzXaXbX",
"CXbXzXzXbXbXbXCXCXvXvXbXbXvXbXbXbXvXbXbXbXzXkXbXCXbXbXvXvXbXCXCXzXaXkXbXbXvXbXvXzXvXvXaXzXbXzXvXbXvXvXkXbXbXzXvXzXbXkXuXaXuXkXCXbXpXaXvXzXvXvXbXbXvXzXkXaXzXvXaXuXzXvXkXvXvXbXbXCXbXSXbXvXCXbXvXvXkXzXbXzXvXvXzXzXkXkXaXzXaXvXbXzXvXbXbXbXbXbXkXzXzXzXvXbXvXaXvX",
"vXbXbXvXzXzXvXbXvXzXkXzXbXbXCXCXbXvXvXvXvXbXkXbXSXaXbXbXkXzXvXbXvXbXvXvXbXbXvXvXCXCXvXvXzXaXzXzXvXbXzXzXbXbXaX=XzXaXkXaXkXkXuXvXCXSXCXzXzXpX-X=XuXvXzXvXvXvXzXbXzXzXaXaXpXaXzXbXbXbXbXbXvXbXvXkXvXvXvXbXbXbXzXbXbXzXvXvXaXaXvXuXpXbXCXCXSXSXbXvXzXkXzXbXbXbXvXkX",
"zXbXSXvXbXvXCXbXzXvXkXzXpXuXzXbXCXCXbXbXCXbXbXCXbXkXvXzXkXzXkXvXvXbXzXvXbXCXvXkXbXbXCXCXbXbXbXvXvXzXbXbXvXvXaXaXCXCXbXvXzXaXaXkXbXvXbXCXbXbXkXqXaXpXaXkXaXpXvXbXbXbXuXkXvXkXkXbXvXvXbXvXbXbXbXbXbXvXzXvXbXvXzXzXCXvXvXvXaXzXaXaXvXvXvXvXbXCXvXzXCXbXkXvXvXbXvXvX",
"vXbXvXzXzXbXbXbXCXvXbXbXbXkXkXaXpXaXbXSXbXzXCXbXvXbXvXaXbXbXbXSXCXbXaXpXbXbXbXzXvXvXbXbXvXbXvXpXpXaXaXvXzXkXvXCXbXCXCXbXbXvXzXvXvXzXbXbXkXvXbXCXbXbXvXzXvXpXzXzXzXzXaXzXbXbXzXbXbXbXvXzXbXvXaXaXvXkXkXzXvXkXaXvXvXvXvXvXbXCXbXbXbXvXvXzXvXzXvXkXvXvXCXCXzXvXvXvX",
"bXbXvXkXzXvXkXkXbXvXzXkXvXSXkXaXzXvXbXzXvXvXbXaXvXvXvXkXzXbXCXvXvXCXkXvXbXbXvXbXbXvXbXbXvXvXvXpXpXzXzXzXvXzXkXzXvXvXbXbXbXbXzXzXzXbXCXbXpXaXvXzXzXbXCXvXvXaXzXbXbXzXvXkXvXvXvXvXbXvXbXCXbXkXuXaXaXvXvXvXzXaXzXzXvXbXbXzXvXvXvXCXbXzXvXzXkXzXpXaXkXzXvXbXbXzXkXzX",
"vXbXzXbXaXzXbXvXbXbXvXzXbXzXzXzXbXbXaXpXkXbXbXvXbXzXCXCXvXvXbXzXzXpXkXvXCXbXCXCXzXvXbXbXkXpXkXzXbXbXbXzXvXvXvXzXvXvXbXbXbXvXbXCXbXbXbXvXvXuXpXvXzXzXvXbXvXvXaXkXbXbXvXzXzXzXvXbXvXSXCXSXvXaXkXpXqXkXbXbXbXkXbXbXbXvXbXvXvXkXzXbXbXzXvXvXvXbXuXuXaXaXvXvXvXaXkXzX",
"kXzXkXuXvXbXCXpXbXbXbXbXCXbXvXkXvXbXbXvXqXaXkXvXvXvXvXvXzXzXvXvXbXzXaXbXbXbXbXCXvXvXvXvXvXCXvXkXzXvXbXzXzXbXvXbXbXzXCXbXbXvXbXvXaXbXCXbXbXkXkXbXzXvXzXzXbXbXbXzXvXbXzXzXaXaXaXCXaXvXvXbXCXCXbXkXpXvXCXCXbXvXvXvXvXvXvXpXvXkXaXzXvXbXzXvXkXkXbXbXvXpXkXbXbXkXzXCX",
"zXzXbXkXSXCXbXbXCXzXvXbXkXaXkXaXvXzXbXaXuXzXbXzXzXvXzXzXkXaXaXkXzXbXbXvXbXvXbXvXkXkXbXbXSXvXkXvXbXvXvXbXbXCXCXCXzXzXCXvXvXbXvXaXaXvXzXvXvXvXbXbXvXzXzXaXaXzXzXvXvXzXbXbXbXvXaXvXzXzXuXkXzXzXvXbXkXvXbXvXvXvXvXkXkXqXuXzXvXvXvXvXvXvXzXaXqXkXvXCXbXvXbXCXCXbXbXbX",
"CXbXbXvXbXbXaXaXbXbXbXbXaXaXvXvXvXuXuXkXvXbXbXCXbXzXvXkXvXvXzXkXbXbXbXbXCXbXbXvXkXaXbXbXzXpXkXzXvXvXaXaXvXvXvXvXvXbXbXbXCXbXvXkXaXzXvXvXzXbXvXaXpXkXaXpXaXbXkXpXvXbXvXbXbXbXbXvXbXzXkXuXqXkXzXkXaXaXvXvXkXvXbXvXbXuXpXvXbXbXbXbXvXvXbXkXzXaXzXbXbXzXvXzXvXvXzXvX",
"bXbXvXvXzXzXpXaXvXzXbXaXbXvXvXbXbXvXqXG r.c.D v v r.b.).r.n @.,.J.L.U.J.J.J.J.G.L L b.+X+X+X+X+X&X&X+X&X7XwXwX*X].B B B Y T U Y Y U I Y [.R ).[.[.iXbX$X[.iXdX,X<X#X<X=X$X#X#X-X$X$X].i.c.b.b.b._.b.x._.x.L L L P K S P K L J zXzXvXbXvXbXzXzXzXkXaXpXpXvXvXbXvX",
"bXbXvXSXbXzXpXzXvXkXaXuXvXCXbXkXSXCXvXc.K.|.|.c.v k l.l.P n j j n z.D.G.B.G.G.c.P L oX+X+XOX+X+X7X7X&X+X&X*X*X*X].B B I U U B (.Y I I Y [.>X{.[.R >XiXiX#XdXnX>X>XiX$XiX-X$X<XiX=X}.[.x.`._.`.`.K.b.x./.x.L P L P J K P H S S vXzXzXbXbXbXCXbXvXkXbXbXvXaXzXaXaX",
"vXvXbXbXvXCXSXCXbXvXbXbXbXzXvXzXbXCXaXH.oX+X&X8XH.i e.c.b.x.x h h n t.l.B.c.x.R T  X4X4X&X+X+X7XwXwXwX8X7X7X7X@XI B T @X(.[.).(.Y Y ).Y ).#X(.>X,XiX#X,XiXxXdXxXiXdX,X-X>X-X,X>XiX#X).].}.XXXX|.|.K.b._._././.]././.K P H H C bXzXvXbXbXbXSXbXbXCXbXbXvXaXvXpXkX",
"CXvXvXzXzXvXzXCXCXvXbXbXvXbXvXaXvXaXkXK.oX+X&XwXwXb k c.c.b.K x n x b r.l.`.{.(./.XX7X7X&X&X&X7XwXhXwXwXwX8X%X(.B T @XT @X@X(.#X[.).[.-X[.[.#X<XiXiXiXiXdXfXxXdXxXxXdXiXzXiXiXiX>X$X$X`.].`.|.|.|.|.b._.'.`.].].T L J H H H C aXzXpXzXzXvXvXzXaXbXvXkXzXpXkXpXkX",
"bXbXvXbXzXpXaXvXbXvXbXbXzXCXvXvXaXpXaX|.OX&X7XwX8Xw.2 y.b.w.i.w.x G F i._.'.'.`. XOX&X&X7X&X&X7X8XpXhXwXrX@XY Y T @X@X'.@X/.[.-X-X#X{.}.#X@XiXiXiXnXxXiX>X>X,XdXiX>XnXdXdXdXiXiX>XiX$X|.XX@X%XXX|. Xb.x.).@XL /.P J K L ].J H uXpXkXzXvXbXCXbXuXkXkXzXkXuXaXvXkX",
"aXbXvXvXpXqXkXaXkXvXkXzXvXvXbXbXkXuXzXoX&X7XwXwX&XF 2 b c.i.i.].].[./.)._.b.K.|.XX&X&X&X7X&X&X&X7XwXpXwXhX@XU (.[.-X-X(.(.[.-X[.[.=X-X>X#X'.>XxXxXxXdXxXdXiXxXiX$X$XxXvXaXaXuXuXiX<X#X`.XXXX'.x._.b.G G P L P L P P P $XiXP H vXvXbXSXSXbXbXbXzXzXvXaXkXaXaXbXzX",
"uXkXbXbXaXaXbXbXaXkXbXvXbXvXvXvXvXpXbXoX7XwX7XOXc.v ; t b q.r.i.x.x.y.c.c.H.b.`.OX*X&X&X7X7X&XOX&X8XwXwX@XR Y @X@X@X*X).iXiXiXxXaX0X0XaXxXuX;XdXxXdXiXiX>XfXxX#X[.>XdXcXzXaXiXaXgX>X@X|.XXx.J i.p.i.r.F P (.P /.P P L '.).J H SXCXbXbXbXbXzXzXbXvXbXzXkXaXkXvXbX",
"bXkXCXbXzXCXvXvXzXzXbXbXbXbXvXbXvXpXaXoXwX+Xv.r.D t ; v b D D e.e.0.0.r.c.b.].XX&X8X8X*X8X*XOXOXXXXX@X).R R [.[.[.@X'.@XpXaXgX<XzXnXjX=XmXvX-X>XmXVXiXiXiXiXiXiXiX>XVXnXdXxXvXxXzXdX;XXX Xp.i.p.K G Z S J ]./././.P L P P L H CXvXaXzXzXbXbXvXkXkXvXvXzXCXSXzXvX",
"SXSXSXSXCXbXbXzXvXzXbXbXbXaXbXbXbXvXvXD _.a.w.F t ; t l b D D D q.w.q.F G L ].|.OX*X8X8X*X*X%XXX_.T T Y ).@X#X@X'.].@XuXpXzXnXnXxXxXDX>XdXnX8X$XxXnXiXiX>XnXbXdXbXxXxXbXdXkXcXcXuX,X@XXX_.v.v.i.K F F G V S K L /./.L P P L H kXvXvXkXzXvXbXzXbXzXkXvXvXbXkXzXvX",
"bXCXvXbXbXbXvXaXuXaXbXbXbXzXvXbXbXvXbXk r.q.D v ; @ v c D D D D q.q.q.F F (._.v.v.`.XX*X%X%X X].L Y Y T  XXX].(.'.=XgXxXiXiXdXxXiX$XxX-X@XxXgX%X$X,XdXiX#X>XdXbXbXxXiXiXgX8XuX<X@XXXXX`.v.v.v.i.G F D V Z Z V V C J x.L ].L L pXbXbXbXbXbXbXzXkXvXzXvXvXvXpXaXvX",
"vXbXzXvXvXvXzXuXzXbXbXbXbXzXbXkXzXzXvXl D D l 2 @ ; D 0.q.q.q.w.w.q.q.F F (._.b._.|. XXX'.'.(.]./.T (.`.`.`.'.#X,XsXaXaXjXxXxXjXjXjXiX>X=XdXcXwX-XnXdXiX<X,XiXiXjXcXzXgX8X#X@XXX|.|.|.|.K.v.i.v.`.G G G q.D D Z V y m C H S H CXbXvXzXvXbXbXvXkXvXCXzXbXbXvXvXbX",
"bXbXvXzXzXkXzXvXSXSXCXvXvXpXbXvXzXbXbXl D D t ; - ; e.y.y.y.y.y.r.r.w.w.D ].'._.`. X X'.'.).].].'.XX@X:X(.[.-X>XiXzXjXjXcXnXxX,XiXiXiXVXnXzXnXlX%XiXxXdXxXxXxXiXbXcXcXhX@X`.`._.v.v.v.H.v.i.i. X XG r.y.w.D D D V m m C N 4 + bXbXbXkXzXkXvXvXpXkXCXvXvXbXzXzXvX",
"CXbXvXkXkXCXbXbXbXbXpXzXaXaXzXCXvXvXvXl D D 2 ; 5 - q.c.c.c.l.y.y.y.y.r.q.i.$X'. X X[.[.'.'.[.@X@X@X@X[.@X#X-XsXjXgX0XiXzXcXjXgXsXcXnXVXnXiXuXlX7X8XDXVXnXdXiXbXSXbX=X@XP Z v.a.r.r.q.F F G i.i.K G q.q.G F D D V m u m K C C kXzXpXkXzXzXpXpXzXzXzXvXbXbXzXaXbX",
"bXbXvXvXpXvXbXbXbXbXvXvXbXvXuXaXbXCXbXD D 0.t - 5 - D H.H.F.H.F.c.c.c.c.c.w.].$X'.@X@XXXXX%X%X-X8X=X8X8X0XaXjXaXsXjXjXjXjXjXsXgXjXnXVXnXVXnX-X7XrX8XmXxXxXnXxXnXcX-XXX#XP x.y.a.y.r.F i.D V F S G r.w.r.w.q.F D V y u M H m #XbXbXbXbXbXCXqXpXvXaXbXvXaXpXvXbXzX",
"vXbXbXvXaXvXCXbXbXbXvXbXbXbXCXCXCXCXaXD 0.e.e.y @ - D T.K.K.K.H.H.F.c.l.l.0.G @X@X@XXXXX%X8X8X8X8XuXsXsXaXgXgXcXcXcXjXcXcXcXjXxXnXVXVXVXmXVXnX%XOX XxXSXDXDXDXzX%X%X8X].G x.r.r.q.D Z Z |.'.S p.i.r.w.w.w.w.F D V m N 4 K S 3 vXvXCXCXbXkXpXaXvXaXpXpXuXvXvXvXkX",
"bXzXvXkXkXbXvXbXkXzXbXbXvXaXaXvXaXvXvXb 0.e.y.l.V 3 t c.oXU.K.K.H.F.G.l.e.D q.i.|.OX%X@X@X;X-X8XsXsXsXsXsXgXjXcXcXcXcXjXgXnXMXnXMXVXDXDXVXmXVXxX;X@XxXSXVXjX0X8X%X%X-Xp.D e.w.D Z l l l J /.K r.w.F r.r.r.w.D Z M u m u 3 4 /.bXbXbXzXzXvXkXaXvXvXaXuXvXvXbXvXkX",
"CXCXbXbXzXvXbXCXvXvXzXvXzXkXaXkXvXkXzXb #.0.y.l.G.c.l v F.oXoXK.H.G.G.t.b F r.r.K.OX2XOXXX X;XuXgXgXaXsXsXgXjXcXnXcXzXaXiXiXjXnXMXVXVXnXnXdXfXdXbXgXzXdXiXsXsX$X$X-X@XV l Z Z D m F C A x.x.r.D F F D q.r.w.D V m m m u 4 S #XbXvXvXaXkXaXzXaXbXvXzXzXbXvXzXvXkX",
"CXbXCXaXpXqXbXzXkXpXkXkXzXkXvXbXCXzXzX#.#.0.y.y.B.G.c.b #.J.U.K.F.c.t.l q.r.i.H.+X7X7X4X2X@X%XsXhXgXgXgXgXgXjXcXcXNXcXcXcXgXgXcXcXcXjXaXjXnXnXnXVXcX8X;X-X%Xv. X[.H C K V V V u 3 C :XL /.K l V V V V D Z V V V m m N N u 4 J zXvXkXzXvXaXzXaXbXCXbXaXzXCXvXbXbX",
"zXzXaXuXuXpXbXzXaXzXSXCXbXvXkXbXvXzXvXb #.u.y.y.B.l.l.y.D #.l.B.y.u.c r.a.c..X+X7X7X7X7X7X&X@X8XgXsXgXlXcXcXcXcXcXMXcXcXcXcXcXcXgXsX0X0X0X0X0X0XsXsXsX0X8X X X@XA y 4 u N #Xx.'. X`._.`.x.J J H C m M y y y y S 4 4 P N $ $ m pXzXzXzXvXkXzXzXvXbXCXzXzXkXvXbXbX",
"kXzXzXkXzXzXkXvXvXvXCXbXvXkXaXkXzXkXzXx b e.t.t.y.y.t.t.y.e.#.#.#.D a.K.H.U.oX2X7X7X9X9X7X7X*X;XgXgXkXcXcXcXcXcXcXMXNXcXNXNXcXgXgXgXhX8X8X8X8X-X;X@X%X%X%X%X-X@Xm 4 $ $ S |.H.v.a.w.w.w.F F F G C C J C S P C y m C H m N $ /.aXkXvXbXvXvXvXvXbXbXCXvXzXvXbXzXvX",
"bXbXCXvXvXvXvXvXvXzXbXzXvXvXbXzXvXbXbXz b #.0.#.#.x #.@.} ;.#.e.e.l.F.oXoXoX2X4X7X9XwXtXtX9XtX;XaXcXcXcXcXcXcXMXMXNXMXMXcXcXcXcXlXgXgXsX0X8X8X%X%X%X%X%X X X-X`.y - P p.F.y.G.F.F.c.y.y.w.0.D Z l l A V D K F D D i.v.@X-XbX%XvXCXzXbXCXbXbXbXvXvXbXzXbXvXzXvXzX",
"vXCXCXCXCXSXSXCXbXCXbXbXvXzXbXCXvXCXSXi x v z x x x } } x x x z c F.2X+X+X+X2X4X7X7X9X9XtXtXtX8XuXNXcXcXNXMXMXMXNXMXMXMXcXcXgXgXlXgXgX0X0XuX8X;X*X%X%X%X-X;X`.C y S |.w.a.c.c.c.F.a.a.i.D l Z A l t M u y y v v l v t l Z K Z pXzXvXbXbXbXCXCXbXCXvXbXvXbXvXzXaX",
"zXbXbXbXvXbXCXbXbXbXbXbXvXbXvXvXbXCXbX2 2 2 j g h @.@.;.@.@.@.;.;.#.c.4X2X2X2X4X4X7X9X7X7X9X9X9X-XcXcXcXcXMXMXMXMXMXMXMXcXcXlXgXcXcXgXgXgXhXwX8X8X8X8XdX Xq.A 3 y H.r.y.a.a.a.a.a.r.0.Z l V y J K J /._.J M Z Z k t t t 6 t v bXzXvXzXzXvXbXbXbXbXbXvXvXbXzXvXzX",
"bXvXvXzXkXvXvXbXbXvXCXbXCXbXvXvXzXbXvX# @ ; 3 t c #.t.P.U.J.P.P.Y.M.;.l.oX2X+X2X4X4X4X4X4X4X2X2XXXuXNXNXMXMXZXMXMXMXcXcXcXcXcXlXcXcXcXcXaXuXgX8XuXgX-Xx.0.0.l 6 r.y.a.a.c.G.c.y.a.r.Z A V i.x.@X&X|.K.F.y.w.i.v.D i.F 3 6 v v vXvXvXvXvXzXzXkXkXzXvXbXbXbXvXbXbX",
"bXvXbXvXkXzXbXbXvXvXzXCXbXzXzXbXbXzXvXi.x.q.e.y.g.t.0.u.I.oXoXT.T.I.Y.s.u.K.2X2X2X2XoXU.oX1XT.J.r.<XMXZXZXZXZXMXMXMXMXcXNXcXcXNXcXgX%Xv.'.(.$ /.p.p.D 0.t.#.l a.F.G.G.G.G.G.y.y.e.Z Z i. X.X.XU.F.G.c.e.c c v t y S '.@XM ; 5 zXkXaXvXbXSXCXbXbXCXzXvXbXvXbXbXvX",
"zXvXbXvXvXzXbXbXkXpXkXbXbXvXzXCXbXvXvXc.#.;.t.g.s.f.I.r.e.T.2X2X2X1XT.Y.Z.B.+X2X2X2X1XL.P.L.I.P.F.fXSXDXZXZXZXMXMXMXNXMXMXNXlXwX*XOXK.G.H.@X4 m c | t.y.D t r.G.F.F.G.F.F.G.y.e.D p.v.OXH.G.G.G.G.D v k i i i i i 2 ; S p.S l bXzXvXbXbXvXzXCXbXbXzXvXbXbXbXvXvX",
"vXCXbXvXzXzXvXbXbXzXaXvXbXbXuXzXbXbXvX} %.%.;.B.m.,.Y.I.e.e.1X4X4X4X1XT.T.P.oX4X4X3X1XT.P.P.L.P.Y.c.`.xXSXZXMXMXMXMXMXNXlXhXwX7X7X2X1XoXU.sXJ 3 0.0.0.k 6 a.F.G.G.G.J.U.U.B.e.a.|.7XoXB.B.J.K.F.t.z q ; - - @ # @ ; ; i k N m bXzXCXbXvXkXaXvXbXvXCXbXbXvXzXvXkX",
"vXbXvXbXvXzXvXvXzXzXbXbXbXvXzXkXzXvXvX=.@.@.%.B.B.-.s.I.Z.0.G.4X9X9X4X1X~.~..X7X4X4X1X~.P.L.T.L.P.N.t.e.i.-XMXZXZXNXlXhXhXrXrXtX9X4X2X2X1X%Xm X @ 6 5 6 a.L.G.y.y.y.F.|.v.v. XK.J.N.t.B.y.t.#.z i 8 , > , , = - - - 2 2 ; ; 3 vXzXzXvXzXzXbXbXbXaXvXzXbXbXaXaXkX",
"vXbXkXCXvXkXbXkXpXaXvXCXvXvXCXzXzXvXvX@.@.+.+.B.B.,.$.L.P.B.e.oX7X9X4X1X1X1XU.2X9X5X3X~.R.1X1XI.P.M.N.A.f.t.v. XuXBXhXhXhXrXtX7X4X&X7X2XoX7XC 4 4 Z e.y.t.y.y.G.y.a.-X=X@X`.H.t.B.u.| x g p p a p w w 9 q 1 1 - , h q @ + - 2 cXbXvXvXbXvXkXkXCXzXaXvXzXbXbXCXCX",
"vXbXbXCXvXbXvXaXaXkXzXbXvXvXbXbXvXbXzX{ +.{ ` B.M.B.` Z.P.f.u.F.4X9X4X1X1X3X1XT.9X5X5X1X1X3X3X~.Y.m.M.m.N.Z.N.l. XqXlXBXhXrX7X7X2X%XoXoXOX2XJ A c c | 0.u.#.v F H -XsX@Xp.Z l k g E ! ! a s s s p a E E Q j 9 g @.q - - @ + # bXvXbXzXvXbXbXzXvXzXkXzXvXbXkXbXbX",
"bXaXzXbXzXuXkXvXbXbXbXzXvXvXvXbXvXkXbX` ' +.' s.f.Y.%.s.I.M.f.y.1X2X3X3X1X3X1XJ.4X5X5X5X5X5X3XR.Z.N.N.Z.S.S.Z.Z.N.y.K.8XhXtX7X+XOXoXoX2XoXoX`.$ r x | x v l S C J @X:X`.F l k q a ~ ~ ~ s s a a s ! ) _ _ ( x | i 8 2 @ + - j bXCXCXvXpXaXkXpXkXkXvXbXvXzXzXkXbX",
"vXkXvXkXuXpXaXzXvXCXCXSXSXvXvXbXkXqXaX/ ( { ' ,.s.Z.-.=.T.N.d.t.oX2X1X1XR.~.~.S.oXeX5X9X5X5X1XL.D.f.s.N.Z.Z.P.P.P.Z.M.t.a. XOXoXoX.X.XU.K.G.H._.P y l l C K V 3 J /.p.p.F D x x s a E ! E a p a E ~ ]  .f ( h s s 1 - - 2 f  .vXCXbXbXaXuXqX=XzXbXbXvXzXaXzXvXvX",
"aXvXaXbXzXzXvXCXbXaXCXbXCXvXpXpXpXpXaXf f ( ' $.6.N.N.,.L.P.>.B.oX1XI.L.A.P.R.A.G.tXeX9X5X3X1XL.Z.M.6.s.N.Z.P.L.I.L.P.B.,.#.i..XU.K.G.g.y.r.e.y.v.F F C D 0.l m C J H 4 y Z c z w w E E a w a a E ~ ) h ' o._ q , i j 9 8 / k.vXzXkXvXkXpXkXaXzXvXzXbXCXvXvXvXzX",
"aXvXzXzXvXbXzXvXvXuXaXkXbXkXkXkXCXpXkXh ( @.@./ >.M.N.M.P.I.N.I.U.3XL.Z.d.A.L.Q.l.7XeXeX5X3X1X~.P.A.M.N.Z.P.L.~.~.I.L.B.t.0.z c i.y.g.y.t.0.#.c k c w.l k 6 ; S P C u 6 6 6 5 2 8 0 9 9 9 w p p f / _ o.] p q 8 f Q a g 9 :.W.aXkXvXaXzXkXkXkXbXvXvXvXvXCXbXzXvX",
"zXzXpXuXzXbXvXuXkXpXqXpXbXkXzXzXzXvXvX+.>.%.,./ >.s.M.m.I.I.L.L..X1XT.N.6.h.C.P.s.c.2XK.y.u.t.y.B.6.#.c w.J.~.~.~.U.G.0.0.0.| c c F.t.e.0.c v Z c..X#.9 5 - 4 H H A t y t 5 - = = > 1 q i j a f / [ ] a 8 9 ) ) a E / a / 4.W.aXkXvXkXvXzXzXaXbXbXbXbXbXpXkXvXzX",
"vXzXvXzXvXvXbXvXkXbXzXbXvXaXvXbXvXbXvX%.-.$.%.$.>.5.,.d.L.P.T.L.U.U.I.Z.f.*.n.S.A...i i  .o.o.` c x z i t y i.K.G.e.0.w.y.B.B.t.} c 0.| c Z r.F.G.} 0 5 5 5 M H M 6 v c c z q = = : 8 9 p E E a p w w p E ) O. .Q ~ ) f _ o.k.zXzXaXzXbXvXkXzXvXzXbXbXCXvXbXvXbX",
"bXCXvXuXkXbXCXSXCXbXvXbXbXvXbXCXCXbXvX$.%.*.>.*.-.s.>.d.P.I.~.L.I.a.,.S.t.%.8.h.8.3. .] o.4.9.3.k k z i k k ; 3 A 0.y.G.G.Y.G.f.{ l Z Z r.a.y.{ s E ' | c Z F D l 5 5 k } { { ( q 1 8 0 9 9 p a s ~ ~ ~ E ) o.2.) ) / f / ] 9.pXkXvXvXkXbXCXvXaXaXaXzXbXpXbXbXbX",
"bXCXSXbXbXSXCXbXbXbXzXaXvXbXCXbXbXvXCX` =.%.>.>.=.M.M.N.P.L.~.I.~.U.,.,.#._ o.3.3.3.4.<.4.9.j.u.z k } ( } } { z 6 l c y.B.B.f.;.c J i.|.y.;.3.3.&._ } u.0.w.D D c z 5 2 i } } $.$.p w a a a ~ ~ ^ [ ^ Q s )  . .f Q a a / ] <.uXuXaXzXzXzXCXvXvXvXbXvXvXzXbXpXvX",
"zXzXbXvXbXbXbXuXvXCXzXzXkXvXvXvXbXvXbX/ $.%.>.>.` s.A.Z.Y.P.L.~.~.1Xc.2 1 ! o.3.4.X.o.X.o...#.( } z { $.` h i q 3 c x k c 0.c D p.XXU.s.&.8.n.n.7.-.| w.e.0.Z c | | g i 2 x @.$.5.$.9 p p a Q Q E E E E E ~ ) Q 8 p p f )  .<.zXbXbXbXbXbXCXbXaXvXzXbXCXCXvXpXkX",
"bXkXbXvXvXvXkXkXvXvXkXzXzXkXkXzXzXkXzX_ %.>.5.,.` >.m.Z.N.P.P.~.1XY.U.S - : d E E a 0 : , 3 ; 2 ; ; 2 q , 5 m l Z D | c c A i.G.B.s.&.&.8.V.A.A.N.f.0.0.t.0.| x x | ( h i k h $.=.-.f w 9 9 w w w w w p a p w f 8 a f / ~ O.1.cXbXSXCXbXaXaXvXvXvXbXaXvXCXCXkXkX",
"vXkXpXvXbXbXkXbXzXaXbXCXSXCXvXbXvXzXbX..=.>.5.>.` -.m.Z.N.N.Z.~.~.Z.~.9XoXp.y 3 - ; A x.;X#.` J.F.l.G.Z , & 8 ` >.>.6.6.6.6.3.4.:.*.>.5.n.S.S.A.Z.f.u.#.0.c z g z g g h z j 0 g ` $.=.w 8 8 8 8 0 w w 0 > > 0 p 9 s Q ~ ~ [ 1.vXkXvXbXbXvXbXvXkXzXvXpXbXbXvXvXkX",
"vXbXkXaXkXbXCXCXbXbXCXCXCXbXvXvXzXvXvX` ' =.>.*.` *.M.P.Z.Z.N.I.~.Z.L.3X~.eXrXtX8XrXBXAX&Xy.5.^.6X^.c > 0 7 ~ 2.8.3.8.6.3.*.X.X.*.-.>.5.n.A.A.m.N.f.u.#.#.x g h h f g g g p p 9 g ` *.f : > : : : 8 9 9 1 8 q i 9 f ` *.5.h.8.aXkXkXbXbXbXbXbXvXaXaXbXvXkXkXzXvX",
"bXbXbXbXpXbXvXkXaXzXzXbXvXvXbXbXbXbXkX! s =.>.%.` =.6.L.Z.m.A.P.~.Y.L.3X~.3XeXrXrXyXyXBXK.Z.{ S.6.' 0 +.j.1.2.h.h.4.3.7.3.&.2.&.*.>.>.,.d.V.V.d.f.f.,.@.@.( ' { ' / g g g a a p 9 h / f 1 1 8 q q g { } k 2 , - = 1 , q z } } bXvXbXvXbXvXbXvXkXvXvXCXvXpXzXvXbX",
"bXvXzXbXbXaXpXzXuXqX=XaXvXvXbXbXCXbXzX=.*.M.M.=...` 6.L.P.>.A.Y.~.P.P.3X!.1X5XeXeXeXrXcXU.u.7 w d [ <.W.C.j.C.S.C.4.2.4.2.X.2.X.&.>.*.*.5.V.P.d.f.t.;.@.} ' ' $.$.' h g Q s a p j g z { g i q j f f ( g 2 > , < f } x } { ( d SXCXbXbXbXbXvXbXbXbXCXbXbXkXvXzXbX",
"kXkXvXbXbXbXCXvXbXaXzXbXvXvXzXbXbXbXbX*.:.M.Z.5.` ` d.L.~.P.Z.Z.~.P.L.~.L.~.5XeX5XtXsXv.Y.- & 7 a 2.j.C.C.S.S.S.C.7.8.2.2.o.O.o.] o.&.*.*.6.s.s.f.t.t.-.%.+.$.&.&...' h ( { +.%.$.( g { a 9 9 s ! ~ [ O.^ ! ! o.k.E.E.W.W.j.<.bXCXbXCXCXbXCXCXCXCXvXaXaXzXvXvXbX",
"vXpXaXbXbXCXbXzXbXzXbXbXSXbXvXbXzXvXzX3.:.d.L.S.&.:.m.L.1X~.S.S.~.L.P.1X!.!.3X5XeXZX|.;.k 0 Q / p f 3.C.S.S.Q.S.h.2.3.4.4.7.3.3.4.o.&.&.2.:.,.u.t.-.-.>.-.>.5.3.8.V.V.6.>.&.=.` ` $.{ +.( f E ] o.[ O.1.1. .] 9.k.k.k.k.9.o.[ kXzXzXbXvXvXbXCXCXvXkXkXbXvXCXvXzX",
"kXvXvXbXbXCXCXvXzXbXbXbXzXaXpXkXkXaXaX3.5.A.!.~.A.n.A.~.3X~.!.P.~.!.!.~.1X^.^.1XwX/.; , 7  .X.3.` 9 p &.Q.^.S.C.4.O.3.C.8.3.7.3.2.X.&.5.:.5.;.u.>.*.-.*.*.6.V.S.!.Q.S.C.7.5.3.3.3.3.*.*.` f _  .O.O.1.1.E ! <.<.<.9.4.o. .) / vXbXCXCXbXvXkXzXbXbXzXzXbXbXCXvXbX",
"vXkXbXbXvXvXbXvXzXCXCXvXkXvXbXvXaXkXaXi g t.~.6X!.M.M.P.5X3X3X~.~.!.Q.L.1X3XI._.6 o o 9 ! ^ ^ o.X.] j 9 { n.S.C.o.*.S.A.7.3.3.4.X.2.3.5.3.*.%.t.,.-.-.*.>.V.A.S.Q.Q.Q.Q.A.V.n.7.8.8.2.X. .a z ~ ! ^ O.1._ 2.<.&.-.&.o.o.X. .^ vXvXvXbXvXvXzXvXvXbXzXaXvXbXbXvXvX",
"vXkXvXbXzXzXbXvXSXbXaXkXSXbXCXCXvXaXvX  # q 0.J.B.i q g K.5X5X5X5X1X1XS.6X.XN   . o 0 E f ! ..8.n.n.h.} q g } 2.5.L.S.C.h.8.8.&.X.3.5.*.&.$...*.-.*.&.*.d.n.V.V.A.S.S.A.n.7.5.3.3.3.&. .] a i } E  .j.C.C.3.*.$.( Q o.4.4.4.o.bXbXvXzXzXzXkXvXzXvXbXzXzXvXzXvXkX",
"vXbXzXzXvXzXvXbXbXzXaXkXSXkXkXuXuXvXCXX X X o = - O o , k y.B.J.y.y.0.G x.4   . * p E ' =...6.S.A.C.7.h.a > 5 q 5.S.C.n.h.3.5.8...=.*.&.$.$.$.X...` ` >.>.*.*.$.$.&.*.*.=.] _ ) ] ] _ ~ ^ s : r ..h.C.j.4.o.o.<.o.^ <.9.9.4.1.vXbXbXzXaXkXzXzXbXbXbXbXbXvXaXkXvX",
"vXbXvXvXbXbXkXaXvXzXkXvXzXvXaXpXaXbXCX% * * * * o O X . . # 2 i 2 2 =     * 7 f $.$.=.=.=...*.n.*.&.X._ 0 * . = g ,.C.n.h.3.3.8.$...&.&.$.$.` / E s =.*.>.*.*.&.....X..._ _ / E E s s E ! a : , z ' o.O.E 8 > 8 0 9 s _ _ _ ! zXbXbXzXaXuXkXbXvXbXbXvXvXbXkXpXvX",
"vXbXbXkXzXzXvXvXbXvXzXvXvXvXzXvXbXbXvXo * : < < : * * % % o O . X . o * > ( %.,.>.>.5.-._ d ! &.&.W p x u.*.p > * q -.h.8.8.3.8.3...=.$.' ` ) ) / =.6.6.5.5.*.*.....&...` ` ` ..$.` _ ` _ / w 7 = % = > > = = = = * & > 8 0 w zXvXpXpXaXkXvXbXkXvXSXaXkXkXzXvXbX",
"vXzXaXvXpXkXbXCXSXkXpXCXbXkXvXbXvXvXzXo * : < 8 < < : * * : : * * * 9 p ( ,.N.s.s.d.f.s.f.{ s ~ d } B.P.h.3.5...{ 8 1 h &.2.*.5.5.=.$.' ( ' ` ` ..6.6.5.*.&.*.&.$.$.$.$.$.` ` $.=.*.5.5.6.8.*.$.' j : * % o o = = = = : 8 8 7 aXzXzXpXvXvXzXbXaXkXbXzXkXzXbXCXbX",
"aXpXqXaXaXCXbXbXbXvXvXbXbXbXbXvXaXaXzX% > < < 7 8 0 < : < 0 7 < 8 j f ( ;.N.B.B.Z.Z.M.5.d.6.s 8 #.L.!.Z.m.A.m.5.&.5.g > g 7.V.6.6.5.*.$.` ` ` ' { 5.5.*.$.&.&.$.$.$.......` ..X.&.:.5.6.n.n.d.n.V.C.8.] 9 > & % = = = = : : : vXuXaXaXbXbXkXCXbXvXzXzXkXvXzXvXvX",
"pXqXuXaXvXbXCXbXkXbXaXzXCXvXzXbX=XaXaX% < < < 7 8 < < < 7 8 0 j g h } } m.N.N.Z.Z.A.m.5.*.' #.B.A.Z.Z.Z.Z.Z.m.5...` 5.f , z d.V.n.6.5.&.$.$.{ ' +.>.-.$.=.=.$...$.......X.&.&.&.8.8.7.V.n.d.d.V.m.A.V.5._ w * O + @ - = = = & bXaXqXqXpXkXvXCXzXvXbXbXbXbXCXCXbX",
"bXbXbXbXzXkXvXCXCXzXuXzXvXvXaXaXaXbXaX* : < 7 7 < : < 7 7 < 9 g ( { ;.t.N.N.N.m.N.m.N.s.` u.L.Y.6.s.Z.P.Z.m.6.*.&._ / $.0 = i >.8.:.*.*.$.+.$.' +.>.;.%.$.$.=.$.......&.3.5.&.8.n.7.7.7.6.8.6.n.A.V.+...X._ 7 O X X + + o % O vXbXbXzXkXpXvXvXvXCXSXCXCXbXSXSXSX",
"kXzXaXzXzXvXzXCXbXzXzXbXbXbXaXzXbXzXaX* : : : : > < 7 7 < < 0 h { t.f.m.f.s.f.s.s.s.>.@.g.Y.N.s.6.M.m.A.M.d.6.>.*...s 9 p * - l +.&.&.*.&...` / { 5.-.*.=.&.&.&.&.&.3.5.8.3.&.2.5.5.3.*.3.5.6.V.S.@.d s _ o.) > o o O X X + X bXvXvXvXbXuXvXbXbXbXbXbXbXbXbXCXCX",
"vXzXpXkXvXbXzXCXbXvXbXbXvXbXvXbXvXbXvX& * * * * > < < 7 < 7 0 ' ,.B.f.6.>.%.%.%.5.$.} f.P.Z.,.+.N.N.>.f.N.N.d.6.5.5.=./ w 0 * + 2 ' &.3.3.&...) ' >.*.>.*.*.&.$.3.5.5.3.&.&.....&.*.$.&.5.d.n.V.#.9 w d E ^ ~ p 7 8 * O X X . vXvXzXpXaXvXvXvXzXzXaXzXvXbXbXbXbX",
"bXbXaXbXvXvXvXbXbXbXbXvXkXbXbXbXvXbXbXo % * * * > > : : : < g ,.,.>.*.*.=.` _ / s z N.N.B.f.` ` s.f.6.s.m.d.s.5.5.5.*.$.) p 9 & O , / X.4.&...) / *.5.5.*.*...&.5.3.&...` _ ` ....&.&.5.d.A.N.x > d E E ..&...E w 0 9 = O O X vXvXzXkXzXvXbXbXvXzXaXvXvXvXvXvXvX",
"vXkXzXzXvXvXvXvXbXCXbXbXbXbXbXbXvXvXbX. X o * * > 1 1 i g x } f ! ) ) ) / ! a : > ,.m.f.f.*.' +.>.f.6.-.-.-.*.*.*.*.:..._ E w 7 = o , i _ o. .) Q ..:.*.*.&...$.&.$.` / / / / ! / h { n.C.t.i : w E E ~ X.X.] ! p & : : & o o vXzXvXbXbXvXvXvXbXCXCXSXpXqXbXzXbX",
"bXzXbXbXCXCXCXSXCXvXSXbXbXCXbXbXzXaXvXo * 1 q i g g g i i j 0 w d d d 9 0 7 o X } 7.5.>.$.+.+.+.%.%.%.$.` ` ' _ _ ` .._ ~ ! ! 9 < = o = 1 s  .o.! f &.$.....` .._ _ ! f s s E E g g g ;.} 1 & : 7 0 d s d w d d 0 O & * * * * vXbXbXCXzXbXvXpXvXbXvXzXaXvXvXbXbX",
"vXbXbXCXvXvXzXvXbXvXbXvXbXbXCXbXaXaXaXO o % o o O O O O % & * > > > * & & . . q &.&.$.` d / $./ / / ) / ! s ! ! s s ! E d d W d e > & o % = 8 a W w ~ _ ~ _ ] ^ W d 0 7 < 0 a g , q i , & & : e 0 d w w 0 > > 7 % O e 7 e 0 w bXzXbXSXbXzXuXqXzXaXkXkXzXzXvXzXbX",
"vXCXbXCXbXkXuXkXCXkXkXbXaXaXkXzXqXaXkXaXkXCXbXaXaXkXvXvXbXbXbXzXkXvXvXkXkXbXzXkXkXzXvXzXzXbXbXzXkXzXvXbXbXvXvXbXbXbXkXuXpXpXaXaXzXbXbXbXzXvXbXbXbXCXbXCXbXzXCXCXzXvXbXbXbXkXkXvXbXbXvXbXbXbXkXvXvXkXzXCXbXbXMXvXbXbXvXvXkXbXCXkXzXkXvXkXuXqXvXvXpXbXbXaXkXbXvXaX",
"bXzXvXvXaX=XkXCXbXvXkXzXaXqXpXuXaXkXbXvXuXvXvXbXkXvXCXSXvXzXvXvXvXkXbXbXbXvXzXcXbXkXaXvXvXqXzXvXzXbXkXbXCXvXkXzXvXkXkXaXzXvXzXzXbXbXvXbXkXkXCXbXvXaXbXbXbXCXzXbXCXbXbXbXvXuXuXbXbXbXaXbXCXbXzXvXCXbXbXCXbXvXkXzXbXCXvXvXvXbXCXvXbXvXvXzXzXbXvXbXvXCXvXaXbXvXbXzX",
"zXkXvXbXaXzXvXbXbXCXbXbXvXkXaXzXCXCXbXvXuXaXbXCXzXaXCXvXgXpXzXzXbXvXbXCXbXbXbXbXbXkXkXbXbXzXuXkXpXzXzXvXkXzXpXkXzXaXuXvXbXCXCXkXbXbXcXvXbXvXkXaXaXzXvXzXzXbXaXuXkXvXbXbXvXzXkXzXaXvXvXzXvXvXvXvXvXaXkXbXbXvXbXCXzXaXvXvXvXvXbXbXbXzXkXbXbXvXvXvXbXvXkXzXvXzXbXvX",
"bXbXbXbXbXbXCXCXSXbXvXbXvXvXkXaXaXvXCXvXvXvXbXbXvXzXbXbXvXzXzXzXbXbXbXbXvXbXvXbXbXvXvXvXvXCXbXkXuXvXbXzXkXzXbXkXbXbXpXkXvXvXSXkXkXSXMXbXvXzXkXaXzXbXbXkXCXCXCXbXzXzXbXvXaXpXvXvXvXzXvXzXzXaXkXkXvXzXaXaXbXvXkXbXaXgXbXvXvXbXvXvXbXvXpXzXCXCXkXuXkXvXbXvXzXSXbXCX",
"bXbXbXbXzXCXbXbXbXbXvXbXbXbXbXaXpXbXCXCXbXbXvXbXbXbXvXbXbXbXbXzXkXzXzXaXaXvXvXvXbXbXCXCXbXzXbXaXaXbXvXbXbXCXCXzXbXbXpXkXzXaXbXbXkXaXvXCXbXvXzXzXbXbXvXbXCXCXbXzXCXCXSXzXzXzXaXvXvXbXbXCXSXaXkXzXvXzXvXzXvXvXvXbXkXzXbXvXzXvXbXvXzXkXvXbXkXaXaXzXbXbXCXzXvXaXaXkX",
"bXbXbXvXkXzXkXvXbXbXaXkXbXbXbXbXuXkXbXvXzXvXvXvXbXCXCXbXzXbXCXbXzXbXvXaXuXaXvXbXvXzXvXCXCXpXaXpXvXvXbXbXbXbXkXvXbXvXkXqXuXvXvXbXvXaXaXbXbXzXkXaXzXkXkXkXzXvXbXbXvXbXvXbXvXvXzXvXzXvXvXzXbXkXbXvXbXCXbXbXvXpXvXaXzXaXaXzXaXkXbXbXkXvXkXkXzXaXkXzXbXvXkXbXbXvXzXzX",
"kXaXzXaXaXzXaXbXvXbXzXaXbXbXbXCXaXaXzXvXvXbXbXzXbXbXbXbXbXzXvXvXbXbXbXbXzXuXuXbXbXvXvXbXvXvXzXaXCXCXCXbXbXaXaXaXpXpXvXbXCXCXbXvXkXkXzXkXbXvXvXbXaXzXbXbXvXbXCXbXzXaXzXbXCXzXzXaXzXkXzXzXbXvXkXaXzXbXvXvXaXaXzXkXzXvXbXaXzXvXCXbXzXaXzXpXaXbXbXCXaXpXvXbXbXbXvXaX",
"pXzXkXvXzXzXvXbXzXbXCXvXbXbXbXbXbXvXzXbXCXCXCXvXqXkXvXbXbXkXkXzXvXvXzXbXzXaXzXvXvXzXbXvXaXvXbXzXvXbXaXkXzXzXbXzXaXzXbXkXvXbXbXbXbXvXbXvXaXaXpXvXvXkXbXbXbXvXzXvXbXvXbXbXvXaXvXvXaXaXzXvXzXvXpXzXvXbXzXvXzXbXCXvXzXbXvXaXzXkXvXuXaXuXaXvXkXbXbXbXbXbXbXbXvXvXvXzX",
"kXvXbXCXbXbXvXCXbXvXbXbXbXzXvXvXbXCXbXbXvXvXbXvXvXvXbXbXbXkXkXkXpXvXvXbXvXbXbXbXaXaXbXbXbXbXvXbXvXbXkXvXvXzXaXbXvXvXkXkXpXzXbXbXaXzXbXbXbXkXvXzXbXkXaXvXvXqXaXzXvXbXbXbXvXbXSXvXzXCXpXaXbXCXvXbXCXbXbXkXkXkXbXCXaXkXzXvXzXaXvXkXpXaX=XvXkXkXvXbXbXbXaXbXbXkXzXvX",
"vXzXkXzXbXbXzXuXvXbXbXCXbXkXvXvXbXbXaXvXbXbXbXzXbXbXbXbXkXkXzXkXkXvXzXbXbXbXvXvXbXbXbXvXzXbXbXvXvXbXkXaXbXbXuXaXbXbXvXbXzXbXbXvXuXaXkXbXCXkXaXzXkXzXvXbXaXuXzXuXpXkXCXbXkXbXvXkXbXzXzXuXvXaXbXbXbXbXbXvXvXzXvXvXuXuXuXaXvXCXbXbXvXbXbXvXvXvXzXvXvXbXzXvXbXbXCXCX",
"bXbXaXkXvXCXvXkXbXvXbXbXbXzXzXvXbXbXvXbXCXbXbXvXbXbXkXaXbXvXvXbXvXkXaXzXvXbXbXvXvXzXzXzXkXvXkXbXbXbXbXvXvXvXaXaXbXbXbXCXbXbXvXaXbXbXpXvXbXbXuXpXzXbXbXbXCXvXCXvXkXzXbXCXvXvXkXkXpXvXbXkXkXaXbXbXvXbXvXvXvXbXvXbXvXaXqXkXkXvXvXvXvXbXbXkXbXvXkXuXkXzXzXvXbXbXvXbX",
"bXCXCXbXzXkXvXbXbXvXbXbXbXbXvXbXvXaXzXkXCXkXzXaXaXvXvXzXvXzXzXvXbXaXuXzXkXkXCXCXbXvXvXvXvXCXzXkXzXbXCXCXbXbXvXzXvXvXvXbXbXzXzXvXbXvXkXaXpXvXzXpXaXbXbXvXkXvXbXCXkXkXvXkXkXbXbXkXkXvXCXvXzXzXaXzXzXzXvXCXvXvXkXkXvXvXkXvXuXzXvXaXzXzXaXvXbXvXvXaXpXbXbXbXbXbXbXzX",
"CXCXbXCXbXvXkXkXaXzXbXbXvXzXzXkXbXkXvXqXuXkXvXpXaXbXSXbXvXzXkXbXbXaXvXvXbXaXzXkXvXzXbXbXbXbXbXvXkXbXvXvXaXvXbXbXbXbXvXbXCXvXzXvXbXvXzXaXaXuXaXkXzXbXvXaXkXvXvXvXbXvXvXkXpXkXkXkXbXzXvXzXbXCXaXzXvXbXbXvXzXzXpXkXzXpXaXkXpXbXbXaXkXvXvXzXbXzXvXbXbXCXCXbXbXbXbXvX",
"vXkXbXbXvXvXzXvXzXkXbXbXbXkXpXaXaXaXbXzXuXzXbXCXvXzXCXbXvXvXkXkXbXzXzXzXzXzXvXkXbXbXzXCXzXvXbXvXzXzXkXzXbXbXvXvXpXzXzXvXzXzXzXvXaXpXkXvXvXvXaXkXvXkXzXbXzXaXpXbXCXbXCXCXzXaXkXvXkXzXaXvXbXbXbXzXaXzXbXbXkXpXaXSXbXbXpXaXbXbXCXzXvXbXbXkXvXzXbXbXSXSXCXbXbXbXvXbX",
"aXbXbXvXzXvXbXkXvXbXvXvXbXzXqXvXzXzXzXbXbXbXvXkXbXbXbXbXvXbXvXzXvXzXkXzXvXCXbXkXvXbXbXbXkXvXbXvXvXaXbXCXbXzXbXaXaXzXCXbXvXuXzXzXaXzXzXzXvXbXvXbXbXaXuXvXvXzXzXvXaXbXbXvXbXbXkXzXvXvXpXkXvXCXvXzXpXkXbXvXvXvXbXbXbXCXaXpXpXzXbXvXvXaXvXbXbXkXzXvXbXbXbXbXbXvXaXkX",
"vXCXzXbXzXbXvXbXbXbXvXbXkXvXaXkXCXbXbXzXzXSXCXbXkXvXbXvXvXbXbXkXzXzXkXzXbXbXbXbXbXbXbXvXzXkXCXbXCXCXbXkXaXbXbXvXkXzXkXSXvXaXbXbXbXbXvXSXvXaXvXbXbXvXaXuXpXkXvXvXvXkXvXzXzXkXkXbXzXzXzXzXzXvXvXvXkXbXbXbXkXvXbXvXvXvXkXvXuX=XpXvXvXkXvXbXbXbXvXbXbXbXvXbXvXbXkXuX",
"bXCXaXaXbXaXkXCXCXbXbXzXzXvXkXpXbXzXvXvXvXvXCXSXkXvXbXzXvXCXbXCXCXbXbXvXvXbXCXbXbXCXvXbXbXbXbXbXbXvXvXkXvXCXbXaXkXuXaXzXvXvXbXbXvXaXCXCXbXkXbXCXbXbXbXkXvXaXkXvXCXaXvXbXvXvXbXSXSXbXzXvXbXbXbXbXCXbXbXzXvXCXvXvXbXCXbXvXzXaXuXaXkXkXzXkXvXbXvXbXvXbXvXzXzXvXbXkX",
"zXaXuXvXvXkXvXbXbXvXvXvXvXvXzXvXvXvXvXkXkXkXbXCXvXkXbXvXbXbXzXzXvXbXbXzXzXvXbXvXvXvXkXvXbXbXbXvXbXbXCXaXvXCXbXzXkXpXkXvXbXCXbXkXzXaXvXzXkXkXbXbXbXCXvXvXbXbXbXvXCXvXvXbXvXbXzXvXvXkXbXbXCXbXvXvXbXCXCXbXkXuXaXvXuXkXvXbXbXCXbXzXbXzXzXkXzXzXvXvXbXvXkXvXbXbXkXzX",
"bXzXaXvXaXkXzXbXbXvXzXbXbXCXvXbXCXbXvXvXqXvXCXCXbXvXkXkXbXzXvXvXzXvXvXvXvXbXbXbXbXvXzXvXbXvXzXzXzXvXbXzXuXkXvXvXbXbXCXCXvXkXvXvXvXvXaXaXkXzXbXbXvXbXbXvXbXbXvXbXvXvXbXbXvXbXbXaXuXuXaXvXkXzXzXbXbXCXkXbXCXvXbXvXpXuXkXkXvXCXvXvXbXbXbXvXvXzXkXaXaXzXkXzXzXzXzXvX",
"bXvXbXbXvXCXCXzXkXvXaXzXvXvXvXzXSXSXvXzXpXzXbXvXbXbXzXzXbXbXbXzXzXbXzXbXbXvXzXvXvXbXbXzXbXaXaXbXbXCXbXkXkXaXkXzXvXvXbXbXbXvXzXzXbXbXbXzXaXzXzXbXvXbXkXpXuXzXvXzXzXzXbXCXbXaXuXpXvXzXvXCXbXvXkXkXvXbXzXbXCXbXvXCXCXvXzXzXvXzXvXbXCXbXvXvXzXkXaXkXkXkXbXvXvXvXvXvX",
"aXaXvXbXvXbXvXzXzXkXzXbXbXkXzXkXbXSXCXbXpXkXvXbXbXzXkXvXbXCXvXpXzXCXvXbXbXvXkXbXbXkXbXkXvXvXvXbXbXbXbXuXvXbXCXbXCXbXbXvXkXvXvXbXbXbXCXbXzXaXkXvXvXzXaXaXkXkXzXbXbXbXzXvXkXaXaXzXzXbXvXbXSXCXbXCXCXkXzXuXuXzXuXzXCXvXzXbXbXzXzXzXCXbXbXzXzXvXkXCXvXzXzXkXbXbXbXbX",
"zXkXvXzXzXvXvXaXbXbXaXvXSXCXzX=XuXbXbXvXaXbXbXbXvXaXaXvXbXbXbXaXuXbXkXzXCXbXbXzXbXkXvXaXvXCXbXbXvXkXvXkXaXvXbXCXbXkXbXzXuXvXbXbXbXvXbXbXbXzXzXaXaXpXaXzXbXvXvXCXSXCXbXbXzXvXzXzXkXvXbXbXbXkXbXvXzXaXaXqXaXzXzXaXvXzXpXzXzXzXCXkXvXkXvXkXaXvXvXbXbXzXkXuXbXCXbXvX",
"vXaXkXvXbXbXbXbXvXbXzXaXkXvXbXbXvXbXbXbXzXkXbXvXbXbXbXbXvXzXbXzXzXkXaXkXbXaXvXvXzXaXzXzXaXbXbXvXzXzXzXvXvXkXkXbXkXaXbXaX=XaXvXzXzXaXaXvXbXzXkXvXvXzXvXCXbXvXkXkXvXSXCXaXzXbXpXkXkXbXbXvXkXkXCXuXuXvXzXvXvXvXbXvXvXaXkXzXuXzXbXkXzXbXbXzXvXzXuXaXbXvXvXzXbXbXbXbX",
"kXvXbXbXbXCXzXbXbXzXaXuXzXbXbXbXbXbXbXbXbXbXvXvXvXvXvXbXbXzXkXzXaXzXbXbXbXaXvXbXbXbXbXbXbXbXbXbXvXbXbXaXzXpXzXbXzXuXzXkXbXbXaXkXaXkXaXzXvXvXzXbXbXuXzXbXbXvXkXaXkXvXzXuXaXaXaXCXCXbXvXvXaXaXbXkXkXkXbXCXkXbXbXvXbXbXbXzXkXvXbXbXbXbXbXbXbX=X-XuXzXvXaXzXvXvXvXvX",
"vXCXbXbXCXvX=XkXkXpXqXaXvXvXzXbXzXzXbXCXbXbXbXbXvXvXSXbXCXbXkXzXvXaXvXvXbXbXbXvXbXbXzXzXzXvXbXbXzXaXzXzXuXuXpXuXaXkXkXvXvXvXzXvXvXbXaXvXbXvXvXbXbXaXkXvXvXkXvXvXvXzXaXaXkXzXbXvXvXvXvXaXkXzXvXaXkXvXvXzXkXvXvXvXbXbXCXvXbXbXbXbXvXzXzXvXvXzXuXqXzXbXkXzXzXvXbXvX",
"vXzXzXbXbXpXuXaXvXvXvXuXpXaXvXvXkXaXbXvXvXkXaXkXaXkXzXvXvXvXbXvXbXbXvXvXbXvXzXvXbXvXbXCXpXbXbXbXvXbXaXkXzXpXaXpXzXbXbXvXzXvXbXkXvXzXaXuXuXzXbXbXvXvXkXbXvXzXzXvXvXkXvXvXbXbXvXzXzXvXuXqXaXkXzXvXbXCXzXzXaXvXbXzXvXbXCXbXCXCXbXbXCXbXbXbXvXkXaXvXbXbXvXvXvXbXbXbX",
"zXpXkXvXkXkXbXvXkXzXvXaXkXaXzXkXaXkXbXzXbXzXaXaXpXCXbXkXvXbXvXvXvXaXvXbXbXkXaXvXCXbXbXzXaXCXCXCXbXbXbXkXzXvXaXkXaXvXCXbXvXbXbXvXvXzXzXkXuXvXbXvXzXvXbXbXbXvXaXuXaXzXbXvXvXbXbXbXbXvXzXzXvXvXbXkXkXvXvXvXbXbXvXbXSXCXbXzXzXbXvXzXbXbXCXSXbXvXbXbXbXbXvXvXvXzXvXbX",
"bXvXzXzXvXaXkXaXaXkXvXbXvXzXbXbXzXbXvXvXvXvXzXvXzXCXCXkXvXbXvXzXbXvXuXuXzXkXvXzXvXzXzXpXvXbXbXbXbXCXbXvXbXbXvXkXbXkXzXpXaXvXzXkXzXzXbXkXaXzXzXvXvXvXbXbXvXvXbXzXaXzXvXvXzXbXbXvXbXvXzXzXbXbXbXzXzXkXvXvXbXCXbXbXbXvXkXaXaXkXbXvXvXbXbXCXzXzXCXbXvXvXvXvXbXvXzXvX",
"CXbXCXbXvXaXkXkXzXzXbXzXvXbXbXbXvXvXbXkXzXkXzXkXzXzXbXCXbXbXbXkXaXkXuXuXkXzXbXvXkXvXbXbXbXbXbXbXvXzXkXvXbXCXCXbXvXvXkXkXvXvXzXzXvXzXzXkXCXbXbXbXbXzXvXbXzXaXCXbXbXCXCXbXvXvXvXkXvXvXbXzXzXCXbXzXkXzXbXvXzXbXbXvXbXbXzXaXuXzXzXvXkXuXbXpXuXvXkXkXCXvXvXbXvXbXzXvX",
"bXkXaXzXkXzXqXzXvXzXbXaXkXbXkXzXuXuXvXCXCXCXzXkXaXkXbXbXvXbXCXbXkXaXaXqXaXvXvXzXvXzXzXkXzXvXbXbXbXaXbXzXvXvXbXvXvXvXzXbXbXbXkXkXbXbXkXuXCXSXaXaXbXCXkXzXvXbXbXzXbXCXCXCXbXaXaXzXvXuXvXbXCXCXbXbXbXvXvXkXaXzXzX=XaXbXvXkXpXbXaXvXvXzXvXaXpXzXbXaXbXbXvXzXzXvXzXbX",
"vXzXvXbXbXbXzXCXzXvXbXzXpXzXuXbXzXbXbXbXCXbXbXCXvXzXkXvXkXzXkXvXCXvXvXuXzXvXkXkXbXzXzXkXzXbXbXzXaXaXvXzXvXbXbXzXvXvXkXbXCXCXbXvXvXvXkXkXzXaXaXbXbXvXpXbXbXSXvXbXvXzXvXbXCXbXbXCXvXpXzXaXkXzXvXvXbXbXbXaXbXkXaXaXbXCXbXvXzXvXzXbXbXbXzXbXbXkXvXvXbXbXvXvXkXbXbXvX",
"bXbXbXbXbXbXvXvXzXbXbXbXaXaXaXvXkXzXbXbXvXvXbXbXbXvXvXzXzXbXbXbXCXCXbXvXkXpXuXvXCXvXbXzXzXvXbXbXkXvXbXvXzXkXuXpXpX=XaXvXbXbXvXvXbXCXaXkXvXkXvXbXbXbXCXbXvXvXvXvXbXvXkXaXzXCXbXbXkXzXCXbXbXzXzXbXvXvXCXvXbXzXvXCXbXbXbXbXvXvXzXbXaXvXbXbXkXzXbXbXCXCXbXvXaXbXCXCX",
"vXvXvXkXbXbXkXzXbXCXbXbXvXaXaXkXkXzXzXvXzXuXkXbXCXCXbXvXkXbXCXCXbXvXvXbXzXkXvXvXvXpXaXbXvXvXvXvXzXbXbXvXbXkXkXzXaXpXzXbXbXaXbXbXbXbXvXkXbXvXzXkXkXkXzXbXbXkXvXbXSXvXaXuXaXzXvXzXaXvXvXbXbXzXvXzXaXvXbXzXvXvXbXbXvXbXbXbXbXbXvXvXkXvXkXaXvXbXbXbXCXCXCXvXkXbXbXbX",
"vXvXvXzXvXbXbXbXzXvXCXCXzX=XvXvXvXvXaXkXvXkXkXvXvXbXkXkXvXbXbXCXvXzXbXCXbXaXvXbXaXqXkXbXkXaXvXzXzXbXvXvXaXkXvXbXCXvXbXCXzXaXbXvXaXbXbXvXvXvXkXkXaXzXqXvXbXvXvXbXzXkXbXzXvXaXzXzXkXkXkXkXbXbXvXkXzXvXCXaXvXbXbXvXbXCXvXvXbXvXbXbXbXbXaXaXbXbXCXCXSXCXvXbXvXvXzXzX",
"bXCXvXvXvXaXvXbXbXbXCXbXaXkXbXbXbXvXaXaXpXzXvXbXbXbXCXvXkXzXzXkXzXvXbXCXbXzXuXvXvXvXvXzXzXzXaXaXkXkXvXaXkXzXzXzXvXbXbXCXvXaXvXvXbXzXvXvXzXzXkXbXzXbXbXbXbXvXvXCXkXaXvXvXbXbXbXvX=XzXvXaXaXzXvXvXvXuXvXvXbXCXbXvXvXvXzXbXbXvXzXbXbXbXbXbXkXzXvXvXvXvXvXvXbXbXzXkX",
"vXzXvXvXvXaXvXvXkXkXvXaXaXvXCXCXSXkXkXvXbXbXbXCXbXbXCXvXzXaXzXkXvXkXbXbXvXvXzXkXvXaXzXkXaXaX=XpXaXvXzXbXSXbXzX=XpXbXbXbXbXbXbXvXbXaXaXpXpXpXzXbXCXbXvXvXbXbXCXbXvXvXkXvXzXzXvXbXaXbXkXzXvXCXvXvXbXbXzXvXCXaXpXbXbXvXvXvXbXvXzXbXbXbXCXbXSXvXvXbXvXaXzXvXvXvXaXaX",
"vXbXCXCXvXvXzXzXvXvXzXzXaXCXCXbXbXpXaXvXzXvXvXbXbXbXbXbXCXbXbXvXzXzXkXzXbXzXzXbXbXvXbXkXuXzXvXbXbXCXbXCXCXbXvXvXaXvXzXzXvXvXvXvXvXzXbXbXCXSXbXkXkXzXzXzXzXvXkXkXvXbXzXvXzXvXvXbXbXbXvXzXzXbXbXvXvXbXvXbXCXpXzXvXbXbXbXCXbXvXCXbXbXbXbXvXvXbXbXSXCXvXbXbXvXkXaXaX",
"bXCXbXCXzXpXCXbXbXbXCXvXkXvXkXkXzXvXzXbXzXvXvXvXvXbXbXvXCXbXvXbXvXvXvXvXvXzXzXbXCXCXbXzXaXzXkXuXzXvXaXzXbXbXbXCXaXzXvXaXpXaXaXvXbXaXaXbXbXvXCXkXaXvXbXvXpXuXvXvXbXvXbXbXbXzXzXzXkXkXvXbXbXaXaXvXvXkXvXzXzXvXkXbXzXkXvXzXCXkXvXkXzXkXzXkXuXkXkXbXbXvXbXbXaXkXzXzX",
"bXbXvXbXCXaXzXbXvXvXvXaXaXvXzXvXvXbXbXvXkXaXbXvXkXvXvXkXbXzXvXzXbXvXSXbXbXvXvXvXbXbXbXzXaXvXzXaXvXbXuXuXkXvXvXbXzXaXbXzXkXbXbXvXbXvXaXvXzXaXvXzXvXvXbXbXbXzXbXvXaXvXvXbXbXCXCXbXkXpXzXvXkXbXbXvXvXvXbXbXbXbXzXvXvXvXkXkXbXaXuXbXbXCXvXkXbXvXpXkXzXzXvXkXuXbXbXbX",
"vXbXbXvXzXkXvXvXkXzXkXaXkXaXaXzXbXvXzXvXqXkXbXCXbXvXkXzXkXaXzXaXkXbXbXvXvXvXkXvXbXbXvXvXbXCXSXSXCXbXzXvXzXvXbXbXvXkXbXbXCXbXvXzXzXbXbXvXaXaXzXzXbXaXpXvXbXbXbXvXzXvXzXvXzXbXCXvXzXzXbXvXuXkXkXzXaXaXzXbXvXbXvXbXbXbXkXvXvXvXbXkXaXbXaXbXSXbXaXzXzXzXbXbXkXbXSXCX",
"bXCXCXCXbXCXvXvXCXvXbXaXaXkXzXvXbXvXkXpXaXzXvXvXvXzXvXkXzXvXvXzXzXzXvXkXzXzXzXbXbXbXvXuXaXbXbXvXvXbXzXzXCXCXbXCXbXkXbXbXCXvXbXvXbXbXbXbXbXbXCXCXbXbXqXaXCXbXkXzXvXbXvXbXzXzXzXzXbXbXbXbXvXvXvXvXvXpXvXvXbXzXvXbXbXCXCXbXvXbXbXbXbXvXuXbXbXzXzXCXbXCXbXCXbXbXbXbX",
"zXvXvXbXbXvXbXbXbXCXCXbXbXvXzXvXzXbXCXvXbXbXbXzXvXbXbXvXvXCXCXbXvXaXvXbXbXaXzXvXbXvXbXkXzXbXkXvXbXzXaXvXzXvXvXzXkXkXvXvXkXpXvXzXbXvXbXCXCXCXCXbXbXkXqXvXbXvXpXzXkXbXvXbXzXvXbXkXaXbXbXCXSXbXCXbXSXbXvXCXbXvXbXzXbXbXbXbXCXbXbXbXbXbXaXaXbXzXvXbXCXSXSXbXCXbXbXzX",
"bXzXaXzXkXzXCXaXvXbXzXkXaXbXvXvXvXbXbXbXbXSXCXbXSXSXbXaXvXbXbXCXbXvXzXCXSXbXbXkXvXzXvXbXCXvXvXbXbXvXzXvXvXzXkXkXzXkXvXvXpXkXaXuXzXbXvXkXbXbXvXvXbXvXbXbXbXvXzXpXkXbXvXbXbXbXzXkXaXaXvXzXvXvXvXzXvXvXzXbXbXzXzXvXbXkXkXvXvXbXbXvXCXbXbXzXzXvXbXbXvXCXCXbXbXvXzXbX",
"bXvXkXaXaXvXvXzXvXvXkXbXbXbXvXCXbXCXbXvXbXbXCXbXbXbXkXbXbXvXzXzXvXvXCXCXbXCXbXbXvXbXvXkXbXvXvXbXbXbXbXvXzXzXzXpXkXkXkXvXkXbX=XuXkXzXzXaXaXpXaXaXzXbXbXbXCXbXbXbXzXkXvXzXzXvXvXzXbXvXvXzXvXzXzXbXbXbXbXbXzXaXkXbXbXzXbXvXaXzXCXbXCXCXCXbXkXzXvXbXkXbXvXzXbXvXaXkX",
"bXkXaXzXpXkXbXaXpXvXbXbXbXkXbXvXvXbXbXaXvXbXbXvXbXvXbXbXvXzXvXvXvXvXvXaXaXvXvXbXvXbXvXbXkXvXzXzXvXbXbXvXzXbXbXvXuXuXbXbXzXvXzXkXaXpXkXvXvXkXuXuXuXvXbXbXvXaXvXbXCXbXCXvXbXCXbXCXbXCXbXvXvXkXbXCXbXbXbXbXbXbXbXkXzXvXaXaXvXvXvXvXvXbXbXzXvXvXbXbXbXbXvXzXbXbXvXaX",
"vXCXCXCXCXzXzXvXzXvXbXCXbXbXbXCXbXbXbXbXbXbXbXzXvXbXbXbXbXbXCXCXCXCXbXkXzXvXzXbXkXbXCXCXbXzXzXkXkXvXvXvXzXbXCXCXCXbXbXbXbXbXbXbXzXzXpXzXbXCXCXvXuXvXbXkXpXkXaXvXCXvXvXvXbXzXvXzXvXbXaXpXzXbXvXCXCXbXCXbXbXbXbXaXvXCXzXpXbXCXCXCXCXbXbXvXbXvXvXvXzXbXCXCXbXvXzXvX"
};
