/* XPM */
static char *_7816d9c7e894b72b41f4076d37573aeKzPqvCXkVvvrbGMb[] = {
/* columns rows colors chars-per-pixel */
"128 128 244 2 ",
"   c #151C1A",
".  c #161917",
"X  c #0B171A",
"o  c #251D16",
"O  c #15221E",
"+  c #1B231E",
"@  c #0F201F",
"#  c #26281C",
"$  c #352B1C",
"%  c #38321E",
"&  c #2E321E",
"*  c #0B1D22",
"=  c #0D2627",
"-  c #142523",
";  c #1A2622",
":  c #152925",
">  c #1B2A25",
",  c #152C2A",
"<  c #1B2D2A",
"1  c #142629",
"2  c #16322D",
"3  c #1C332D",
"4  c #1D382E",
"5  c #1C3631",
"6  c #1D3B33",
"7  c #1B3D39",
"8  c #153834",
"9  c #0F2E30",
"0  c #232C23",
"q  c #212D29",
"w  c #282C22",
"e  c #2C3324",
"r  c #23342D",
"t  c #2A352C",
"y  c #2C3A2C",
"u  c #253528",
"i  c #333423",
"p  c #3B3B25",
"a  c #333B2B",
"s  c #393A26",
"d  c #223531",
"f  c #243C34",
"g  c #2B3D33",
"h  c #233E39",
"j  c #293E39",
"k  c #323E32",
"l  c #49381D",
"z  c #453C24",
"x  c #1C433B",
"c  c #1C4338",
"v  c #3C432D",
"b  c #37422D",
"n  c #224136",
"m  c #2C4235",
"M  c #24443B",
"N  c #2B443B",
"B  c #244A3D",
"V  c #2B4A3D",
"C  c #2C4937",
"Z  c #334434",
"A  c #3B4533",
"S  c #3C4B34",
"D  c #33453B",
"F  c #334B3C",
"G  c #3B4C3B",
"H  c #354935",
"J  c #3B523C",
"K  c #294E3D",
"L  c #43442C",
"P  c #48472A",
"I  c #574A27",
"U  c #434B33",
"Y  c #474C35",
"T  c #524D33",
"R  c #44533B",
"E  c #4B543A",
"W  c #495539",
"Q  c #565839",
"!  c #55512A",
"~  c #675B39",
"^  c #6D582D",
"/  c #57633E",
"(  c #68643D",
")  c #77643B",
"_  c #76622A",
"`  c #4E421F",
"'  c #1D4C43",
"]  c #254C42",
"[  c #2B4C42",
"{  c #294742",
"}  c #334C43",
"|  c #364D44",
" . c #245344",
".. c #2B5344",
"X. c #2C5C4B",
"o. c #2A5749",
"O. c #335345",
"+. c #3B5343",
"@. c #34544A",
"#. c #3B554B",
"$. c #345B4D",
"%. c #3B5A4D",
"&. c #385A44",
"*. c #355C52",
"=. c #3B5D52",
"-. c #355A54",
";. c #2C5751",
":. c #2B614D",
">. c #37634D",
",. c #2D6652",
"<. c #346452",
"1. c #3B6254",
"2. c #356955",
"3. c #3B6A54",
"4. c #3D6559",
"5. c #3D6B5A",
"6. c #336B59",
"7. c #3B735D",
"8. c #3D7863",
"9. c #435B4C",
"0. c #475A45",
"q. c #565D43",
"w. c #435D51",
"e. c #47654A",
"r. c #576548",
"t. c #426354",
"y. c #426559",
"u. c #436B5C",
"i. c #4A6956",
"p. c #556C56",
"a. c #46745C",
"s. c #587559",
"d. c #5C734C",
"f. c #666948",
"g. c #776944",
"h. c #68724D",
"j. c #687655",
"k. c #757A55",
"l. c #72724B",
"z. c #437A63",
"x. c #497963",
"c. c #577966",
"v. c #476D61",
"b. c #667C67",
"n. c #6F7E68",
"m. c #675F43",
"M. c #876B3B",
"N. c #8D713E",
"B. c #96743D",
"V. c #926E37",
"C. c #A77C3E",
"Z. c #836E42",
"A. c #8A7546",
"S. c #9C7B43",
"D. c #947845",
"F. c #877D54",
"G. c #A37E43",
"H. c #74845A",
"J. c #4B826A",
"K. c #55846A",
"L. c #588B72",
"P. c #5E9077",
"I. c #68846A",
"U. c #76866A",
"Y. c #698972",
"T. c #758A74",
"R. c #669679",
"E. c #799677",
"W. c #799269",
"Q. c #749975",
"!. c #B0823F",
"~. c #968757",
"^. c #8F8653",
"/. c #AD8A4C",
"(. c #A78448",
"). c #B48C4A",
"_. c #BA924E",
"`. c #AA8C53",
"'. c #B99758",
"]. c #AF9055",
"[. c #848868",
"{. c #889678",
"}. c #959977",
"|. c #8C916D",
" X c #B39A65",
".X c #93A27B",
"XX c #ACA473",
"oX c #C39D5A",
"OX c #C59C54",
"+X c #CA994D",
"@X c #CAA35C",
"#X c #D5A759",
"$X c #DEB25E",
"%X c #E8B159",
"&X c #CAA765",
"*X c #D4AD65",
"=X c #DAB369",
"-X c #DAB773",
";X c #E4B866",
":X c #E3BD74",
">X c #F1BD67",
",X c #C19F62",
"<X c #E7C37A",
"1X c #F4C574",
"2X c #779982",
"3X c #70A284",
"4X c #879A84",
"5X c #97A385",
"6X c #92A48A",
"7X c #A6AB8A",
"8X c #B9BDBD",
"9X c #B3B7A7",
"0X c #E9C987",
"qX c #F0D292",
"wX c #EED497",
"eX c #BEC2C2",
"rX c #C2C5C5",
"tX c #C6CACA",
"yX c #CACDCD",
"uX c #CCCFCF",
"iX c #CBCECE",
"pX c #CFD2D2",
"aX c #CED1D1",
"sX c #CED2D2",
"dX c #D1D4D4",
"fX c #D3D7D7",
"gX c #D2D5D5",
"hX c #D4D7D7",
"jX c #D2D6D6",
"kX c #D5D8D8",
"lX c #D7D9D9",
"zX c #D7DADA",
"xX c #D6D9D9",
"cX c #D8DBDB",
"vX c #D9DCDC",
"bX c #D9DDDD",
"nX c #DBDFDF",
"mX c #DADDDD",
"MX c #DCDFDF",
"NX c #D9DDDD",
"BX c #DDE1E1",
"VX c #DDE1E1",
"CX c #E1E4E4",
"ZX c #C8BA89",
/* pixels */
"lXlXvXuXuXuXpXvXlXlXvXVXMXlXiXuXfXhXfXvXlXlXvXvXvXvXlXvXvXcXcXlXlXfXvXlXvXlXlXlXvXvXvXVXvXiXuXVXfXlXlXfXpXfXfXcXVXlXfXpXpXpXcXvXvXvXfX8XiXrXlXlXfXlXVXCXvXpXtXlXvXcXfXfXcXlXlXlXhXpXfXlXuXpXvXlXuXhXVXVXcXlXlXlXcXvXvXvXlXvXvXcXfXvXVXVXVXhXlXVXlXlXlXcXlXlXvXlX",
"fXpXfXiXuXpXvXvXfXfXlXcXvXfXiXeXiXvXvXvXlXCXVXVXfXlXlXlXvXfXuXpXhXVXVXvXvXlXfXfXiXfXlXfXvXvXiXlXuXuXiXfXlXiXpXcXVXfXiXfXvXvXvXpXiXlXlXpXfXvXpXiXuXlXcXvXMXcXlXvXvXcXvXhXfXpXuXfXfXtXiXfXiXtXfXfXpXlXfXlXpXcXMXvXcXlXcXlXiXfXvXlXlXlXlXlXpXiXcXvXvXlXpXcXMXvXvXfX",
"fXiXcXcXiXcXvXvXMXvXhXpXcXpXcXeXtXlXcXvXvXvXvXlXvXvXvXpXlXfXfXhXlXvXVXvXvXvXiXrXiXuXlXMXVXhXiXpXiXfXpXuXtXuXlXiXfXlXfXlXlXhXcXfXlXvXiXtXVXVXlXvXvXlXvXlXMXvXvXcXvXlXfXhXuXvXcXlXrXuXfXfXfXfXhXuXlXcXcXtXpXfXuXvXpXpXpXfXiXfXvXlXvXfXfXvXVXVXvXvXvXVXvXvXlXhXfXfX",
"uXlXCXCXvXcXlXVXvXfXpXrXfXfXlXvXfXfXfXcXvXlXpXpXcXvXlXVXvXvXlXlXlXfXlXvXvXfXfXhXhXVXCXVXvXlXpXfXcXpXtXlXtXfXiXiXpXvXpXtXiXfXfXfXcXVXfXhXlXlXlXiXpXlXvXpXpXlXvXcXhXfXlXpXlXvXlXcXcXvXfXlXlXlXfXpXlXlXlXfXfXiXtXfXfXlXfXvXvXhXlXhXfXvXcXvXVXMXlXlXlXvXlXcXvXlXlXvX",
"fXvXvXvXcXvXlXfXvXfXrXpXuXfXlXVXvXcXlXfXiXiXrXpXfXhXfXfXvXlXfXpXfXlXvXlXvXvXlXhXlXvXvXpXuXlXiXeXtXpXuXlXfXfXlXvXfXpXlXrXrXtXfXlXfXvXcXfXfXvXMXfXpXlXvXlXlXcXMXvXlXfXfXpXhXlXlXuXuXcXfXlXlXlXfXfXlXfXpXfXlXuXvXhXtXiXfXcXfXpXlXvXfXlXlXvXvXcXvXvXcXfXcXlXVXlXpXfX",
"vXvXvXvXlXfXfXfXuXvXcXpXhXhXvXvXvXvXVXlXfXfXpXpXpXtXrXtXpXfXlXpXfXlXfXvXlXfXcXcXfXpXlXfXlXcXlXhXfXfXlXiXfXiXlXvXfXpXfXrXvXlXuXvXfXfXfXvXlXvXvXvXlXlXuXlXcXvXvXpXlXlXlXlXlXlXlXfXcXfXuXvXvXlXlXvXvXlXpXlXuXlXlXlXpXfXvXMXvXvXvXtXfXlXlXfXvXvXcXVXVXvXMXVXvXcXfXiX",
"vXvXcXcXlXMXcXcXuXlXvXfXiXvXvXlXvXvXvXlXfXiXfXpXrXfXfXiXcXlXvXfXfXiXpXlXcXvXfXfXlXfXlXlXlXlXvXvXlXhXcXfXcXlXvXlXfXlXpXuXuXvXfXlXpXrXfXvXfXcXvXVXlXpXlXlXpXfXlXcXVXfXiXpXlXrXtXrXpXcXfXvXlXcXvXCXVXvXlXpXpXpXiXlXcXcXMXVXCXVXfXrXpXuXfXcXvXiXfXVXVXvXfXvXlXpXlXiX",
"cXlXlXVXvXcXcXlXlXlXfXlXfXlXvXvXVXVXvXMXlXpXpXiXuXvXVXVXvXfXvXlXlXrXtXuXlXvXvXfXlXlXcXfXvXvXvXcXfXpXlXcXvXvXvXvXMXvXlXiXfXlXfXfXpXtXlXlXhXlXvXlXfXfXvXvXVXpXuXlXfXfXtXeXiXvXvXlXrXpXlXcXcXlXpXfXpXcXvXcXvXfXfXvXpXpXlXhXlXlXlXtXtXtXtXfXcXfXfXvXvXfXpXvXpXlXlXvX",
"fXtXcXVXcXcXvXvXvXvXpXuXfXpXlXcXlXlXlXpXpXfXfXMXhXpXfXvXMXfXtXvXvXfXuXcXfXVXVXcXiXpXlXvXvXvXVXVXvXlXpXlXfXVXMXVXvXiXpXpXtXlXVXVXlXpXvXvXlXlXcXhXfXlXvXhXlXhXcXlXlXfXlXlXvXlXpXfXcXvXpXfXlXpXuXfXfXlXpXhXvXvXlXvXlXlXhXfXlXhXVXiXlXhXVXVXVXVXvXvXvXfXiXfXfXpXlXvX",
"hXcXvXfXfXVXvXpXuXlXcXpXiXpXlXlXiXcXlXpXrXiXvXvXlXlXpXfXlXfXpXlXcXvXVXvXfXfXMXlXfXvXVXCXVXVXVXVXvXlXlXlXcXvXcXlXlXvXVXMXlXvXMXpXlXhXlXvXvXMXVXCXvXMXfXfXvXcXlXcXlXiXvXCXVXvXvXVXVXlXlXlXpXrX8XhXMXVXVXVXCXlXuXpXlXlXfXpXvXvXvXfXlXpXvXvXMXvXlXvXMXcXlXVXfXpXVXVX",
"hXlXpXpXfXlXpXfXfXvXpXpXtXpXpXlXiXpXcXlXlXpXcXvXlXlXcXfXiXfXvXvXvXvXcXcXpXvXVXvXcXfXlXfXfXVXvXvXvXvXpXlXvXvXhXuXvXMXvXvXcXfXfXpXrXuXlXlXcXVXvXVXvXvXlXpXpXfXcXpXlXiXlXlXVXVXvXCXfXlXvXVXVXlXvXVXvXvXMXvXlXcXlXpXfXlXlXuXvXcXfXfXvXpXhXfXfXvXcXhXlXVXlXpXuXfXuXvX",
"VXMXfXfXvXMXvXVXVXlXlXcXcXlXvXvXvXlXcXvXvXfXpXvXVXvXcXlXhXvXVXVXfXiXpXvXvXlXcXhXfXhXlXuXfXcXfXlXvXlXlXpXvXvXfXlXfXvXpXrXiXrXpXVXvXtXuXlXfXlXlXcXMXlXfXpXuXfXlXiXrXfXhXpXlXlXvXvXVXMXCXvXlXVXvXlXlXpXfXvXfXlXlXfXfXpXpXiXfXiXlXcXfXlXcXvXcXvXcXpXfXfXfXlXcXlXuXhX",
"lXvXvXhXfXfXlXvXlXfXpXfXvXvXVXVXvXlXlXlXlXvXpXvXCXiXcXMXpXfXlXcXlXvXlXlXcXMXlXlXVXVXlXlXfXiXfXfXlXcXfXfXcXvXiX8XfXuXpXiXpXpXrXlXVXCXVXfXfXtX8X8XrXlXfXlXcXhXfXvXfXfXuXiXtXiXfXvXvXvXvXvXlXvXlXpXhXlXlXvXMXvXfXvXvXfXlXhXiXiXlXrXtXvXVXVXCXCXMXlXfXpXfXcXcXvXlXpX",
"fXcXCXlXvXlXVXcXfXlXpXfXtXrXfXvXVXVXvXvXVXvXvXVXcXpXlXfXpXfXpXlXlXvXfXlXvXVXlXpXvXvXVXVXvXvXvXlXlXfXMXvXlXlXiXuXVXVXvXlXfXiXiXpXvXhXMXVXvXvXpXeXiXtXuXpXuXtXlXvXvXvXrXpXlXpXpXvXlXlXvXlXcXvXvXvXcXlXfXlXcXlXfXfXVXlXlXhXiXfXuXiXhXlXlXlXvXVXlXfXVXvXpXlXlXcXlXhX",
"lXvXlXfXfXvXcXvXVXlXMXvXvXpXpXuXtXuXMXCXvXfXVXvXlXvXlXiXvXvXMXCXVXvXuXtXvXvXvXfXlXlXvXvXlXcXlXtXtXiXiXlXfXpXlXVXMXVXVXMXvXlXfXlXlXfXvXvXpXlXvXVXvXvXlXfXcXtXfXfXfXfXiXfXvXvXfXcXvXcXhXfXvXlXuXuXlXpXpXfXhXpXuXlXlXlXlXhXvXVXvXvXvXlXhXfXhXfXlXpXlXlXVXVXfXlXlXlX",
"MXvXlXpXfXhXpXpXvXlXfXpXlXCXpXuXfXlXcXfXlXhXvXiXhXlXlXpXfXMXVXlXlXVXpXlXMXvXlXcXcXlXvXvXhXhXlXtXtXfXfXfXhXfXpXfXlXlXcXvXcXvXfXfXfXcXVXvXtXuXlXfXfXvXVXhXcXuXfXvXvXfXlXpXlXlXlXlXvXlXvXVXMXpXrXuXiXlXlXlXfXiXfXfXlXMXcXfXlXhXlXVXvXfXhXfXpXfXtXiXpXfXlXvXvXfXpXfX",
"lXvXfXcXuXfXcXlXcXvXlXfXcXfXfXfX4 f f f d f j j f d d f f d d r d f f d r < ; ; d @.@.} | #.@.@.#.O.@.@.@.| } { { j j j j j j j N N M f d d < < < < < < < < < < < < < 3 3 > : 3 5 5 5 5 5 3 4 3 3 < 3 3 < < < < < > > > - : : - ; fXhXhXlXcXrXrXiXiXhXlXlXiXpXfX",
"pXfXpXrXlXvXVXtXcXcXvXvXVXcXlXpX4 f d 3 < r d d d d f j f f d d f j f r r d > < } @.} N } } } @.#.@.O.} N N { N { N j N N j j f h M h f 5 3 < < < < < 3 < < < > < < < < < : Y A.g.f 2 3 3 d f , = = , : , , : : : > - : 3 r t q - vXfXlXpXpXvXcXlXtXpXcXcXpXfXVX",
"fXfXMXpXCXVXMXvXVXfXlXvXpXiXpXuX3 f r < q q f j N { } } { N h f N N { h f N f } =.@.@.} @.| @.@.@.#.O.N j N { N N { } { { N N f d d d f f d < < r < t k < q > 1 < q < < = S ).+X+X) 5 2 3 f d 3 U Y 3 : < < > > < : 3 E g.M.N.) p lXfXuXeXpXlXVXvXlXcXVXVXvXvXvX",
"VXvXcXlXvXvXiXiXvXvXcXvXiXuXlXhXd f d < < r j N } @.@.@.} [ N f j | @.[ N N @.t.y.y.=.@.#.=.=.O.} } { N N N N j N | @.O.} } { N f f d f h d 3 d r < r r < > U ~ < < q a , ~ ).S.B.N.4 3 6 2 , q.*X$X) : , < r > : r g.(./.N.S.N.~ lXcXpXfXiXfXvXvXfXlXfXlXlXfXlX",
"MXvXlXlXfXfXtXuXlXfXcXuXvXlXlXvXf M f d 3 f N N } @.@.@.@.O.{ M } %.=.O.N N %.u.y.u.y.%.%.1.#.@.{ N } } | @.{ j N #.@.@.@.} } N N f 5 f f 5 d 5 : : > < 3 3 f.G.> 1 r j 5 A M.C.G.~ 3 d S 2 2 F.1X%X/.r = , t > - l.@X`.`.M.S.N.^ lXcXlXvXfXfXfXpXuXtXtXlXlXvXhX",
"vXvXlXCXvXfXtXfXlXpXiXrXhXVXvXpXf N h f M h N N [ @.@.$.@.@.X.@.@.=.1.@.N N =.u.y.y.=.#.%.%.=.=.#.| @.| @.=.#.{ } @.@.@.@.@.} [ h f j h N f f 6 Q ) a < < 3 j k r d f f 5 5 A ~ Q d 5 6 g 9 9 Q @X#X( , : < , - g  X'.].S.M.G.N.) fXvXvXvXVXvXlXpXcXvXlXuXfXiXuX",
"lXlXvXcXlXVXCXVXcXlXcXvXvXfXlXfXM V M h M h M [ [ ....X...$.<.4.1.1.=.@.[ @.y.u.1.1.@.O.@.1.u.u.u.=.%.%.@.=.t.=.=.@.@.@.#.@.@.@.{ N G N N M 7 +.OX%X) > < < > 1 5 f m f 6 6 5 D 5 2 5 5 8 m 6 3 Y E 3 , 3 T a = q.&X/./.S.M.B.M.) lXvXvXvXCXvXcXVXvXvXlXiXlXtXpX",
"VXlXlXfXfXlXfXVXVXlXcXcXhXvXlXuXf B M N h h B B { B [ [ ..$.4.5.7.4.1.$.%.=.4.y.=.@.@.$.1.u.v.v.v.v.y.y.=.%.=.1.y.=.$.@.$.$.@.@.[ h f N B n M F /.+X~ < < q q q q 5 d j M 7 f D 6 5 6 6 Z M.W 9 3 4 2 5 3 A g = g.&X].].(.M.M.) ) tXfXfXlXlXfXuXvXlXpXfXtXpXtXpX",
"cXvXlXvXfXtXiXlXvXlXMXvXfXVXlXlX5 V M f M V B M n n B [ ..$.4.3.2.3.4.=.=.%.=.y.1.%.$.=.y.y.u.v.v.v.y.1.=.=.%.=.u.4.=.=.=.i.#.O.[ N N M O.} N h A Y d < r < t P T q > y g 6 6 6 6 5 f 6 m ~ A 9 5 g d 3 < , 3 = f.*X'.'./.B.N.) ) pXfXlXvXVXvXrXpXpXfXpXrXiXhXpX",
"uXcXlXlXtXeXpXiXpXlXpXfXlXhXvXcX4 B f 6 N V M 6 6 f n [ ..X.<.3.2.<.*.=.=.@.@.4.y.=.@.@.4.u.u.u.y.1.t.t.=.%.%.%.u.4.1.=.1.t.*.#.[ F G 7 O.| M h 5 5 < < d < q L L > * * - 3 6 6 d m 6 6 6 6 8 6 5 g r , 3 5 3 , S &X'.'._.(.M.^ ) vXCXCXvXvXvXfXfXlXiXpXiXiXvXfX",
"rXpXvXMXuXiXvXvXiXpXvXlXcXlXhXhXr f N B V M 4 d d 6 f M ] ..X.2.3.2.*.1.=.[ [ 1.4.$...O.1.u.u.u.1.=.=.t.=.=.%.%.t.u.1.1.=.=.=.j.@.[ f h 7 7 h f 3 , A k 3 3 < q ; r ~ g.t * A f r Z 6 f 6 8 R _.Z.3 < 3 3 3 3 3 < ~.'.(./.S.) ) Z.vXvXcXvXfXfXvXhXcXfXpXiXpXhXvX",
"cXpXVXvXfXVXlXlXfXfXvXcXvXvXlXcX4 r f V M 5 3 4 4 3 6 6 M [ X.<.3.2.<.4.%.[ [ 1.1.$.=.=.4.u.u.y.4.1.=.%.=.=.=.%.$.a.v.4.*.=.=.1.*.@.M h 9.r.N 5 g g r r 3 g t - q Z.#X#XG.t < 3 3 6 6 F 6 8 ~ %X/.5 U A 4 g 4 < , D ].'././.N.~ ) uXfXfXvXvXhXpXpXlXlXfXVXCXfXhX",
"CXCXCXCXVXvXvXfXhXfXvXcXvXuXvXvX> 4 3 d r < 3 4 4 3 3 6 6 B ..X.$.X.$.1.<.@...$.%.=.4.1.4.u.u.4.1.=.*.$.=.1.1.1.=.1.u.5.1.4.1.4.1.$...[.0X1X XG f D 5 6 6 N j , A '.).(.).E 8 5 n m 6 6 Z f f Q S 9 5 2 g Z 3 d g 2 D F.'._.(.M.~ hXpXfXlXvXfXcXfXpXhXhXcXpXfXlX",
"vXVXlXvXvXvXlXiXrXuXvXcXvXfXlXvX. - < r < 3 < 3 4 4 3 5 6 c B ..O...o.*.1.%.@.X.1.1.1.4.4.u.y.1.*.*.t.t.1.i.y.1.=.%.*.U.}.u.4.y.1.X.j.0X0X<X1X^.n 7 B ] ] ] x 7 V ].#X#XOXR 7 7 N m 8 6 6 D +.0.9.0.N f m 6 9 f Z 5 8 6 F E W Z < vXcXvXvXvXfXpXlXfXhXhXlXtXuXlX",
"lXvXfXlXlXlXfXrXfXcXvXcXMXfXcXpX.   O < r < 3 3 4 4 4 4 6 6 C V ] ....X.$.$.X.@.$.4.4.4.y.4.t.1.1.1.p.p.*.1.1.p.i.=.o.j.|.1.4.j.y.;.[.1X<X:X>X/.V ] [ [ g.D.Q x 7 0.~.(.q.6 n V 7 f 0.F. X-X<X0XwX0X0XZX|.q.d 2 , g S 8 7 8 2 2 2 lXfXhXvXcXlXpXlXBXpXvXcXhXlXvX",
"cXcXlXfXfXpXfXlXCXCXVXlXlXtXcXhX.     O > < < < > 4 r 3 4 d n B ] B ] ] [ @.$.@...<.5.y.y.4.1.<.i.y.1.1.1.1.1.t.t.=.=.o.] =.y.4.1.;.j.=X>X;X>XF.] [  .f.).C.V.G x 7 7 7 8 8 6 N f.].=X:X:X:X<X0XqXwXwXwXwX0X Xf.5 r g 6 F 6 2 Z ( vXpXfXpXlXlXtXpXVXlXlXvXfXfXlX",
"VXvXlXpXpXVXvXvXvXcXtXfXiXiXfXVX.         : q > q g g r 3 > 3 6 N B n c 6 n V X.*.$.1.4.u.4.1.1.u.5.4.1.1.*.$.$.=.=.=.*.%.w.=.=.=.=.o.h.'.&X~.#.] ] ] A.!.).!.R 7 B N n 8 8 R `.;X;X*X*X-X-X-X-X<X0XqXwXwX0XqX0X XS = 2 m 5 j A.S.tXpXfXfXtXtXfXfXfXlXvXcXfXuXvX",
"cXMXlXlXtXlXvXcXvXcXlXlXvXhXrXuX  + + + w a v v U Q / W U r < r 3 5 f n n f n [ <.*.$.1.4.*.$.1.4.u.4.1.*.=.%.$.=.*.*.*.=.i.*.-.%.9.[ { } | ] o.@.[ ] 0.S.G.A.V 7 B } 7 6 f.oX=X*X*X*X-X-X-X=X-X-X:XqXwXwX0X0X0X0X-Xr., 2 5 U S.) cXvXvXVXeXtXlXiXcXhXiXtXlXvXfX",
"lXvXvXlXiXlXVXvXvXcXlXvXvXvXVXVXi s i p P T Q T L Q Q r.r.E y 3 < > g n m n M B X.*.O.M d g f N O.i.i.1.1.t.t.1.1.k.j.=.1.-.=.p.=.@.#.9.} @.@.%.%.w.[ ] [ F n x B [ 7 6 A.@X@X&X&X*X=X*X&X*X*X=X=X=X<XqXqXqX0X0X-X:X<Xf.d m A S.M.VXVXvXpXtXiXlXuXtXtXrXlXlXlXpX",
"cXfXlXpXpXcXlXvXpXfXvXvXhXuXuXlXa P p P P U T T v Y Q Q E Q Q u - q q 6 M B ] B B M 3 ; > r d g g N %.5.4.*.*.<.*.].^.=.1.1.=.p.1.*.%.9.9.k.t.@.=.p.[ ] ' N G 7 N } M l.@XoXoX&X@X#X=X*X@X&X&X&X*X=X:X0XwXwX0X0X-X*X-X=XQ 9 f g.N.vXfXfXlXpXuXlXlXiXrXlXlXcXlXpX",
"VXVXvXcXfXlXvXVXlXlXfXhXfXpXiXpXs P s z v L L L L U W W Y E E E q   ; d B [ [ f 3 < ; > q d f f g f N 1.4.*.%.t.1.p.e.=.=.;.=.t.1.-.=.=.%.r.w.*.*.*.*.[ { } +.x x 7 r.oXoX'.'.@X@X@X*X@X&X&X@X&X=X=X;X<X<X<X<X-X-X*X'.-X].Z 9 D Q lXuXpXiXfXuXcXlXfXfXvXlXfXhXpX",
"VXvXVXuXtXeXvXfXpXtXpXpXfXpXlXcXv L a s s v s v U U U U S Y W Q E 3 ; r M n d q > q > > q r f j m F G @.4.1.1.t.<.<.<.=.*.j.]./.D.e.w.p.o.] o.*.*.*.^.A.] B 7 B x +.`.'.].].'.'.OXOX@XoX&X&X&X*X=X=X;X<X<X<X-X-X*XoX(.'.-XD.3 9 d pXfXlXuXfXuXcXVXvXuXfXVXlXvXvX",
"fXfXiXrXrXtXvXfXiXfXCXVXvXlXpXvXU Y v a a p p a v Y U Y S S U E r.0.m d f 3 ; + ; > > > r y g N F O.#.%.1.1.4.*.1.1.1.-.p.=X>X;X%X'.i.-.@.@.9.r.=.-.^.F.X.B 7 n B F.'.`.'.'.'.'.'.].'.@X&X*X*X*X=X=X-X:X<X:X=X&XoXoX].G.&X&XQ 2 d fXfXlXpXfXfXlXMXVXfXfXpXlXvXcX",
"pXfXfXpXfXfXpXlXlXlXVXvXlXpXuXpXP Y U U v s v v S A S R S S R R W q.r.0.V M f r > ; ; q q r g N } +.%.t.p.i.4.4.^.~.i.-.`.1X<X<X;X%XF.;.;.-.D.(.i.-.=.y.4.O.N 7 0.'.].].'. X'.'.'.'.'.oX@X=X=X=X=X=X=X-X=X=X@XOX'.oXOX].].].D.r , lXMXlXlXlXlXvXcXVXlXfXlXvXfXlX",
"vXvXVXlXlXlXlXlXhXfXcXfXlXlXvXfXv U S U U v v U Y Z S Y S A U Y R W r.r.q.W F V N q + ; q < g N } 9.w.t.t.t.4.y.`.).i.1.'.;X:X;X;X%X^.*.p.y.p.r.y.4.-.4.v.i.V 7 F.&X`.`.]. X'.'.'.'.'.@X#X$X-X-X-X=X=X=X*X@XOX'././.)._./.N.Z.Y : fXvXVXvXvXvXlXlXvXfXcXlXfXlXfX",
"lXVXVXVXVXCXCXVXvXVXvXcXlXfXvXVXa b v v L L A A S S A Z S S S R R R S W / r.q.J V F r   ; > t N | i.c.t.t.y.u.u.i.9.@.-.F.%X;X$X%X#Xh.;.#.[ h h N [ o.@.4.5.o.}  X'.`.'. X,XoX'.'.'.oX@X=X;X;X:X:X=X*X*X@X'.].).(.)._.).).B.) T : lXcXcXMXVXVXMXVXlXcXlXcXlXfXuX",
"fXvXMXvXhXvXVXvXcXvXvXvXlXcXlXlXU v a v S v b H S H Z S H Z S A R S S R W Q Q / J V V r   ; > g #.p.b.c.i.y.u.@.B [ } @.#.~.$X%X#Xk.[ h 4 4 5 6 h M h M M ..o.r.&X X X X,X&X'.'.'.'.oX@X$X;X;X=X-X=X*X@X'.]./.(.).OX@XOX).S.Z.~ r lXfXfXlXvXvXMXvXcXlXlXvXfXlXfX",
"vXlXlXfXpXhXhXvXcXlXVXvXVXvXlXlX| E v v A U S U S m A A H Z Z H H H S R G R W Q E F V F r ; > r F i.b.T.T.s.@.m R +.F [ { N r.f.0.[ { F G B { [ +.F 7 6 h n M F.&X X X X&XoX'.`./.(.OX#X$X;X;X=X=X*X@XoX'./././.OX*X@XOX/.S.g.g.Z lXlXlXfXfXpXpXfXlXcXcXvXlXvXcX",
"vXlXvXlXpXfXvXvXlXlXfXVXvXfXfXMXD +.R W U Z A S S H Z g Z Z m H Z H H H S S R E R H m N V t 0 > 3 N t.b.2XI.N d F F N j G F } O.[ [ [ [ [ ] 0.A._.).g.N h n B ^.&X X X'.oXoX_././.(._.OX#X$X;X=X=X@XoX'.`././.(._._.(.(.D.) f.g.U uXlXvXCXVXcXvXVXfXlXvXlXvXvXlX",
"fXlXcXlXlXfXcXcXpXtXpXvXvXhXfXVXD | +.0.W R S S S A S H Z Z b Z Z m m R r.j.k.[.[.k.h.W Z N r q r g f N | D 4 f V } 6 E (.Z.N } } F M [ x } (./._._.#XF.h M V ~.&X X XoXOX_.)./.(.(./._.+X#X$X$X*X@X'.oX'.'./.S.S.S.(.(.M.~ q.g.Y lXvXvXlXfXVXvXMXfXlXvXvXcXlXlX",
"lXVXvXlXfXfXlXvXvXfXiXlXvXvXrXfXN F } +.0.E E S H H Z S Z Z H Z Z E k.|.{.{.4X{.}.5X.X}.k.E m g r ; q ; ; > a T A g B 0.M.( f M m m M M 7 f._.(.)._.oXoXF N | ~.&X X'.'.).(.(.S.D.(.)._.OXOXOX@X#X@XoXoX]././.S.M.B.G.(.Z.f.m.g.r.VXcXlXpXiXlXcXlXVXvXvXlXfXlXpX",
"lXvXlXcXlXfXlXlXfXfXcXcXcXhXfXdXr N D } #.#.0.E E S S S A S U r.k.|.{.E.T.T.T.T.{.}.{.{.5X}.h.S m r O ; > < L ) T d N @.+.[ { [ B 7 V F 8 f._._._.OX@X@XG j +.~.&X X'.].G.B.A.Z.Z.A.S.(._.OXOXOX@X@XOX/././.G.B.M.M.B.N.) m.~ h.b.fXhXfXfXcXvXcXiXlXfXcXcXiXuXpX",
"lXvXpXVXlXpXvXpXtXiXlXVXlXlXVXfXu 4 g D | #.#.9.q.r.Q E Q r.h.U.T.T.Y.T.T.Y.Y.T.{.{.{.{.{.{.}.H.S N g 0 e < a T A f f } o...+.[ +.N M M 8 R /.).(.(.#X~.5 7 M ~.&X'.'.(.B.B.D.A.A.M.D.N.(./._.OX@X@X).(././.S.V.M.M.M.~ T T Q b.c.lXhXvXlXpXpXVXfXiXlXfXvXvXVXVX",
"hXvXMXVXlXvXlXuXuXpXfXcXhXhXvXvXz , r g D +.#.#.#.9.9.9.9.9.9.#.+.0.p.b.T.T.I.I.T.T.{.{.{.T.T.}.H.H N g + - > r d f g N #.l.A.q.0.F 7 m m 6 Q S.N.D.`.A 2 5 5 k.&X'.].G.S.S.S.D.Z.A.D.S.(.(.(.)._._.(./._./.(.C.B.B.B.) T Q j.I.c.vXfXhXvXvXfXhXfXpXdXlXcXpXcXcX",
"cXiXfXvXfXrXpXhXvXvXvXfXlXlXlXvXl u 9 r g D F } | #.%.w.%.#.#.#.#.| } 0.j.Y.I.I.I.Y.T.E.T.Y.I.T.}.k.y N m r > < 3 t Z B 0.)._.D.M M h f j f 3 A U Y t 1 < < > Q &X'.`.S.D.A.A.A.Z.) M.M.D.S.(.).).(.D.(.(.G.S.B.M.M.M.~ T f.T.b.c.VXlXtXiXpXtXpXpXlXvXhXfXfXpXvX",
"lXpXlXpXrXtXiXfXlXVXVXCXCXlXlXcX% z , 2 3 d j D } | 9.9.w.w.9.9.9.9.| D R p.c.c.c.b.T.T.T.Y.I.T.{..Xf.d } F N N j g f N D ) M./ B V M h 5 k t , : 1 1 < > > q a '.'.(.S.) ) D.A.S.) M.N.S.(.).).(.Z.D.S.D.N.N.M.~ ~ ~ T T U.2Xb.c.vXvXiXrXeX8XfXvXvXlXfXuXfXlXlX",
"iXlXuXvXfXfXlXVXcXiXVXvXVXhXtXtX# l z y y t g N { [ O.@.@.#.%.=.%.%.%.#.} +.e.t.t.p.c.Y.E.E.{.{.{.5X.XE 6 V } O.O.F } V N V Z f N [ M M f r r d r < < > t > q 3 F.@XS.A.g.g.A.Z.M.) M.) B.B.S.M.) g.D.D.D.N.M.) ~ ~ T L h.4XY.b.b.pXlXpXtXpXiXfXlXfXcXVXlXlXlXfX",
"uXlXfXfXlXcXfXlXlXrXiXpXvXpXpXpX# % ` i r v v A J R 0.0.0.e.e.e.e.e.e.e.e.e.r.p.y.y.i.c.T.5X5X5X}.}.7X}.S 6 N F F +.O.K V ] ] f f M F N h 5 r d g d < < r < t < E _.S.) ( ~ ) g.~ Q ) ~ ~ ~ ) ~ ~ D.A.A.D.N.M.^ ~ ~ Q f.{.2XI.Y.Y.lXiXfXpXpXpXvXhXlXlXlXVXcXfXlX",
"fXfXtXrXfXvXlXrXpXtXeXtXvXpXfXfX& & & l ; , f n m S R W W W J O.O.O.&.&.0.0.q.f.h.p.i.i.c.T.7X7X5X5X6X7X|.S m R R 0.0.0.+.K [ ..V N Z N h h h D Z f 5 Z g < > - 3 g.D.( ~ E Q ~ ~ ~ ) ~ ~ ) ~ ~ g.D.D.D.Z.) ^ ~ f.r.b.{.2XY.Y.Y.T.hXpXlXfXfXuXvXvXvXvXvXtXpXlXfX",
"hXfXlXfXlXlXvXlXpXcXfXcXlXiXlXvXi e # z z ; = 6 6 6 n n n B { { ] ] { V [ N F 0.0.f.h.b.c.c.T.5X7X5X5X5X7X|./ R Q r.f.f.f.f.0.V B [ N f d f h N f h h f r - > M [ %.t.%.$.@...N D R Q ) M.M.) g.A.A.A.A.) ) h.p.>.c.4X4XY.Y.I.b.b.uXfXvXlXpXfXlXfXcXvXVXlXcXlXvX",
"cXVXlXrXpXvXVXCXVXvXlXvXvXlXcXVXe s i i P I # = 2 6 c 6 6 x ] ] ] [ V B [ V V } } G v E s.c.K.T.4X4XE.E.E..X|.) E Q l.h.h.k.k.d.V B V V B n h f 5 5 3 < 3 N $.$.$.4.<.;.X.X. .' x n N S ~ ) ) ) g.g.) ~ f.p.>.o.c.4X{.Y.K.s.a.5.a.lXlXpXvXVXlXuXiXuXfXvXtXcXcXMX",
"cXVXCXcXvXCXVXcXvXMXfXuXlXMXVXMX& s p i p P I % - , 6 c 6 n B { [ [ [ X.[ } N N N N r ; i E >.y.c.Y.Y.Y.P.P.R.E.H.( E r.h.k.k.k.r.V M V V V B B n M V O.$.$.<.1.4.4.1.e.r.h.k.H.d.[ 7 n B Z U Y T T Q r.=. . .Y.6XE.I.x.5.5.2.5.[.uXfXhXfXVXlXlXlXcXlXlXfXcXtXlX",
"fXfXvXlXvXvXvXrXlXVXfXfXpXhXhXlX& i p s p P z I I e : 2 6 B [ ..X.;.{ B [ } N g j g r q > a E &.$.3.K.R.Y.Y.R.R.R.E.H.r.q.f.h.h.j.p.O.n M B B V O.1.1.4.4.*.1.4.i.p.h.h.h.k.|.XX}.H.J 3 6 5 6 < ; a 9.X.] =.4X9XE.x.z.5.7.5.2.2.s.MXvXvXvXMXvXiXhXfXcXVXVXlXtXpX",
"vXpXcXlXlXlXpXpXlXlXpXfXfXpXpXfXi s p P L P z z I ^ I s r 6 n V F G Y E R Z r < q r > 0 r q y E &...$.a.R.R.R.R.R.3X3XE.j.0.r.f.h.j.j.9...X.3.u.a.y.1.*.$.$.$.#.r.d.r.r.j.k.[.H.k.l.j.F ; > ;   a O.' X.b.7X9X2Xx.z.a.I.a.2.2.2.s.CXVXvXaXuXlXlXlXcXiXlXVXVXpXpX",
"lXpXtXlXMXvXpXvXfXuXvXVXCXVXlXvXp s p s P P ! z z I I ! ^ ) f.k.[.|.|.|.|.[.f.z 0 > > ; > r g Z E J  ...3.K.R.R.3X3XR.3X3XU.E E f.h.j.k.p.y.1.1.3.1.$.$.$.O.F E r.0.G +.p.j.f.E L v W Q k ;   y ..X.c.4X7X7XY.7.W.x.7.|.s.K.H.d.d.lXMXcXlXvXlXpXfXlXtXcXMXlXlXpX",
"lXvXpXiXpXMXVXVXvXvXVXVXVXvXlXlXi s s p P z z z p s I ( F.|.{.T.{.{.[.|.}.}.}.|.g.s   O r g m F G Q F  .....>.7.x.K.J.J.L.R.W.r.0.r.h.h.h.f.R J +.V F F m y Z R R Z F G 0.0.v a a v v L U v b w.c.4X6X4XE.K.z.z.7.x.7.a.W.^.H./ S pXcXvXvXvXvXlXiXuXcXlXpXpXfXlX",
"vXMXcXvXtXvXlXpXiXfXfXcXlXhXcXcX% p s p s p z I P ~ ^.}.{.T.U.U.U.U.U.|.}.|.|.{.}.|.Q w r N } #.%.9.E C  ... .K B B  ...X.3.x.Y.r.R r.d.f.f.E U s e & e i y A S A g m G S a a s a e a a s Q I.4X4XT.I.K.8.8.z.x.7.{.K.a.W.d.e.J m vXlXvXlXvXlXpXlXhXVXlXtXfXhXcX",
"cXlXfXvXvXuXtXfXrXeX8XuXlXlXvXvXP P L P P z T g.^.}.{.T.U.U.U.U.n.n.n.U.|.|.|.|.|.{.}.l.a g } D F } 0.Q B  .o.o... ...X.X.2.2.z.I.r.R 0.r.q.E A a e e A 0.d.j.d.q.S Z y t y y e a i e e f.{.2XL.x.z.8.8.z.z.z.7.7.7.7.6.H.j.Q ( J cXvXvXvXlXvXvXMXVXMXvXpXlXfXcX",
"pXpXlXvXvXvXVXlXvXuXfXcXlXlXfXvXU T T T P T Q q.9.0.0.r.s.b.I.U.n.b.b.I.U.[.[.|.|.U.U.}.F.e r g g | %.0.U K  .o. .o. .o.X.>.2.3.x.K.r.A U Y U A a A r.I.E.{.2XE.E.W.h.W a i e w w w i h.4XR.J.z.z.z.z.z.8.8.8.7.7.7.6.7.a.0.N F R vXMXVXvXVXVXVXVXlXiXiXfXhXlXMX",
"lXtXuXvXvXVXvXfXvXfXvXMXCXvXlXvXj D D D D N f r r r q q t G p.T.U.b.b.b.n.U.[.U.U.n.b.I.}.g.+ ; D #.9.+.q.R  . .X.X. .o.X.:.2.3.3.a.K.r.a k U E r.I.E.R.E.{.{.{.E.U.W.H.h.r.Y v a U k.Q.R.P.L.J.z.z.z.8.8.8.8.8.5.2.H.>.x n f.q.F fXvXlXhXvXVXVXlXpXpXvXlXVXlXfX",
"pXlXlXvXvXVXVXlXfXvXvXvXfXuXtXpXt D D D D D Z D D Z g t > + t 0.b.b.b.b.b.n.I.I.n.b.b.b.U.}.~ O m #.i.i.e.E J  .X.X.X.X.X.:.2.2.3.5.a.K.d.U +.p.I.Y.W.E.E.{..X.XE.I.U.k.k.l.h.r.f.[.Q.P.R.P.L.J.z.8.z.8.7.7.6.2.o.B h.J J f.r.q.Q VXVXlXhXpXfXMXvXfXfXvXvXVXlXcX",
"hXpXcXvXlXlXvXhXfXVXVXlXpXlXcXlXr g D D G D D D D D m g t q ; + k t.p.p.s.b.b.I.n.n.b.b.n.{.XXT 3 } } D O.D Y &.X.:.:.X.X.:.:.2.3.a.a.a.K.s.9.0.p.c.Y.E.E.{..X{.{.T.U.k.h.E Y r.W.R.P.P.L.L.L.z.7.7.7.7.2.,.X.o.] ] B ] &.&.x M m cXvXlXlXfXlXlXcXfXuXlXvXcXlXlX",
"lXpXlXcXfXfXvXlXCXvXuXpXCXcXVXVXr g j N N D D D D k g g g t r q + r #.w.w.i.s.I.U.U.U.U.U.|.5X}.s : y g F V 9.r.J  .o.:.:. .X.2.2.3.a.a.5.x.s.r.0.i.I.Y.|.{.{.{.W.U.U.h.r.W d.I.L.L.L.L.L.J.J.z.7.7.2.X.X.X.o. . . . . .' c f 9 b lXfXfXfXpXhXfXlXMXfXfXlXfXlXpX",
"lXvXfXfXlXfXlXvXvXfXiXpXCXpXpXrX- r g U ~ U N D F @.$.$.X.X.X.O.V a H w.w.9.t.p.U.}.}.}.}.{.}.7XF.# d D N F O.F U R B '  .o.X.2.,.2.3.a.a.5.3.i.d.p.e.i.b.U.W.{.U.j.r.r.d.s.K.K.K.K.K.J.J.z.z.7.6.2.X.o.o.o.o. . .' x 6 8 r T 3 r vXfXuXpXfXfXMXvXcXMXvXlXiXpXlX",
"lXcXlXlXvXcXpXiXlXfXpXlXfXlXuXtXX ; p T W S U Z x ,.8.7.6.6.6.,.o.o...0.r.t.t.t.p.[.XX7XXX}.}..X7Xg.; f F V r < r A Y H c c x  .X.:.,.3.a.a.2.,.2.5.i.p.p.i.i.i.r.h.r.s.a.x.z.x.K.K.K.J.z.z.8.6.,.X.o. . . . .' x 8 8 , : > < , - cXfXuXrXpXvXlXvXvXlXlXcXpXtXhX",
"lXcXvXpXfXfXlXlXcXlXfXlXlXlXfXlXl   0 e , 6 m f c B o.6.6.,.,.X.f.r.&. .&.e.p.p.p.p.U.XX7X7X5X}.5XXX~ . 3 j r ; > > t v U Z 6 8 8 c x x  .o.y.3.:.X.X.:.3.t.p.h.h.r.e.i.a.t.3.3.5.a.z.z.7.6.6.,.:.o. . . .x x 8 6 g S J 9.&.&.+.H tXtXuXpXlXvXpXlXCXuXpXpXfXlXcX",
"lXfXiXlXtXpXvXVXCXpXtXVXvXpXlXvX^   # %   > y ~ W x 6 c o.6.,.X.( / Q o.&.&.>.p.s.s.s.U..X7X.X{.{.{.}.T   > > + +   ; 3 g S E U Z a a y u 6 x x ..B x x K J W r.0.[ O.O.&.e.i.e.J C M B B B B B x x c 8 8 4 y R e.i.a.x.z.z.a.5.1.fXtXhXlXfXvXuXpXvXfXpXfXvXVXMX",
"iXtXeXiXiXVXvXMXvXlXlXvXvXvXcXlX. ^ p $ $ # z p c x 6 6 6 V X.X.e.e.&.X.e.r.:.,.7.7.a.x.K.Y.L.J.J.x.K.s.p .   + +   ; 3 d ] ..1.>.0.E Y T Y U W F c 2 b U y 4 5 6 M B V B B ..$.>.W U S m m n n f g y v U W e.3.3.3.5.3.3.4.3.2.$.iXiXMXvXpXVXvXlXfXfXpXlXfXlXlX",
"tXeXrXuXlXvXVXvXpXvXiXfXVXlXfXvX` I p l ^ i + 0 : 6 7 6 8 Z S x V / / >.d.l.o.X.:.>.>.e.i.i.s.K.K.z.J.J.a.Y o     O > > 5 n o.X.o.' 8 8 2 : < y a P L e : 3 5 6 h V [ ..[ B M M B ] >.e.e.e.e./ W 0.0.e.3.2.2.2.2.3.<.*.<.$.$.X...eXeXtXpXlXVXfXlXvXvXcXvXVXVXvX",
"vXvXvXcXfXpXlXVXVXfXrXfXlXlXiXiX& e I p z I P > * z L 2 5 5 8 8 m ! Z c n W / _ Q U v y r t y v E r.c.J.8.x.r.i .   + ; > < 2 3 6 6 5 : - O - + $ p > : , 3 6 f M [ [ ....[ V V B B .. .X.2.2.,.X.X.X.X.:.:.:.:.$.$.@.......[ V M vXfXpXtXlXlXlXVXCXVXVXvXCXCXCX",
"pXfXuXfXfXhXfXVXcXfXfXcXcXvXiXfXe - I p 0 p ^ 0 - e e   O e e e L P Q T ! ! ! a > = = , - - - = = > L p.z.7.8.a.0.i 0 +   O O : : ; +     # % % # - - > < 3 6 f B [ B [ [ [ [ V [ ..] ]  .o.X.X.X...o...X.X.X...[ V N N M B M M n fXlXvXrXhXvXvXvXvXcXvXvXvXVXVX",
"lXfXtXpXlXvXfXVXMXlXcXvXlXvXlXMXP e I i p s 0 p I - q P - e # P I s P e a : ! y * p p ; - - - : , , - a 0.6.,.6.8.a.e.E U a s s a s L T P p i 0 - - - : < 4 f M M M M [ V B [ V [ ] [ B B B B ..B B B B ....B n d d g f f f f d 4 fXtXuXlXlXlXfXfXiXfXlXvXvXvXvX",
"vXvXuXcXlXlXlXcXvXvXcXlXpXvXvXcX# I s - z z p z z - s _ q - - a I i e 0 @ i I e - I I - > > - : : : , : s &. .] o.2.8.8.z.a.u.u.3.>.3.2.:.X.$.0.S a > : : 3 f f f d M B M M B [ ......] B B B B B B B B B n d r r r r r r 4 3 < y fXpXfXlXcXvXlXdXuXhXlXlXlXlXlX",
"lXpXfXfXlXlXlXlXcXVXMXvXcXvXvXcX& z e - *   $ w - - - * - - - e z e _ _ p P P w e * * - i e - - : , : : > L V ' B B o.,.,.6.6.,.,.:.X.X.X.o.X.$.3.e.R b y d f 6 3 4 f N [ O.$.<.2.$.....B M B B B B  .B f d d r r r r r r < > b Q lXvXcXlXlXhXvXVXVXCXtXeXcXfXcX",
"cXfXvXMXVXVXVXCXVXlXCXvXvXVXvXvXl l i e p # z 0 - ; - - q q i I i w I P e w i p s ; - - : : - : : , : - - i S ] B B x x  .:.2.6.2.:.X.X.....$.$.$.<.3.e.e.e.#.+.+.%.%.1.u.u.5.5.2.X...B c M f M B B f r r r r r r r r 3 < > v Q E MXVXfXvXlXtXhXvXhXfXuXlXlXcXvX",
"hXvXvXVXlXlXfXlXvXlXvXlXcXvXVXvXl % l # i w e - z e > p z p p 0 I P * @   s z e + ; - - - : : : , : : , : - z H x M M c c B M ] o.X.X.X.o.X.$.$.>.3.4.5.5.x.c.c.c.K.K.x.a.3.>.>.$...] B 6 M n n n 3 ; > < r r r r q > : q U Q W S vXCXcXfXrXeXfXuXpXpXfXfXhXfXvX",
"lXVXvXVXvXpXrXpXVXpXpXcXiXiXpXfX  O l w + 0 ; ; p s L a > > - # ^ s 0 I i s w w - - - - : , : , 2 2 , , , = 0 L B 6 6 6 6 6 3 3 5 c B B K ..X.X.>.3.5.a.a.x.x.K.K.K.K.x.3.2.>.$.X.o.B B 6 n 6 > : ; 0 u t r < < < > u a U Y S E Y pXlXpXrXeXlXlXtXMXcXuXpXvXlXiX",
"cXfXhXlXuX8XpXVXMXlXpXfXiXeXtXrXX # l # + ; > i ; s s = I P ; % z X # ^ % # # i ; - O O : < , , , , , , , : = e U c 6 6 6 6 6 3 3 3 3 3 4 6 n M ....$.$.$.$.$.%.y.x.x.x.3.2.2.:.X.o. . .6 3 : - 0 e e i a L P v v U L Q Y S W W J lXlXfXfXvXlXvXlXVXlXuXvXlXvXfX",
"fXpXlXvXuXfXlXvXvXVXvXvXlXpXuXfX$ z # O + # ; > w z 0 @ z & $ # o . # $ o   . . .   O ; < , 3 3 2 , , , , : : - a U c 6 6 6 6 4 3 6 4 2 3 , < 4 n f 4 3 d d f f n N [ $.>.2.2.$.o. .B 6 - O ; w e e e e a a L L v U A W R W q.J G fXpXvXcXlXlXlXvXlXpXfXlXfXcXlX",
"vXvXcXvXvXvXVXVXCXvXhXvXlXlXpXiX# # O - ; +   X o $ . X X o # o o # o . . . . .   O - ; , , < 3 3 < < < , : : : : a U 3 2 3 6 4 6 n 6 6 c 4 f 6 3 < : 3 6 f f f f d 3 3 6 c M n 6 3 : O + w w e e e e e e y s s b S R R R R G S Z lXtXfXVXVXpXrXpXlXvXhXfXCXMXVX",
"vXvXvXvXfXVXvXcXvXvXlXvXvXvXvXiXX   ; ; ; ; + . o o . o $ #     . . . . . .   O O - - : : : : : : : > 3 4 4 3 3 3 , u L y 2 n 6 f f f n M n 6 4 3 6 6 f n n n n f f 6 5 3 2 , : - O - # e e e 0 e e e q u e a a v S G J J b y a a pXlXvXpXuXiXfXvXvXVXfXlXiXiXpX",
"cXvXcXlXpXfXpXlXvXvXiXpXvXcXvXcX. ; > > > - O - # l % $ #     .   . . .   O O - - - - - ; : : > 3 3 3 3 3 4 6 n M M f g E G M n n M V n 6 f 6 f f n n B B B n n M n 6 5 2 , : - - 0 w w w e e e y q e a e e e e p a y b p # & e # lXpXpXfXiXpXfXvXlXpXcXvXlXfXfX",
"pXiXfXiXuXfXiXcXlXvXfXuXcXvXvXVX  - > < > - O O $ i ; O   O O O   . . . O O O - - - O O : : : < d y 4 < , > 3 3 3 d m n B V B n n f g d 5 6 6 f n n M M M M n 6 3 2 , : - - - + # # + # # 0 0 0 q > w w # # 0 # # # i e # # & $ # uXfXtXiXvXvXVXuXtXlXMXvXvXlXuX",
"tXfXpXlXfXfXlXvXfXvXVXlXvXMXvXcXvXlXfXcXVXVXVXlXeXdXlXcXMXpXpXfXlXlXfXcXfXiXfXlXlXfXvXlXiXlXvXfXhXvXiXpXfXfXcXfXiXfXvXpXlXvXvXcXvXhXcXlXiXuXtXlXlXpXvXvXMXlXfXlXMXlXvXvXlXuXlXlXiXiXfXhXfXlXtXfXlXcXfXlXfXcXVXlXfXvXlXiXfXpXlXrXiXrXuXlXpXvXvXvXcXvXcXcXlXhXlXfX",
"pXlXcXVXvXvXlXVXvXlXvXMXvXfXlXlXMXVXvXvXlXlXvXlXhXlXvXcXcXpXpXpXtXlXlXcXlXlXlXvXuXiXMXvXcXvXlXMXlXvXaXlXlXfXiXvXlXlXpXpXtXfXvXvXiXfXvXvXvXpXlXfXcXpXuXhXhXeXuXfXlXvXvXcXlXcXCXhXfXVXtXiXcXVXlXcXVXvXcXpXpXpXvXBXuXpXfXlXfXuXlXpXtXuX8XhXpXpXlXMXvXvXuXcXcXpXfXlX",
"lXfXpXfXvXvXfXrXlXvXMXVXvXpXhXlXvXvXuXlXcXcXvXfXcXvXvXvXpXpXfXpXpXlXfXvXvXvXlXhXcXvXcXhXfXcXMXlXlXvXpXyXvXcXrXiXvXvXlXvXfXvXlXlXrXiXpXvXVXpXiXfXpXfXlXvXiXrXfXrXtXpXVXvXpXvXlXpXvXfXfXrXlXiXvXvXvXvXvXlXlXfXhXlXrXrXrXiXlXVXvXMXlXcXcXlXlXlXfXhXlXcXfXlXvXvXVXVX",
"MXvXiXpXhXVXlXpXvXlXvXvXcXfXfXlXvXvXlXvXVXvXvXlXcXvXpXuXcXlXlXcXlXpXiXfXlXvXvXlXlXfXfXfXpXhXpXcXvXMXcXhXlXhXiXiXcXMXvXVXvXvXlXuXvXcXtXlXvXvXrXtXfXvXvXvXVXlXVXhXpXfXvXMXlXlXpXpXtXlXvXpXpXuXvXvXlXvXhXlXlXvXlXvXlXiXeXpXpXlXlXlXlXvXcXpXvXlXpXrXpXfXfXlXvXcXlXvX",
"vXVXVXcXfXpXlXcXvXlXvXvXvXvXlXcXlXuXfXpXVXpXfXuXiXlXlXfXlXfXfXlXvXiXrXfXpXpXVXVXvXlXhXlXlXVXfXpXfXcXVXVXvXvXlXfXlXlXlXvXcXfXfXlXvXlXpXuXtXlXfXtXuXcXvXlXpXlXMXVXpXpXlXpXpXcXvXpXpXlXVXhXfXfXiXfXfXfXlXVXlXlXpXpXlXlXpXlXrXfXlXuXfXfXiXlXvXlXlXuXtXcXvXvXcXvXvXfX",
"VXVXvXVXvXlXpXpXiXfXvXMXhXfXfXpXvXpXlXeXrXpXhXtXiXvXCXcXlXfXpXcXMXuXlXlXcXiXfXpXlXfXvXMXvXMXvXhXpXcXlXhXuXhXcXcXvXvXlXcXVXlXfXlXcXlXfXiXuXrXuXpXfXvXlXiXpXhXhXhXvXhXlXpXtXpXpXpXvXfXlXfXcXVXuXfXlXlXvXhXfXfXtXpXfXtXiXpXtXcXvXiXpXlXhXfXvXfXlXcXvXVXVXvXvXvXcXlX",
"lXpXvXcXlXlXfXhXfXpXcXcXvXpXtXiXiXiXMXfXrXfXMXVXlXfXVXvXlXlXpXpXvXfXfXfXfXfXlXpXvXvXfXVXfXlXcXhXfXfXpXfXvXcXlXlXtXfXfXlXfXfXfXlXiXtXpXlXhXlXiXpXlXpXfXvXfXiXtXvXVXvXVXVXfXuXpXhXpXfXiXlXvXvXvXfXiXpXvXvXpXtXuXCXMXvXtXiXMXvXVXfXlXMXcXpXlXfXvXcXCXCXVXMXvXvXlXvX",
"iXvXvXlXfXlXcXpXlXvXlXlXvXfXeXlXfXfXfXvXvXvXlXpXvXvXvXvXlXMXlXfXhXfXpXfXlXVXVXpXlXvXvXvXpXhXvXlXlXiXvXVXvXfXMXiXiXfXVXMXlXrXfXfXuXfXfXfXlXvXlXvXvXiXrXhXlXfXfXhXuXvXMXlXcXvXpXfXlXlXtXpXlXVXlXfXtXpXvXlXlXlXcXvXvXVXuXtXtXfXcXlXlXuXlXcXvXpXfXlXvXvXMXvXvXlXuXpX",
"lXVXfXvXfXvXlXvXvXvXlXvXpXlXiXpXVXcXvXfXfXCXVXvXpXlXvXlXlXvXvXpXfXfXpXfXvXvXvXvXMXvXvXlXfXpXVXvXVXVXvXpXuXvXvXlXpXfXpXCXlXiXMXvXvXcXlXCXlXiXlXvXcXlXiXrXtXpXlXlXlXpXhXfXfXpXpXcXfXfXfXfXfXlXlXlXpXvXcXvXpXlXvXlXlXlXpXlXrX8XtXlXhXpXlXvXcXvXlXvXcXcXlXvXlXcXpXrX",
"vXVXiXuXlXuXpXVXVXMXcXfXfXlXpXtXvXfXlXlXhXhXVXCXpXlXvXfXlXVXvXVXVXvXvXlXlXvXVXcXMXVXlXvXcXvXvXMXMXlXlXpXhXVXvXuXpXrXuXfXlXlXvXcXhXuXVXVXvXpXMXVXMXcXcXpXlXiXpXlXVXuXlXvXlXlXvXCXCXvXfXlXvXvXvXvXVXcXvXfXlXVXlXlXvXVXcXlXfXuXrXiXpXpXfXpXlXcXhXvXlXvXlXfXfXlXvXpX",
"fXuXrXlXfXpXlXvXcXlXlXlXlXlXfXlXlXlXlXpXpXpXcXVXlXpXvXlXvXcXfXfXlXcXvXfXfXlXvXlXlXlXpXlXcXvXcXhXvXvXVXiXhXVXvXfXpXtXpXlXcXVXvXpXfXuXlXfXpXpXcXvXvXVXlXlXvXvXvXlXVXlXlXvXlXvXfXlXhXpXcXMXVXvXlXlXvXVXVXvXpXrXuXlXrXpXlXcXcXVXcXfXvXfXfXpXfXfXlXlXvXlXpXlXvXvXpXfX",
"MXfXiXlXiXpXfXvXvXlXfXvXvXVXlXvXVXvXlXhXeXlXVXVXvXlXpXpXvXfXhXlXfXlXlXlXlXcXcXcXcXhXfXlXvXlXfXfXfXlXvXfXrXpXlXlXvXvXVXVXlXpXlXlXlXlXiXuXpXfXvXvXlXvXvXlXvXvXlXcXlXlXvXMXlXvXvXuXrXrXiXlXpXfXfXvXvXVXpXcXVXlXvXlXtXrXpXpXlXVXlXlXvXvXcXhXlXfXpXiXuXfXpXfXfXfXfXlX",
"cXlXMXMXlXVXVXfXpXlXuXfXhXlXlXfXCXCXlXfXtXfXvXlXvXvXfXfXvXvXvXfXfXcXfXcXvXlXfXhXlXvXcXfXvXiXuXvXvXVXvXpXpXuXpXfXlXlXcXvXcXlXfXfXvXcXvXfXiXfXfXcXlXvXpXtXrXfXlXfXfXfXvXVXvXuXrXtXlXfXlXVXvXhXpXpXlXvXfXcXVXvXhXVXVXlXfXfXlXfXhXcXVXvXlXlXfXpXiXpXpXpXvXlXlXlXlXlX",
"iXuXhXMXlXcXlXfXfXpXfXvXvXpXfXpXvXCXVXcXtXpXhXcXcXfXpXlXvXVXlXtXfXVXlXvXvXlXpXvXvXpXvXpXlXlXlXMXvXvXvXrXlXvXVXvXVXcXvXlXpXlXlXvXvXvXVXcXfXuXpXlXlXfXiXiXpXpXfXvXMXcXfXlXpXiXuXfXfXvXlXvXCXVXvXVXVXpXfXrXrXfXrXfXVXlXfXcXvXfXfXfXVXvXcXfXfXfXpXVXlXfXfXpXvXcXvXvX",
"fXpXlXfXfXlXlXiXcXvXiXlXCXVXfX8XrXvXvXlXiXvXvXvXlXuXuXlXvXvXvXiXrXvXpXfXVXvXvXfXvXpXhXiXlXVXvXvXlXpXhXpXiXlXvXVXvXpXMXfXrXlXcXvXvXlXvXvXvXfXfXiXiXtXuXfXvXlXhXVXCXVXvXvXfXhXfXfXpXlXcXvXcXpXMXhXfXuXuXeXiXfXfXuXlXfXtXfXfXfXVXpXlXpXlXpXuXlXlXvXvXfXpXrXvXVXvXhX",
"lXuXpXlXcXMXvXvXlXvXfXiXpXhXvXvXlXvXvXcXfXpXcXlXvXvXvXcXlXfXvXfXfXpXiXpXvXiXlXlXfXuXfXfXiXvXvXlXfXfXfXlXlXpXpXcXpXiXvXuX8XiXlXfXfXiXuXlXcXfXpXhXlXfXlXVXcXlXpXpXlXCXVXuXfXvXtXpXpXcXvXlXpXpXVXrXrXlXfXhXlXlXvXlXhXiXpXfXrXfXvXpXfXcXcXfXlXfXrXiXcXlXlXfXvXvXvXcX",
"pXhXcXvXvXVXfXcXvXfXuXrXfXvXvXvXvXvXvXMXvXcXlXlXlXlXlXvXcXfXpXfXuXfXcXcXvXiXlXvXcXvXvXcXcXvXvXMXlXvXcXuXfXtXfXvXfXrXfXpXvXcXuXpXiXpXuXlXhXhXfXvXvXrXfXcXcXlXpXuXpXlXfXrXuXiXuXVXVXvXlXlXiXuXcXpXpXpXcXVXpXcXcXlXvXvXvXfXpXlXvXvXvXvXcXvXcX8X8XrXfXlXiXfXlXlXhXlX",
"lXVXvXvXVXlX8XpXpXtXeXuXlXlXfXcXfXfXvXVXvXvXvXcXlXlXCXvXVXvXpXfXhXuXlXlXcXvXvXlXcXcXfXfXfXlXvXvXfXiXfXfXrXrXtXrXiXpXpXlXlXlXfXlXhXvXiXlXvXlXlXvXvXiXpXlXlXpXlXlXlXfXuXiXpXfXvXlXlXlXlXuXpXfXlXiXpXlXhXfXpXlXlXhXvXvXVXlXvXvXvXvXlXfXfXlXlXfXrXeXfXvXpXfXfXlXcXlX",
"lXfXfXcXvXtXrXuXlXhXlXrXtXiXlXhXpXuXvXhXlXpXuXpXuXpXfXhXlXlXcXlXvXvXlXlXcXlXfXhXvXlXvXVXtXcXvXvXlXvXiXpXfXtXiXtXfXcXvXlXfXlXvXpXlXfXuXrXrXfXvXcXlXlXpXvXlXfXfXlXlXpXlXlXcXMXlXfXfXlXrXeXiXpXfXhXvXVXfXfXuXlXcXfXlXvXVXvXVXVXvXvXVXvXvXvXlXpXiXlXvXvXlXhXlXcXcXvX",
"fXtXpXhXpXpXvXlXpXfXlXuXpXiXfXpXiXpXvXfXcXfXiXuXtXVXcXpXlXvXlXlXlXuXlXcXcXpXiXlXVXvXvXfXiXVXVXVXvXvXvXpXfXlXuXpXiXhXVXvXlXvXvXlXlXfXfXpXrXhXvXhXfXlXvXcXvXlXiXrXuXfXcXlXlXvXvXvXvXlXfXfXlXlXcXpXpXlXlXlXvXMXlXcXCXVXcXfXfXvXlXfXMXvXVXCXvXlXvXvXvXMXlXlXlXfXlXvX",
"cXlXfXfXlXiXpXuXiXpXlXvXlXfXvXvXfXvXlXlXlXhXfXlXfXVXVXpXlXvXlXfXvXhXrXrXfXpXlXfXlXfXfXtXhXcXcXvXcXVXcXlXvXMXlXpXvXpXfXtXuXhXfXpXfXpXvXpXiXfXfXlXlXlXvXvXlXlXvXfXiXfXlXlXfXvXvXlXvXlXfXfXcXMXvXfXfXpXhXlXvXVXvXvXvXlXpXuXiXpXvXlXlXvXcXVXfXfXVXMXlXlXlXlXvXlXfXlX",
"VXvXVXMXlXuXpXpXfXfXcXfXlXvXcXvXlXhXvXpXdXpXfXpXfXfXcXVXcXvXvXpXiXpXrXrXpXfXvXlXpXhXvXvXcXvXcXcXlXfXpXlXcXVXVXcXlXhXpXpXlXlXfXfXhXfXfXpXVXvXvXvXvXfXlXcXfXuXVXvXMXVXVXvXlXlXlXpXlXlXMXfXfXVXvXfXpXfXvXlXfXvXvXlXvXvXfXuXrXfXfXlXpXrXvXtXrXlXpXpXVXlXlXvXlXcXfXlX",
"vXpXiXfXpXfXeXfXlXfXvXiXpXvXpXfXrXrXlXVXVXVXfXpXiXpXvXcXhXcXVXcXpXiXuXeXuXlXhXfXhXfXfXpXfXlXMXvXcXiXcXfXlXlXvXlXlXlXfXvXvXvXpXpXvXvXpXrXVXCXiXiXvXVXpXfXlXcXvXpXcXVXVXVXvXuXuXfXlXrXlXcXVXVXcXcXcXlXlXpXuXfXfX8XuXvXlXpXtXcXuXlXlXfXlXuXtXfXcXiXvXvXlXfXfXhXfXcX",
"lXfXlXcXvXvXfXVXfXlXcXfXtXfXrXcXfXvXcXvXVXvXvXVXlXfXpXlXpXfXpXhXVXlXhXrXfXlXpXpXvXfXfXpXfXvXvXfXiXuXlXfXlXvXvXfXhXlXpXvXVXVXcXlXlXlXpXpXfXuXiXvXvXlXtXcXvXCXlXvXhXfXhXvXVXMXvXVXlXtXfXuXpXfXlXlXvXcXcXiXvXpXiXuXvXVXcXlXfXlXfXvXvXvXfXcXvXpXlXlXvXvXhXlXpXvXvXlX",
"vXvXvXvXvXcXhXlXfXvXvXvXiXuXiXlXpXfXvXvXlXlXMXMXvXlXlXfXfXMXvXvXVXVXvXlXpXtXrXlXVXlXvXfXfXlXcXvXpXlXcXhXfXpXrXtXtX8XiXlXvXvXlXlXMXVXuXpXlXpXlXvXcXcXVXvXlXlXlXlXvXlXpXiXfXVXvXvXpXfXVXvXvXfXfXvXlXlXVXlXcXfXlXVXvXvXvXMXlXlXfXvXiXlXvXcXpXfXvXvXVXVXvXhXiXvXVXVX",
"hXlXhXpXvXvXpXfXvXVXvXvXlXuXuXpXpXfXfXlXfXrXpXvXVXVXcXhXpXvXVXVXvXhXlXcXfXpXlXlXlXtXuXMXhXhXlXlXfXvXcXlXcXpXpXfXuXtXfXvXcXuXvXvXvXvXlXpXvXlXfXpXpXpXfXcXcXpXlXMXCXlXuXrXiXfXlXfXuXlXlXvXvXfXhXfXuXlXvXfXlXhXcXvXlXcXvXcXvXcXlXlXpXlXpXiXlXMXvXvXVXVXVXlXpXcXvXcX",
"lXlXhXfXlXvXvXvXfXlXVXVXfX8XhXlXlXlXuXpXlXpXpXlXlXvXpXpXlXcXvXVXlXfXvXVXvXuXlXcXiXeXpXvXpXuXlXfXfXcXlXlXuXpXlXMXVXlXvXVXfXiXcXlXiXcXcXlXlXhXpXpXuXfXeXlXvXlXlXvXfXpXcXfXhXuXfXfXpXpXpXpXcXMXlXpXfXhXVXuXlXcXcXlXcXVXlXlXvXlXcXcXvXcXuXiXcXvXVXVXCXVXlXvXlXlXfXfX",
"vXVXlXhXlXuXlXMXcXvXVXvXuXpXvXcXvXlXiXuXtXfXlXvXMXvXVXlXpXfXfXpXfXlXvXVXvXfXrXlXlXlXlXfXfXfXiXuXpXpXlXuXpXfXfXfXlXcXMXVXlXuXlXhXvXfXlXlXfXfXpXvXfXvXvXMXvXhXhXVXpXiXlXhXvXcXvXlX8XfXhXiXuXfXlXlXlXrXlXlXvXVXvXlXlXlXfXcXcXlXfXvXvXvXvXcXpXfXlXlXlXlXlXlXvXcXfXpX",
"lXfXlXlXlXuXhXlXpXpXhXiXiXlXVXVXCXpXpXlXvXvXvXVXMXvXVXlXfXiXfXpXlXpXcXvXlXhXfXpXlXuXfXpXiXuX8XtXiXlXfXcXCXvXfX8XtXvXvXcXvXcXvXlXvXiXuXtXtXtXfXvXVXvXlXhXvXvXVXvXhXlXpXlXfXfXlXcXuXcXpXfXlXVXlXhXvXcXfXlXVXuXtXvXvXlXlXlXcXlXfXcXcXvXVXvXCXlXhXcXlXiXfXlXlXlXuXiX",
"lXvXVXVXlXhXfXfXlXlXfXfXiXVXVXvXvXtXiXlXfXlXlXvXvXvXvXvXVXcXvXlXfXfXpXfXvXfXfXvXMXhXvXpXrXfXlXcXMXVXvXVXVXvXlXlXiXlXfXfXlXhXlXlXhXfXvXvXVXCXvXpXpXfXfXfXfXlXpXpXlXvXfXlXfXlXhXvXvXvXhXfXfXvXvXlXlXvXhXcXVXtXfXlXvXvXvXVXvXlXVXvXcXcXvXlXlXvXvXCXVXhXvXcXlXpXuXiX",
"vXVXvXVXfXtXVXvXcXvXVXhXpXlXpXpXfXlXfXcXfXlXlXlXlXvXvXhXVXvXlXMXlXlXlXlXlXfXfXvXVXVXMXfXiXfXpXrXfXlXiXfXvXvXvXVXuXfXlXuXtXuXuXlXvXiXiXvXMXlXVXpXiXlXvXhXtXrXhXlXcXlXvXvXvXfXfXfXpXpXlXvXvXiXiXlXlXpXlXfXfXlXpXvXfXpXlXfXVXpXlXpXfXpXfXpXrXpXpXvXvXlXvXcXiXpXfXfX",
"cXcXlXvXVXiXfXvXlXlXlXiXiXlXfXlXlXcXcXhXpXiXcXlXpXlXhXpXcXfXlXfXcXlXCXvXvXlXlXhXvXcXvXfXuXhXfXuXhXvXrXrXpXlXlXvXfXuXvXfXpXvXcXlXcXhXuXlXfXuXlXfXlXlXvXvXvXfXvXlXuXlXlXvXvXVXVXvXpXtXfXhXpXvXvXlXlXlXvXvXvXvXfXlXlXhXpXpXvXuXrXvXMXVXlXpXvXhXtXpXfXfXlXpXrXvXvXvX",
"lXvXcXlXfXpXlXlXpXfXpXiXpXuXiXfXvXlXfXhXeXpXvXVXMXlXpXfXpXiXfXuXpXvXcXlXlXlXpXlXMXMXlXlXMXVXCXCXVXvXfXhXfXhXMXvXlXpXvXvXVXMXlXfXfXvXvXlXuXiXfXfXvXiXtXlXvXvXvXlXfXhXfXlXfXcXVXlXfXfXvXhXrXpXpXfXuXuXfXvXlXvXhXcXvXcXpXhXlXlXvXpXuXvXiXvXCXvXiXfXfXfXvXvXpXcXCXVX",
"vXVXVXVXcXVXlXhXVXlXvXiXiXpXfXlXcXlXpXtXiXfXlXlXlXfXlXpXfXlXlXfXfXfXlXpXfXfXfXcXvXvXlXrXiXvXvXlXlXcXfXfXVXVXvXVXcXpXMXvXVXlXvXlXMXvXcXvXvXMXVXVXvXvXeXuXVXvXpXfXhXvXlXcXfXfXfXfXcXvXMXvXlXlXlXlXhXtXlXlXcXfXhXvXvXVXVXvXlXvXcXMXcXlXrXvXvXfXfXVXvXVXvXVXMXvXvXcX",
"fXlXlXvXcXlXvXcXMXVXVXvXcXhXfXlXfXvXVXlXvXvXcXfXlXvXcXhXlXVXBXvXlXiXlXvXvXuXfXlXvXlXvXpXfXvXpXlXcXfXuXhXfXlXlXfXpXpXlXlXpXtXlXfXvXlXvXVXVXVXVXvXvXpXeXlXvXlXtXfXpXcXlXMXfXlXcXpXuXvXvXVXCXvXVXvXCXvXlXVXMXhXcXfXvXvXvXvXVXvXvXcXvXcXiXiXcXfXlXvXVXCXCXMXVXvXvXfX",
"vXfXuXfXpXfXVXuXlXvXfXpXiXcXlXlXlXvXcXvXvXCXVXvXCXCXvXuXlXvXvXVXvXlXfXVXCXMXvXpXlXfXlXvXVXlXlXcXvXlXfXlXlXfXpXpXfXpXlXlXtXpXiXrXfXvXlXpXvXvXlXlXvXlXvXvXcXlXfXtXpXcXlXvXvXvXfXpXuXiXlXfXlXlXlXfXhXlXfXvXvXfXfXlXcXpXpXlXlXcXvXlXVXcXvXfXfXlXcXcXlXVXVXvXvXlXfXcX",
"vXlXpXiXuXlXlXfXlXlXpXvXvXvXlXVXvXVXvXlXvXMXVXvXvXvXpXvXvXlXfXfXhXlXVXVXvXVXcXvXlXcXlXpXvXlXlXvXvXvXMXhXfXfXfXtXpXpXpXlXpXvX8XrXpXfXfXiXiXtXiXiXfXvXvXvXVXcXvXvXfXpXlXfXfXlXlXfXcXlXhXfXhXfXfXcXcXvXvXcXfXuXpXvXcXfXcXlXiXfXVXvXVXVXVXMXpXfXhXvXpXcXlXfXvXlXuXpX",
"vXpXiXfXtXpXvXiXtXlXvXcXMXpXcXlXlXvXMXuXlXMXvXlXvXlXMXvXlXfXlXhXlXlXlXiXiXhXhXvXlXvXlXcXpXlXfXfXlXvXvXlXfXvXvXlXrXrXvXvXfXlXfXpXiXtXpXlXlXpXrXrXrXhXvXvXhXuXlXvXVXcXVXlXvXVXvXVXvXVXvXlXlXpXcXVXMXvXvXvXvXcXvXpXfXlXuXuXlXhXlXlXlXvXcXfXlXhXvXvXvXcXlXfXvXvXhXiX",
"lXVXVXVXVXfXfXhXfXlXMXVXMXvXvXVXMXvXvXcXvXvXMXfXlXvXvXvXvXvXVXVXVXVXvXpXfXlXfXcXpXcXVXVXvXfXfXpXpXlXlXlXfXvXVXVXVXcXvXvXMXvXvXvXfXfXtXfXvXVXVXlXrXhXvXpXtXpXuXlXVXlXlXlXvXfXlXfXlXcXuXtXfXcXlXVXVXvXVXvXvXvXvXiXlXVXfXtXvXVXVXVXVXcXcXlXvXlXlXlXfXvXVXVXvXlXfXlX"
};
