/* XPM */
static char *result[] = {
/* columns rows colors chars-per-pixel */
"1065 23 163 2 ",
"   c #6A5A3B",
".  c #627B2D",
"X  c #666835",
"o  c #647131",
"O  c #6D4B41",
"+  c #734F45",
"@  c #785B53",
"#  c #58785A",
"$  c #646247",
"%  c #4F7B78",
"&  c #626E68",
"*  c #736A62",
"=  c #6F7770",
"-  c #687D78",
";  c #F4482B",
":  c #EE5E28",
">  c #E26F2A",
",  c #F76E22",
"<  c #865B50",
"1  c #886455",
"2  c #84635B",
"3  c #986F67",
"4  c #9C7368",
"5  c #5D8E25",
"6  c #5C9323",
"7  c #5B9821",
"8  c #608529",
"9  c #639326",
"0  c #619D22",
"q  c #66A224",
"w  c #6BA624",
"e  c #61A12F",
"r  c #73AC26",
"t  c #7DB528",
"y  c #72B139",
"u  c green",
"i  c #37A97E",
"p  c #4F9F4B",
"a  c #548C51",
"s  c #4CA358",
"d  c #7FBF45",
"f  c #66B558",
"g  c #79BF51",
"h  c #73BF5B",
"j  c #43A468",
"k  c #5EBD78",
"l  c #6CBE65",
"z  c #83BA29",
"x  c #88BE2A",
"c  c #BDA728",
"v  c #B3B929",
"b  c #DF8016",
"n  c #E1841A",
"m  c #E3891E",
"M  c #CDAA1A",
"N  c #FCA00C",
"B  c #FCA81F",
"V  c #DA9621",
"C  c #DD9922",
"Z  c #CE8630",
"A  c #E18721",
"S  c #E58C21",
"D  c #E38D2C",
"F  c #E79125",
"G  c #E89226",
"H  c #EB972A",
"J  c #EC9A2D",
"K  c #E69736",
"L  c #EE9F33",
"P  c #E59438",
"I  c #ED9E3D",
"U  c #F39C31",
"Y  c #CBA123",
"T  c #D8AD25",
"R  c #C3B820",
"E  c #C2B329",
"W  c #EFA133",
"Q  c #F2A536",
"!  c #F2A738",
"~  c #F4A939",
"^  c #F8AF3E",
"/  c #E0BB3F",
"(  c #8BC02B",
")  c #B8CB27",
"_  c #B4CA28",
"`  c #BBD324",
"'  c #A8C137",
"]  c #C3DC1F",
"[  c #FFC20B",
"{  c #C5C623",
"}  c #C2D421",
"|  c #C1DA20",
" . c #FEC72E",
".. c #A78E5C",
"X. c #BCB257",
"o. c #9B9876",
"O. c #A88667",
"+. c #B9966C",
"@. c #BBB87A",
"#. c #C8934A",
"$. c #C9934B",
"%. c #E79B43",
"&. c #D8A44D",
"*. c #C9A85D",
"=. c #E8A14E",
"-. c #FCB644",
";. c #F2B74F",
":. c #EEA851",
">. c #C7A46C",
",. c #D3B566",
"<. c #D5AB78",
"1. c #C7B872",
"2. c #E5AC64",
"3. c #F0B972",
"4. c #86C87E",
"5. c #BBCA6C",
"6. c #F4CF46",
"7. c #F5D44D",
"8. c #EED263",
"9. c #2CAE8F",
"0. c #3FB78E",
"q. c #23B19B",
"w. c #18B4A6",
"e. c #10B6AE",
"r. c #1ABAAE",
"t. c #15AFB1",
"y. c #06B8B5",
"u. c #0FBAB5",
"i. c #00BABC",
"p. c #1DB4B3",
"a. c #35A3A3",
"s. c #2DBFAE",
"d. c #37B4AE",
"f. c #23B9B6",
"g. c #3EBAB0",
"h. c #588D8A",
"j. c #449B99",
"k. c #638480",
"l. c #738C89",
"z. c #59AD9E",
"x. c #4FBD93",
"c. c #76A78D",
"v. c #6BAC97",
"b. c #65B9A3",
"n. c #50C19A",
"m. c #26BFC1",
"M. c #42C4C6",
"N. c #58C9CA",
"B. c #6BCECF",
"V. c #7DD3D4",
"C. c #87B390",
"Z. c #A1B988",
"A. c #F3C68C",
"S. c #8DD7D8",
"D. c #9CDCDD",
"F. c #AAE0E1",
"G. c #B8E5E6",
"H. c #C5E9EA",
"J. c #D1EEEE",
"K. c #DDF2F3",
"L. c #E9F7F7",
"P. c #F4FBFB",
"I. c white",
/* pixels */
"i.i.i.i.i.i.i.i.i.i.i.i.i.i.i.i.i.i.i.i.i.i.i.i.i.i.i.i.i.u u u u u u u u u i.i.i.i.i.i.i.i.i.i.i.i.i.i.i.i.i.i.i.i.i.i.i.i.i.i.i.i.i.i.i.i.i.i.i.i.i.i.i.i.i.i.i.i.i.i.i.i.i.i.i.i.i.i.i.i.i.i.i.i.i.i.i.i.i.i.i.i.i.i.i.i.i.i.i.i.i.i.i.i.i.i.i.i.i.i.i.i.i.i.i.i.i.i.i.i.i.i.i.i.i.i.i.i.i.i.i.i.i.i.i.i.i.i.i.i.i.i.i.i.i.i.i.i.i.i.i.i.i.i.i.i.i.i.i.i.i.i.i.i.i.i.i.i.i.u u u u u u u u i.i.i.i.i.i.i.i.i.i.i.i.i.i.i.i.i.i.i.i.i.i.i.i.i.i.i.i.i.i.i.i.i.i.i.i.i.i.i.i.i.i.i.i.i.i.i.i.i.i.i.i.i.i.i.i.i.i.i.i.i.i.i.i.i.i.i.i.i.i.i.i.i.i.i.i.i.i.i.i.i.i.i.i.i.i.i.i.i.i.i.i.i.i.i.i.i.i.i.i.i.i.i.i.i.i.i.i.i.i.i.i.i.i.i.i.i.i.i.i.i.i.i.i.i.i.i.i.i.i.i.i.i.i.i.i.i.i.i.i.i.i.i.i.i.i.i.i.i.i.i.i.i.i.i.i.i.i.i.i.i.i.i.i.i.i.i.i.i.i.i.i.i.i.i.i.i.i.i.i.i.i.i.u u u u u u u u u i.i.i.i.i.i.i.i.i.i.i.i.i.i.i.i.i.i.i.i.i.i.i.i.i.i.i.i.i.i.i.i.i.i.i.i.i.i.i.i.i.i.i.i.i.i.i.i.i.i.i.i.i.i.i.i.i.i.i.i.i.i.i.i.i.i.i.i.i.i.i.i.i.i.i.i.i.i.i.i.i.i.i.i.i.i.i.i.i.i.i.i.i.i.i.i.i.i.i.i.i.i.i.i.i.i.i.i.i.i.i.i.i.i.i.i.i.i.i.i.i.i.i.i.i.i.i.i.i.i.i.i.i.i.i.i.i.i.i.i.i.i.i.i.i.i.i.i.i.i.i.i.i.i.i.i.i.i.i.i.i.i.i.i.i.i.i.i.i.i.i.i.i.i.i.i.i.i.i.i.i.i.u u u u u u u u u i.i.i.i.i.i.i.i.i.i.i.i.i.i.i.i.i.i.i.i.i.i.i.i.i.i.i.i.i.i.u u u u u u u u i.i.i.i.i.i.i.i.i.i.i.i.i.i.i.i.i.i.i.i.i.i.i.i.i.i.i.i.i.i.i.i.i.i.i.i.i.i.i.i.i.i.i.i.i.i.i.i.i.i.i.i.i.i.i.i.i.i.i.i.i.i.i.i.i.i.i.i.i.i.i.i.i.i.i.i.i.i.i.i.i.i.i.i.i.i.i.i.i.i.i.i.i.i.i.i.i.i.i.i.i.i.i.i.i.i.i.i.i.i.i.i.i.i.i.i.i.i.i.i.i.i.i.i.i.i.i.i.i.i.i.i.i.i.i.i.i.i.i.i.i.i.i.i.u u u u u u u u u i.i.i.i.i.i.i.i.i.i.i.i.i.i.i.i.i.i.i.i.i.i.i.i.i.i.i.i.i.u u u u u u u u u i.i.i.i.i.i.i.i.i.i.i.i.i.i.i.i.i.i.i.i.i.i.i.i.i.i.i.i.i.i.i.i.i.i.i.i.i.i.i.i.i.i.i.i.i.i.i.i.i.i.i.i.i.i.i.i.i.i.i.i.i.i.i.i.i.i.i.i.i.i.i.i.i.i.i.i.i.i.i.i.i.i.i.i.i.i.i.i.i.i.i.i.i.i.i.i.i.i.i.i.i.i.i.i.i.i.i.i.i.i.i.i.i.i.i.i.i.i.i.i.i.i.i.i.i.i.i.i.i.i.i.i.i.i.i.i.i.i.i.i.i.i.i.i.u u u u u u u u u i.i.i.i.i.i.i.i.i.i.i.i.i.i.i.i.i.i.i.i.i.i.i.i.i.i.i.i.i.i.i.i.i.i.i.i.i.i.i.i.i.i.i.i.i.i.i.i.i.i.i.i.i.i.i.i.i.i.i.i.i.i.i.i.i.i.i.i.i.i.i.i.i.i.i.i.i.i.i.i.i.i.i.i.i.i.i.i.i.i.i.i.i.i.i.i.i.i.i.i.i.i.i.i.i.i.i.i.i.",
"i.i.i.i.i.i.i.i.i.i.i.y.i.i.i.i.i.i.i.i.i.i.i.i.i.i.i.i.i.u u u u u u u u u i.i.i.i.i.i.i.i.i.i.i.i.i.i.i.i.i.i.i.i.i.i.i.i.i.i.i.i.i.i.i.i.i.i.i.i.i.i.i.i.i.i.i.i.i.i.i.i.i.i.i.i.i.i.i.i.i.i.i.i.i.i.i.i.i.i.i.i.i.i.i.i.i.i.i.i.i.i.i.i.i.i.i.i.i.i.i.i.i.i.i.i.i.i.i.i.i.i.i.i.i.i.i.i.i.i.i.i.i.i.i.i.i.i.i.i.i.i.i.i.i.i.i.i.i.i.i.i.i.i.i.i.i.i.i.i.i.i.i.i.i.i.i.i.i.u u u u u u u u i.i.i.i.i.i.i.i.i.i.i.i.i.i.i.i.i.i.i.i.i.i.i.i.i.i.i.i.i.i.i.i.i.i.i.i.i.i.i.i.i.i.i.i.i.i.i.i.i.i.i.i.i.i.i.i.i.i.i.i.i.i.i.i.i.i.i.i.i.i.i.i.i.i.i.i.i.i.i.i.i.i.i.i.i.i.i.i.i.i.i.i.i.i.i.i.i.i.i.i.i.i.i.i.i.i.i.i.i.i.i.i.i.i.i.i.i.i.i.i.i.i.i.i.i.i.i.i.i.i.i.i.i.i.i.i.i.i.i.i.i.i.i.i.i.i.i.i.i.i.i.i.i.i.i.i.i.i.i.i.i.i.i.i.i.i.i.i.i.i.i.i.i.i.i.i.i.i.i.i.i.i.i.u u u u u u u u u i.i.i.i.i.i.i.i.i.i.i.i.i.i.i.i.i.i.i.i.i.i.i.i.i.i.i.i.i.i.i.i.i.i.i.i.i.i.i.i.i.i.i.i.i.i.i.i.i.i.i.i.i.i.i.i.i.i.i.i.i.i.i.i.i.i.i.i.i.i.i.i.i.i.i.i.i.i.i.i.i.i.i.i.i.i.i.i.i.i.i.i.i.i.i.i.i.i.i.i.i.i.i.i.i.i.i.i.i.i.i.i.i.i.i.i.i.i.i.i.i.i.i.i.i.i.i.i.i.i.i.i.i.i.i.i.i.i.i.i.i.i.i.i.i.i.i.i.i.i.i.i.i.i.i.i.i.i.i.i.i.i.i.i.i.i.i.i.i.i.i.i.i.i.i.i.i.i.i.i.i.i.u u u u u u u u u i.i.i.i.i.i.i.i.i.i.i.i.i.i.i.i.i.i.i.i.i.i.i.i.i.i.i.i.i.i.u u u u u u u u i.i.i.i.i.i.i.i.i.i.i.i.i.i.i.i.i.i.i.i.i.i.i.i.i.i.i.i.i.i.i.i.i.i.i.i.i.i.i.i.i.i.i.i.i.i.i.i.i.i.i.i.i.i.i.i.i.i.i.i.i.i.i.i.i.i.i.i.i.i.i.i.i.i.i.i.i.i.i.i.i.i.i.i.i.i.i.i.i.i.i.i.i.i.i.i.i.i.i.i.i.i.i.i.i.i.i.i.i.i.i.i.i.i.i.i.i.i.i.i.i.i.i.i.i.i.i.i.i.i.i.i.i.i.i.i.i.i.i.i.i.i.i.i.u u u u u u u u u i.i.i.i.i.i.i.i.i.i.i.i.i.i.i.i.i.i.i.i.i.i.i.i.i.i.i.i.i.u u u u u u u u u i.i.y.i.i.i.i.i.i.i.i.i.i.i.i.i.i.i.i.i.i.i.i.i.i.i.i.i.i.i.i.i.i.i.i.i.i.i.i.i.i.i.i.i.i.i.i.i.i.i.i.i.i.i.i.i.i.i.i.i.i.i.i.i.i.i.i.i.i.i.i.i.i.i.i.i.i.i.i.i.i.i.i.i.i.i.i.i.i.i.i.i.i.i.i.i.i.i.i.i.i.i.i.i.i.i.i.i.i.i.i.i.i.i.i.i.i.i.i.i.i.i.i.i.i.i.i.i.i.i.i.i.i.i.i.i.i.i.i.i.i.i.i.i.u u u u u u u u u i.i.i.i.i.i.i.i.i.i.i.i.i.i.i.i.i.i.i.i.i.i.i.i.i.i.i.i.i.i.i.i.i.i.i.i.i.i.i.i.i.i.i.i.i.i.i.i.i.i.i.i.i.i.i.i.i.i.i.i.i.i.i.i.i.i.i.i.i.i.i.i.i.i.i.i.i.i.i.i.i.i.i.i.i.i.i.i.i.i.i.i.i.i.i.i.i.i.i.i.i.i.i.i.i.i.y.i.i.",
"i.i.i.i.i.i.i.i.i.i.i.y.z.z.z.z.z.p.i.i.i.i.i.i.i.i.i.i.i.u u u u u u u u u i.i.i.i.i.i.i.i.i.i.i.i.i.i.i.i.i.i.i.i.i.i.i.i.i.i.i.i.i.i.i.i.i.i.i.i.i.i.i.i.i.i.i.i.i.i.i.i.i.i.i.i.i.i.i.i.i.i.i.i.i.i.i.i.i.i.i.i.i.i.i.i.i.i.i.i.i.i.i.i.i.i.i.i.i.i.i.i.i.i.i.i.i.i.i.i.i.i.i.i.i.i.i.i.i.i.i.i.i.i.i.i.i.i.i.i.i.i.i.i.i.i.i.i.i.i.i.i.i.i.i.i.i.i.i.i.i.i.i.i.i.i.i.i.i.u u u u u u u u i.i.i.i.i.i.i.i.i.i.i.i.i.i.i.i.i.i.i.i.i.i.i.i.i.i.i.i.i.i.i.i.i.i.i.i.i.i.i.i.i.i.i.i.i.i.i.i.i.i.i.i.i.i.i.i.i.i.i.i.i.i.i.i.i.i.i.i.i.i.i.i.i.i.i.i.i.i.i.i.i.i.i.i.i.i.i.i.i.i.i.i.i.i.i.i.i.i.i.i.i.i.i.i.i.i.i.i.i.i.i.i.i.i.i.i.i.i.i.i.i.i.i.i.i.i.i.i.i.i.i.i.i.i.i.i.i.i.i.i.i.i.i.i.i.i.i.i.i.i.i.i.i.i.i.i.i.i.i.i.i.i.i.i.i.i.i.i.i.i.i.i.i.i.i.i.i.i.i.i.i.i.i.u u u u u u u u u i.i.i.i.i.i.i.i.i.i.i.i.i.i.i.i.i.i.i.i.i.i.i.i.i.i.i.i.i.i.i.i.i.i.i.i.i.i.i.i.i.i.i.i.i.i.i.i.i.i.i.i.i.i.i.i.i.i.i.i.i.i.i.i.i.i.i.i.i.i.i.i.i.i.i.i.i.i.i.i.i.i.i.i.i.i.i.i.i.i.i.i.i.i.i.i.i.i.i.i.i.i.i.i.i.i.i.i.i.i.i.i.i.i.i.i.i.i.i.i.i.i.i.i.i.i.i.i.i.i.i.i.i.i.i.i.i.i.i.i.i.i.i.i.i.i.i.i.i.i.i.i.i.i.i.i.i.i.i.i.i.i.i.i.i.i.i.i.i.i.i.i.i.i.i.i.i.i.i.i.i.i.u u u u u u u u u i.i.i.i.i.i.i.i.i.i.i.i.i.i.i.i.i.i.i.i.i.i.i.i.i.i.i.i.i.i.u u u u u u u u i.i.i.i.i.i.i.i.i.i.i.i.i.i.i.i.i.i.i.i.i.i.i.i.i.i.i.i.i.i.i.i.i.i.i.i.i.i.i.i.i.i.i.i.i.i.i.i.i.i.i.i.i.i.i.i.i.i.i.i.i.i.i.i.i.i.i.i.i.i.i.i.i.i.i.i.i.i.i.i.i.i.i.i.i.i.i.i.i.i.i.i.i.i.i.i.i.i.i.i.i.i.i.i.i.i.i.i.i.i.i.i.i.i.i.i.i.i.i.i.i.i.i.i.i.i.i.i.i.i.i.i.i.i.i.i.i.i.i.i.i.i.i.i.u u u u u u u u u i.i.i.i.i.i.i.i.i.i.i.i.i.i.i.i.i.i.i.i.i.i.i.i.i.i.i.i.i.u u u u u u u u u i.i.i.i.i.i.i.i.i.i.i.i.i.i.i.i.i.i.i.i.i.i.i.i.i.i.i.i.i.i.i.i.i.i.i.i.i.i.i.i.i.i.i.i.i.i.i.i.i.i.i.i.i.i.i.i.i.i.i.i.i.i.i.i.i.i.i.i.i.i.i.i.i.i.i.i.i.i.i.i.i.i.i.i.i.i.i.i.i.i.i.i.i.i.i.i.i.i.i.i.i.i.i.i.i.i.i.i.i.i.i.i.i.i.i.i.i.i.i.i.i.i.i.i.i.i.i.i.i.i.i.i.i.i.i.i.i.i.i.i.i.i.i.i.u u u u u u u u u i.i.i.i.i.i.i.i.i.i.i.i.i.i.i.i.i.i.i.i.i.i.i.i.i.i.i.i.i.i.i.i.i.i.i.i.i.i.i.i.i.i.i.i.i.i.i.i.i.i.i.i.i.i.i.i.i.i.i.i.i.i.i.i.i.i.i.i.i.i.i.i.i.i.i.i.i.i.i.i.i.i.i.i.i.i.i.i.i.i.i.i.i.i.i.i.i.i.i.i.i.i.i.i.i.i.i.i.i.",
"i.i.i.i.i.i.i.i.i.c.#.> b b K m b b Z o.d.i.i.i.i.i.i.i.i.u u u u u u u u u i.i.i.i.i.i.i.i.i.i.i.i.i.i.i.i.i.i.i.i.i.i.i.i.i.i.i.i.i.i.i.i.i.i.i.i.i.i.i.i.i.i.i.i.i.i.i.i.i.i.i.i.i.i.i.i.i.i.i.i.i.i.i.i.i.i.i.i.i.i.i.i.i.i.i.i.i.i.i.i.i.i.i.i.i.i.i.i.i.i.i.i.i.i.i.i.i.i.i.i.i.i.i.i.i.i.i.i.i.i.i.i.i.i.i.i.i.i.i.i.i.i.i.i.i.i.i.i.i.i.i.i.i.i.i.i.i.i.i.i.i.i.i.i.i.u u u u u u u u i.i.i.i.i.i.i.i.i.i.i.i.i.i.i.i.i.i.i.i.i.i.i.i.i.i.i.i.i.i.i.i.i.i.i.i.i.i.i.i.i.i.i.i.i.i.i.i.i.i.i.i.i.i.i.i.i.i.i.i.i.i.i.i.i.i.i.i.i.i.i.i.i.i.i.i.i.i.i.i.i.i.i.i.i.i.i.i.i.i.i.i.i.i.i.i.i.i.i.i.i.i.i.i.i.i.i.i.i.i.i.i.i.i.i.i.i.i.i.i.i.i.i.i.i.i.i.i.i.i.i.i.i.i.i.i.i.i.i.i.i.i.i.i.i.i.i.i.i.i.i.i.i.i.i.i.i.i.i.i.i.i.i.i.i.i.i.i.i.i.i.i.i.i.i.i.i.i.i.i.i.i.i.u u u u u u u u u i.i.i.i.i.i.i.i.i.i.i.i.i.i.i.i.i.i.i.i.i.i.i.i.i.i.i.i.i.i.i.i.i.i.i.i.i.i.i.i.i.i.i.i.i.i.i.i.i.i.i.i.i.i.i.i.i.i.i.i.i.i.i.i.i.i.i.i.i.i.i.i.i.i.i.i.i.i.i.i.i.i.i.i.i.i.i.i.i.i.i.i.i.i.i.i.i.i.i.i.i.i.i.i.i.i.i.i.i.i.i.i.i.i.i.i.i.i.i.i.i.i.i.i.i.i.i.i.i.i.i.i.i.i.i.i.i.i.i.i.i.i.i.i.i.i.i.i.i.i.i.i.i.i.i.i.i.i.i.i.i.i.i.i.i.i.i.i.i.i.i.i.i.i.i.i.i.i.i.i.i.i.u u u u u u u u u i.i.i.i.i.i.i.i.i.i.i.r.k h ( d l x.i.i.i.i.i.i.i.i.i.i.i.i.u u u u u u u u i.i.i.i.i.i.i.i.i.i.i.i.i.i.i.i.i.i.i.i.i.i.i.i.i.i.i.i.i.i.i.i.i.i.i.i.i.i.i.i.i.i.i.i.i.i.i.i.i.i.i.i.i.i.i.i.i.i.i.i.i.i.i.i.i.i.i.i.i.i.i.i.i.i.i.i.i.i.i.i.i.i.i.i.i.i.i.i.i.i.i.i.i.i.i.i.i.i.i.i.i.i.i.i.i.i.i.i.i.i.i.i.i.i.i.i.i.i.i.i.i.i.i.i.i.i.i.i.i.i.i.i.i.i.i.i.i.i.i.i.i.i.i.i.u u u u u u u u u i.i.i.i.i.i.i.i.i.i.i.i.i.i.i.i.i.i.i.i.i.i.i.i.i.i.i.i.i.u u u u u u u u u i.i.i.i.i.i.i.i.i.i.i.i.i.i.i.i.i.i.i.i.i.i.i.i.i.i.i.i.i.i.i.i.i.i.i.i.i.i.i.i.i.i.i.i.i.i.i.i.i.i.i.i.i.i.i.i.i.i.i.i.i.i.i.i.i.i.i.i.i.i.i.i.i.i.i.i.i.i.i.i.i.i.i.i.i.i.i.i.i.i.i.i.i.i.i.i.i.i.i.i.i.i.i.i.i.i.i.i.i.i.i.i.i.i.i.i.i.i.i.i.i.i.i.i.i.i.i.i.i.i.i.i.i.i.i.i.i.i.i.i.i.i.i.i.u u u u u u u u u i.i.i.i.i.i.i.i.i.i.i.i.i.i.i.i.i.i.i.i.i.i.i.i.i.i.i.i.i.i.i.i.i.i.i.i.i.i.i.i.i.i.i.i.i.i.i.i.i.i.i.i.i.i.i.i.i.i.i.i.i.i.i.i.i.i.i.i.i.i.i.i.i.i.i.i.i.i.i.i.i.i.i.i.i.i.i.i.i.i.i.i.i.i.i.i.i.i.i.i.i.i.i.i.i.i.i.i.i.",
"i.i.i.i.i.i.i.d...b A =.D D D b A.b b A b c.i.i.i.i.i.i.i.u u u u u u u u u i.i.i.i.i.i.i.i.i.i.i.i.i.i.i.i.i.i.i.i.i.i.i.i.i.i.i.i.i.i.i.i.i.i.i.i.i.i.i.i.i.i.i.i.i.i.i.i.i.i.i.i.i.i.i.i.i.i.i.i.i.i.i.i.i.i.i.i.i.i.i.i.i.i.i.i.i.i.i.i.i.i.i.i.i.i.i.i.i.i.i.i.i.i.i.i.i.i.i.i.i.i.i.i.i.i.i.i.i.i.i.i.i.i.i.i.i.i.i.i.i.i.i.i.i.i.i.i.i.i.i.i.i.i.i.i.i.i.i.i.i.i.i.i.i.u u u u u u u u i.i.i.i.i.i.i.i.i.i.i.i.i.i.i.i.i.i.i.i.i.i.i.i.i.i.i.i.i.i.i.i.i.i.i.i.i.i.i.i.i.i.i.i.i.i.i.i.i.i.i.i.i.i.i.i.i.i.i.i.i.i.i.i.i.i.i.i.i.i.i.i.i.i.i.i.i.i.i.i.i.i.i.i.i.i.i.i.i.i.i.i.i.i.i.i.i.i.i.i.i.i.i.i.i.i.i.i.i.i.i.i.i.i.i.i.i.i.i.i.i.i.i.i.i.i.i.i.i.i.i.i.i.i.i.i.i.i.i.i.i.i.i.i.i.i.i.i.i.i.i.i.i.i.i.i.i.i.i.i.i.i.i.i.i.i.i.i.i.i.i.i.i.i.i.i.i.i.i.i.i.i.i.u u u u u u u u u i.i.i.i.i.i.i.i.i.i.i.i.i.i.i.i.i.i.i.i.i.i.i.i.i.i.i.i.i.i.i.i.i.i.i.i.i.i.i.i.i.i.i.i.i.i.i.i.i.i.i.i.i.i.i.i.i.i.i.i.i.i.i.i.i.i.i.i.i.i.i.i.i.i.i.i.i.i.i.i.i.i.i.i.i.i.i.i.i.i.i.i.i.i.i.i.i.i.i.i.i.i.i.i.i.i.i.i.i.i.i.i.i.i.i.i.i.i.i.i.i.i.i.i.i.i.i.i.i.i.i.i.i.i.i.i.i.i.i.i.i.i.i.i.i.i.i.i.i.i.i.i.i.i.i.i.i.i.i.i.i.i.i.i.i.i.i.i.i.i.i.i.i.i.i.i.i.i.i.i.i.i.u u u u u u u u u i.i.i.i.i.i.i.i.i.i.0.( ( ( ( ( ( ( g u.i.i.i.i.i.i.i.i.i.i.u u u u u u u u i.i.i.i.i.i.i.i.i.i.i.i.i.i.i.i.i.i.i.i.i.i.i.i.i.i.i.i.i.i.i.i.i.i.i.i.i.i.i.i.i.i.i.i.i.i.i.i.i.i.i.i.i.i.i.i.i.i.i.i.i.i.i.i.i.i.i.i.i.i.i.i.i.i.i.i.i.i.i.i.i.i.i.i.i.i.i.i.i.i.i.i.i.i.i.i.i.i.i.i.i.i.i.i.i.i.i.i.i.i.i.i.i.i.i.i.i.i.i.i.i.i.i.i.i.i.i.i.i.i.i.i.i.i.i.i.i.i.i.i.i.i.i.i.u u u u u u u u u i.i.i.i.i.i.i.i.i.i.i.i.i.i.i.i.i.i.i.i.i.i.i.i.i.i.i.i.i.u u u u u u u u u i.i.i.i.i.i.i.i.i.i.i.i.i.i.i.i.i.i.i.i.i.i.i.i.i.i.i.i.i.i.i.i.i.i.i.i.i.i.i.i.i.i.i.i.i.i.i.i.i.i.i.i.i.i.i.i.i.i.i.i.i.i.i.i.i.i.i.i.i.i.i.i.i.i.i.i.i.i.i.i.i.i.i.i.i.i.i.i.i.i.i.i.i.i.i.i.i.i.i.i.i.i.i.i.i.i.i.i.i.i.i.i.i.i.i.i.i.i.i.i.i.i.i.i.i.i.i.i.i.i.i.i.i.i.i.i.i.i.i.i.i.i.i.i.u u u u u u u u u i.i.i.i.i.i.i.i.i.i.i.i.i.i.i.i.i.i.i.i.i.i.i.i.i.i.i.i.i.i.i.i.i.i.i.i.i.i.i.i.i.i.i.i.i.i.i.i.i.i.i.i.i.i.i.i.i.i.i.i.i.i.i.i.i.i.i.i.i.i.i.i.i.i.i.i.i.i.i.i.i.i.i.i.i.i.i.i.i.i.i.i.i.i.i.i.i.i.i.i.i.i.i.i.i.i.y.i.i.",
"i.i.i.i.i.i.f.$.n b P b D =.K =.b b =.D b > v.i.i.i.i.i.i.u u u u u u u u u i.i.i.i.i.i.i.i.i.i.i.i.i.i.i.i.i.i.i.i.i.i.i.i.i.i.i.i.i.i.i.i.i.i.i.i.i.i.i.i.i.i.i.i.i.i.i.i.i.i.i.i.i.i.i.i.i.i.i.i.i.i.i.i.i.i.i.i.i.i.i.i.i.i.i.i.i.i.i.i.i.i.i.i.i.i.i.i.i.i.i.i.i.i.i.i.i.i.i.i.i.i.i.i.i.i.i.i.i.i.i.i.i.i.i.i.i.i.i.i.i.i.i.i.i.i.i.i.i.i.i.i.i.i.i.i.i.i.i.i.i.i.i.i.i.u u u u u u u u i.i.i.i.i.i.i.i.i.i.i.i.i.i.i.i.i.i.i.i.i.i.i.i.i.i.i.i.i.i.i.i.i.i.i.i.i.i.i.i.i.i.i.i.i.i.i.i.i.i.i.i.i.i.i.i.i.i.i.i.i.i.i.i.i.i.i.i.i.i.i.i.i.i.i.i.i.i.i.i.i.i.i.i.i.i.i.i.i.i.i.i.i.i.i.i.i.i.i.i.i.i.i.i.i.i.i.i.i.i.i.i.i.i.i.i.i.i.i.i.i.i.i.i.i.i.i.i.i.i.i.i.i.i.i.i.i.i.i.i.i.i.i.i.i.i.i.i.i.i.i.i.i.i.i.i.i.i.i.i.i.i.i.i.i.i.i.i.i.i.i.i.i.i.i.i.i.i.i.i.i.i.i.u u u u u u u u u i.i.i.i.i.i.i.i.i.i.i.i.i.i.i.i.i.i.i.i.i.i.i.i.i.i.i.i.i.i.i.i.i.i.i.i.i.i.i.i.i.i.i.i.i.i.i.i.i.i.i.i.i.i.i.i.i.i.i.i.i.i.i.i.i.i.i.i.i.i.i.i.i.i.i.i.i.i.i.i.i.i.i.i.i.i.i.i.i.i.i.i.i.i.i.i.i.i.i.i.i.i.i.i.i.i.i.i.i.i.i.i.i.i.i.i.i.i.i.i.i.i.i.i.i.i.i.i.i.i.i.i.i.i.i.i.i.i.i.i.i.i.i.i.i.i.i.i.i.i.i.i.i.i.i.i.i.i.i.i.i.i.i.i.i.i.i.i.i.i.i.i.i.i.i.i.i.i.i.i.i.i.u u u u u u u u u i.i.i.i.i.i.i.i.i.u.y ( ( ( ( ( ( ( ( g i.i.i.i.i.i.i.i.i.i.u u u u u u u u i.i.i.i.i.i.i.i.i.i.i.i.i.i.i.i.i.i.i.i.i.i.i.i.i.i.i.i.i.i.i.i.i.i.i.i.i.i.i.i.i.i.i.i.i.i.i.i.i.i.i.i.i.i.i.i.i.i.i.i.i.i.i.i.i.i.i.i.i.i.i.i.i.i.i.i.i.i.i.i.i.i.i.i.i.i.i.i.i.i.i.i.i.i.i.i.i.i.i.i.i.i.i.i.i.i.i.i.i.i.i.i.i.i.i.i.i.i.i.i.i.i.i.i.i.i.i.i.i.i.i.i.i.i.i.i.i.i.i.i.i.i.i.i.u u u u u u u u u i.i.i.i.i.i.i.i.i.i.i.i.D.D.D.V.m.i.i.i.i.i.i.i.i.i.i.i.i.u u u u u u u u u i.i.i.i.i.i.i.i.i.i.i.i.i.i.i.i.i.i.i.i.i.i.i.i.i.i.i.i.i.i.i.i.i.i.i.i.i.i.i.i.i.i.i.i.i.i.i.i.i.i.i.i.i.i.i.i.i.i.i.i.i.i.i.i.i.i.i.i.i.i.i.i.i.i.i.i.i.i.i.i.i.i.i.i.i.i.i.i.i.i.i.i.i.i.i.i.i.i.i.i.i.i.i.i.i.i.i.i.i.i.i.i.i.i.i.i.i.i.i.i.i.i.i.i.i.i.i.i.i.i.i.i.i.i.i.i.i.i.i.i.i.i.i.i.u u u u u u u u u i.i.i.i.i.i.i.i.i.i.i.i.i.i.i.i.i.i.i.i.i.i.i.i.i.i.i.i.i.i.i.i.i.i.i.i.i.i.i.i.i.i.i.i.i.i.i.i.i.i.i.i.i.i.i.i.i.i.i.i.i.i.i.i.i.i.i.i.i.i.i.i.i.i.i.i.i.i.i.i.i.i.i.i.i.i.i.i.i.i.i.i.i.i.i.i.i.i.i.i.i.i.i.i.i.i.i.i.i.",
"i.i.i.i.i.i.C.S m n A.I b b D D A %.b n b V %.i.i.i.i.i.i.u u u u u u u u u i.i.i.i.i.i.i.i.i.i.i.i.i.i.i.i.i.i.i.i.i.i.i.i.i.i.i.i.i.i.i.i.i.i.i.i.M.F.J.J.J.J.J.M.i.i.J.J.J.J.J.J.J.J.J.S.i.i.i.N.J.J.J.D.i.i.i.i.i.i.B.G.J.J.J.J.G.M.i.i.J.J.J.J.J.J.J.F.i.i.i.i.i.i.i.i.i.i.i.i.i.i.m.D.J.J.J.H.V.i.i.i.i.i.i.i.i.i.i.i.i.i.i.i.i.i.i.i.i.i.i.i.i.i.i.i.i.i.i.i.i.i.i.i.i.u u u u u u u u i.i.i.i.i.i.i.i.i.i.i.i.i.i.i.i.i.i.i.i.i.i.i.i.i.i.i.i.i.i.i.i.i.i.i.i.i.i.i.i.i.i.i.i.i.i.i.i.i.i.i.i.i.i.i.i.m.D.J.J.J.J.J.V.i.i.F.J.J.J.J.J.J.J.J.F.i.i.i.i.J.J.J.H.i.i.i.i.i.i.M.F.J.J.J.J.H.B.i.i.F.J.J.J.J.J.J.J.i.i.i.i.i.i.i.i.i.i.i.i.i.i.i.i.S.H.J.F.i.i.i.i.i.i.i.i.i.i.i.i.i.i.i.i.i.i.i.i.i.i.i.i.i.i.i.i.i.i.i.i.i.i.i.i.i.i.i.i.i.i.i.i.i.i.i.i.i.i.i.i.i.i.i.u u u u u u u u u i.i.i.i.i.i.i.i.i.i.i.i.i.i.i.i.i.i.i.i.i.i.i.i.i.i.i.i.i.i.i.i.i.i.i.i.i.i.i.i.i.i.i.i.i.i.i.i.i.i.i.i.i.i.i.i.i.S.H.J.J.J.J.D.i.i.S.J.J.J.J.J.J.J.J.J.i.i.i.i.F.J.J.J.M.i.i.i.i.i.m.D.J.J.J.J.J.S.i.i.S.J.J.J.J.J.J.J.N.i.i.i.i.i.i.i.i.i.i.i.i.i.i.S.J.J.J.J.D.i.i.i.i.i.i.i.i.i.i.i.i.i.i.i.i.i.i.i.i.i.i.i.i.i.i.i.i.i.i.i.i.i.i.i.i.i.i.i.i.i.i.i.i.i.i.i.i.i.i.i.i.i.u u u u u u u u u i.i.i.i.i.i.i.t.j 9 7 ( ( ( ( ( ( ( ( ( l u.i.i.i.i.i.i.i.i.u u u u u u u u i.i.i.i.i.i.i.i.i.i.i.i.i.i.i.i.i.i.i.i.i.i.i.i.i.i.i.i.i.i.i.i.i.i.i.i.S.H.J.J.J.J.D.i.i.S.J.J.J.J.J.J.J.J.J.i.i.i.i.F.J.J.J.M.i.i.i.i.i.m.D.J.J.J.J.J.S.i.i.S.J.J.J.J.J.J.J.N.i.i.i.i.i.i.i.i.i.i.i.i.i.i.i.i.V.J.J.J.S.i.i.i.i.i.i.i.i.i.i.i.i.i.i.i.i.i.i.i.i.i.i.i.i.i.i.i.i.i.i.i.i.i.i.i.u u u u u u u u u i.i.i.i.i.i.i.i.i.i.i.i.I.I.I.I.P.D.i.i.i.i.i.i.i.i.i.i.i.u u u u u u u u u i.i.i.i.i.i.i.i.i.i.i.i.i.i.i.i.i.i.i.i.i.i.i.i.i.i.i.i.i.i.i.i.i.i.i.i.B.G.J.J.J.J.H.i.i.N.J.J.J.J.J.J.J.J.J.N.i.i.i.S.J.J.J.V.i.i.i.i.i.i.S.H.J.J.J.J.F.i.i.N.J.J.J.J.J.J.J.S.i.i.i.i.i.i.i.i.i.i.i.i.i.i.i.i.V.D.J.J.J.N.i.i.i.i.i.i.i.i.i.i.i.i.i.i.i.i.i.i.i.i.i.i.i.i.i.i.i.i.i.i.i.i.i.i.u u u u u u u u u i.i.i.i.i.i.i.i.i.i.i.i.i.i.i.i.i.i.i.i.B.G.J.J.J.J.H.i.i.N.J.J.J.J.J.J.J.J.J.N.i.i.i.S.J.J.J.V.i.i.i.i.i.i.S.H.J.J.J.J.F.i.i.N.J.J.J.J.J.J.J.S.i.i.i.i.i.i.i.i.i.i.i.i.i.J.J.J.J.J.J.J.J.J.i.i.i.i.i.i.i.i.i.i.i.i.i.i.i.",
"i.i.i.i.i.i.*.H G m n b b =.D b K D b n m G J i.i.i.i.i.i.u u u u u u u u u i.i.i.i.i.i.i.i.i.i.i.i.i.i.i.i.i.i.i.i.i.i.i.i.i.i.i.i.i.i.i.i.i.i.i.N.P.I.I.I.I.I.I.B.i.i.I.I.I.I.I.I.I.I.I.D.i.i.i.F.I.I.I.P.i.i.i.i.i.G.I.I.I.I.I.I.I.B.i.i.I.I.I.I.I.I.I.J.i.i.i.i.i.i.i.i.i.i.i.i.i.m.K.I.I.I.I.I.I.D.i.i.i.i.i.i.i.i.i.i.i.i.i.i.i.i.i.i.i.i.i.i.i.i.i.i.i.i.i.i.i.i.i.i.i.u u u u u u u u i.i.i.i.i.i.i.i.i.i.i.i.i.i.i.i.i.i.i.i.i.i.i.i.i.i.i.i.i.i.i.i.i.i.i.i.i.i.i.i.i.i.i.i.i.i.i.i.i.i.i.i.i.i.i.m.K.I.I.I.I.I.P.F.i.i.J.I.I.I.I.I.I.I.I.J.i.i.i.V.I.I.I.I.N.i.i.i.i.S.I.I.I.I.I.I.I.D.i.i.J.I.I.I.I.I.I.I.i.i.i.i.i.i.i.i.i.i.i.i.i.i.S.L.I.I.I.J.i.i.i.i.i.i.i.i.i.i.i.i.i.i.i.i.i.i.i.i.i.i.i.i.i.i.i.i.i.i.i.i.i.i.i.i.i.i.i.i.i.i.i.i.i.i.i.i.i.i.i.i.i.i.i.u u u u u u u u u i.i.i.i.i.i.i.i.i.i.i.i.i.i.i.i.i.i.i.i.i.i.i.i.i.i.i.i.i.i.i.i.i.i.i.i.i.i.i.i.i.i.i.i.i.i.i.i.i.i.i.i.i.i.i.i.G.I.I.I.I.I.I.J.i.i.D.I.I.I.I.I.I.I.I.I.i.i.i.m.I.I.I.I.D.i.i.i.i.N.P.I.I.I.I.I.I.J.i.i.D.I.I.I.I.I.I.I.B.i.i.i.i.i.i.i.i.i.i.i.i.i.L.I.I.I.I.I.I.J.i.i.i.i.i.i.i.i.i.i.i.i.i.i.i.i.i.i.i.i.i.i.i.i.i.i.i.i.i.i.i.i.i.i.i.i.i.i.i.i.i.i.i.i.i.i.i.i.i.i.i.i.u u u u u u u u u i.i.i.i.i.i.u.e x x r z ( ( ( ( ( ( x r x t r.i.i.i.i.i.i.i.u u u u u u u u i.i.i.i.i.i.i.i.i.i.i.i.i.i.i.i.i.i.i.i.i.i.i.i.i.i.i.i.i.i.i.i.i.i.i.G.I.I.I.I.I.I.J.i.i.D.I.I.I.I.I.I.I.I.I.i.i.i.m.I.I.I.I.D.i.i.i.i.N.P.I.I.I.I.I.I.J.i.i.D.I.I.I.I.I.I.I.B.i.i.i.i.i.i.i.i.i.i.i.i.i.i.i.m.P.I.I.I.D.i.i.i.i.i.i.i.i.i.i.i.i.i.i.i.i.i.i.i.i.i.i.i.i.i.i.i.i.i.i.i.i.i.i.i.u u u u u u u u u i.i.i.i.i.i.i.i.i.i.i.i.D.F.K.I.I.I.D.i.i.i.i.i.i.i.i.i.i.u u u u u u u u u i.i.i.i.i.i.i.i.i.i.i.i.i.i.i.i.i.i.i.i.i.i.i.i.i.i.i.i.i.i.i.i.i.i.i.S.I.I.I.I.I.I.I.i.i.B.I.I.I.I.I.I.I.I.I.B.i.i.i.K.I.I.I.H.i.i.i.i.m.K.I.I.I.I.I.I.I.i.i.B.I.I.I.I.I.I.I.D.i.i.i.i.i.i.i.i.i.i.i.i.i.i.V.P.I.I.I.I.I.B.i.i.i.i.i.i.i.i.i.i.i.i.i.i.i.i.i.i.i.i.i.i.i.i.i.i.i.i.i.i.i.i.i.i.u u u u u u u u u i.i.i.i.i.i.i.i.i.i.i.i.i.i.i.i.i.i.i.S.I.I.I.I.I.I.I.i.i.B.I.I.I.I.I.I.I.I.I.B.i.i.i.K.I.I.I.H.i.i.i.i.m.K.I.I.I.I.I.I.I.i.i.B.I.I.I.I.I.I.I.D.i.i.i.i.i.i.i.i.i.i.i.i.i.I.I.I.I.I.I.I.I.I.i.i.i.i.i.i.i.i.i.i.i.i.i.i.i.",
"i.i.i.i.i.i.*.W B H F S S m n m m m F G J J &.i.i.i.i.i.i.u u u u u u u u u i.i.i.i.i.i.i.i.i.i.i.i.i.i.i.i.i.i.i.i.i.i.i.i.i.i.i.i.i.i.i.i.i.i.i.G.I.I.G.B.M.B.D.M.i.i.B.B.B.K.I.I.D.B.B.M.i.i.i.L.I.I.I.I.V.i.i.i.D.I.I.P.D.B.B.D.H.N.i.i.I.I.K.B.B.B.B.N.i.i.i.i.i.i.i.i.i.i.i.i.i.F.I.I.G.m.B.P.I.I.M.i.i.i.i.i.i.i.i.i.i.i.i.i.i.i.i.i.i.i.i.i.i.i.i.i.i.i.i.i.i.i.i.i.i.u u u u u u u u i.i.i.i.i.i.i.i.i.i.i.i.i.i.i.i.i.i.i.i.i.i.i.i.i.i.i.i.i.i.i.i.i.i.i.i.i.i.i.i.i.i.i.i.i.i.i.i.i.i.i.i.i.i.i.S.I.I.K.B.M.B.S.B.i.i.N.B.B.G.I.I.G.B.B.N.i.i.i.G.I.I.I.I.F.i.i.i.B.I.I.I.G.B.B.S.G.S.i.i.J.I.I.B.B.B.B.B.i.i.i.i.i.i.i.i.i.i.i.i.i.S.I.I.I.I.I.J.i.i.i.i.i.i.i.i.i.i.i.i.i.i.i.i.i.i.i.i.i.i.i.i.i.i.i.i.i.i.i.i.i.i.i.i.i.i.i.i.i.i.i.i.i.i.i.i.i.i.i.i.i.i.i.u u u u u u u u u i.i.i.i.i.i.i.i.i.i.i.i.i.i.i.i.i.i.i.i.i.i.i.i.i.i.i.i.i.i.i.i.i.i.i.i.i.i.i.i.i.i.i.i.i.i.i.i.i.i.i.i.i.i.i.M.I.I.P.V.M.B.V.S.i.i.M.B.B.D.I.I.K.B.B.B.i.i.i.S.I.I.I.I.K.i.i.i.m.P.I.I.J.V.B.V.F.F.i.i.D.I.I.D.B.B.B.B.m.i.i.i.i.i.i.i.i.i.i.i.i.i.D.I.F.B.S.I.I.I.N.i.i.i.i.i.i.i.i.i.i.i.i.i.i.i.i.i.i.i.i.i.i.i.i.i.i.i.i.i.i.i.i.i.i.i.i.i.i.i.i.i.i.i.i.i.i.i.i.i.i.i.u u u u u u u u u i.i.i.i.i.i.j t ( ( ( ( ( ( ( ( ( ( r r x ( f y.i.i.i.i.i.i.u u u u u u u u i.i.i.i.i.i.i.i.i.i.i.i.i.i.i.i.i.i.i.i.i.i.i.i.i.i.i.i.i.i.i.i.i.i.M.I.I.P.V.M.B.V.S.i.i.M.B.B.D.I.I.K.B.B.B.i.i.i.S.I.I.I.I.K.i.i.i.m.P.I.I.J.V.B.V.F.F.i.i.D.I.I.D.B.B.B.B.m.i.i.i.i.i.i.i.i.i.i.i.i.i.i.i.H.I.I.I.I.D.i.i.i.i.i.i.i.i.i.i.i.i.i.i.i.i.i.i.i.i.i.i.i.i.i.i.i.i.i.i.i.i.i.i.i.u u u u u u u u u i.i.i.i.i.i.i.i.i.i.i.i.i.i.i.D.I.I.P.i.i.i.i.i.i.i.i.i.i.u u u u u u u u u i.i.y.i.i.i.i.i.i.i.i.i.i.i.i.i.i.i.i.i.i.i.i.i.i.i.i.i.i.i.i.i.i.i.i.L.I.I.D.N.N.B.D.i.i.m.B.B.B.I.I.I.B.B.B.m.i.i.M.I.I.I.I.I.m.i.i.i.J.I.I.L.S.B.B.D.J.i.i.B.I.I.G.B.B.B.B.M.i.i.i.i.i.i.i.i.i.i.i.i.i.N.I.I.I.F.V.B.B.m.i.i.i.i.i.i.i.i.i.i.i.i.i.i.i.i.i.i.i.i.i.i.i.i.i.i.i.i.i.i.i.i.i.i.u u u u u u u u u i.i.i.i.i.i.i.i.i.i.i.i.i.i.i.i.i.i.i.L.I.I.D.N.N.B.D.i.i.m.B.B.B.I.I.I.B.B.B.m.i.i.M.I.I.I.I.I.m.i.i.i.J.I.I.L.S.B.B.D.J.i.i.B.I.I.G.B.B.B.B.M.i.i.i.i.i.i.i.i.i.i.i.i.i.D.D.D.D.D.J.I.I.J.i.i.i.i.i.i.i.i.i.i.i.i.y.i.i.",
"i.i.i.i.i.i.X.~ ! U W J J J J H J J J W Q Q T n.i.i.i.i.i.u u u u u u u u u i.i.i.i.i.i.i.i.i.i.i.i.i.i.i.i.i.i.i.i.i.i.i.i.i.i.i.i.i.i.i.i.i.i.i.J.I.I.D.i.i.i.i.i.i.i.i.i.i.J.I.I.B.i.i.i.i.i.N.I.I.K.I.I.G.i.i.i.P.I.I.B.i.i.i.i.i.i.i.i.I.I.J.i.i.i.i.i.i.i.i.i.i.i.i.i.i.i.i.i.i.P.I.P.m.i.m.J.I.I.D.i.i.i.i.i.i.i.i.i.i.i.i.i.i.i.i.i.i.i.i.i.i.i.i.i.i.i.i.i.i.i.i.i.i.u u u u u u u u i.i.i.i.i.i.i.i.i.i.i.i.i.i.i.i.i.i.i.i.i.i.i.i.i.i.i.i.i.i.i.i.i.i.i.i.i.i.i.i.i.i.i.i.i.i.i.i.i.i.i.i.i.i.i.D.I.I.H.i.i.i.i.i.i.i.i.i.i.D.I.I.D.i.i.i.i.i.i.P.I.K.I.I.L.i.i.i.H.I.I.D.i.i.i.i.i.i.i.i.J.I.I.i.i.i.i.i.i.i.i.i.i.i.i.i.i.i.i.i.i.i.L.G.M.I.I.J.i.i.i.i.i.i.i.i.i.i.i.i.i.i.i.i.i.i.i.i.i.i.i.i.i.i.i.i.i.i.i.i.i.i.i.i.i.i.i.i.i.i.i.i.i.i.i.i.i.i.i.i.i.i.i.u u u u u u u u u i.i.i.i.i.i.i.i.i.i.i.i.i.i.i.i.i.i.i.i.i.i.i.i.i.i.i.i.i.i.i.i.i.i.i.i.i.i.i.i.i.i.i.i.i.i.i.i.i.i.i.i.i.i.i.B.I.I.L.m.i.i.i.i.i.i.i.i.i.B.I.I.J.i.i.i.i.i.i.H.I.I.K.I.I.M.i.i.D.I.I.J.i.i.i.i.i.i.i.i.D.I.I.B.i.i.i.i.i.i.i.i.i.i.i.i.i.i.i.i.i.i.i.N.i.i.i.J.I.I.B.i.i.i.i.i.i.i.i.i.i.i.i.i.i.i.i.i.i.i.i.i.i.i.i.i.i.i.i.i.i.i.i.i.i.i.i.i.i.i.i.i.i.i.i.i.i.i.i.i.i.i.u u u u u u u u u i.i.i.i.i.i.s z ( ( ( ( ( ( ( ( ( r 6 x ( ( 0 i.i.i.i.i.i.i.u u u u u u u u i.i.i.i.i.i.i.i.i.i.i.i.i.i.i.i.i.i.i.i.i.i.i.i.i.i.i.i.i.i.i.i.i.i.B.I.I.L.m.i.i.i.i.i.i.i.i.i.B.I.I.J.i.i.i.i.i.i.H.I.I.K.I.I.M.i.i.D.I.I.J.i.i.i.i.i.i.i.i.D.I.I.B.i.i.i.i.i.i.i.i.i.i.i.i.i.i.i.i.i.i.i.S.I.I.K.I.I.D.i.i.i.i.i.i.i.i.i.i.i.i.i.i.i.i.i.i.i.i.i.i.i.i.i.i.i.i.i.i.i.i.i.i.i.u u u u u u u u u i.i.i.i.i.i.i.i.i.i.i.i.i.i.i.m.I.I.I.i.i.i.i.i.i.i.i.i.i.u u u u u u u u u i.i.i.i.i.i.i.i.i.i.i.i.i.i.i.i.i.i.i.i.i.i.i.i.i.i.i.i.i.i.i.i.i.i.i.I.I.I.N.i.i.i.i.i.i.i.i.i.i.I.I.I.i.i.i.i.i.i.D.I.I.K.I.I.S.i.i.N.I.I.P.m.i.i.i.i.i.i.i.B.I.I.D.i.i.i.i.i.i.i.i.i.i.i.i.i.i.i.i.i.i.G.I.I.D.i.i.i.i.i.i.i.i.i.i.i.i.i.i.i.i.i.i.i.i.i.i.i.i.i.i.i.i.i.i.i.i.i.i.i.i.i.i.i.u u u u u u u u u i.i.i.i.i.i.i.i.i.i.i.i.i.i.i.i.i.i.i.I.I.I.N.i.i.i.i.i.i.i.i.i.i.I.I.I.i.i.i.i.i.i.D.I.I.K.I.I.S.i.i.N.I.I.P.m.i.i.i.i.i.i.i.B.I.I.D.i.i.i.i.i.i.i.i.i.i.i.i.i.i.i.i.i.i.i.i.i.i.i.L.I.I.B.i.i.i.i.i.i.i.i.i.i.i.i.i.i.i.",
"i.i.i.i.i.s.| R F J ~ ! ! Q Q Q Q Q ! Q J Y ' x.i.i.i.i.i.u u u u u u u u u i.i.i.i.i.i.i.i.i.i.i.i.i.i.i.i.i.i.i.i.i.i.i.i.i.i.i.i.i.i.i.i.i.i.i.D.I.I.I.K.D.M.i.i.i.i.i.i.i.J.I.I.B.i.i.i.i.i.F.I.I.B.P.I.P.i.i.B.I.I.K.i.M.B.B.B.B.m.i.i.I.I.K.B.B.B.B.M.i.i.i.i.i.i.i.i.i.i.i.i.N.I.I.G.i.V.P.I.I.I.H.i.i.i.i.i.i.i.i.i.i.i.i.i.i.i.i.i.i.i.i.i.i.i.i.i.i.i.i.i.i.i.i.i.i.u u u u u u u u i.i.i.i.i.i.i.i.i.i.i.i.i.i.i.i.i.i.i.i.i.i.i.i.i.i.i.i.i.i.i.i.i.i.i.i.i.i.i.i.i.i.i.i.i.i.i.i.i.i.i.i.i.i.i.B.I.I.I.L.F.N.i.i.i.i.i.i.i.D.I.I.D.i.i.i.i.i.V.I.I.D.H.I.I.N.i.i.I.I.I.m.m.B.B.B.B.M.i.i.J.I.I.B.B.B.B.N.i.i.i.i.i.i.i.i.i.i.i.i.i.i.i.i.i.I.I.J.i.i.i.i.i.i.i.i.i.i.i.i.i.i.i.i.i.i.i.i.i.i.i.i.i.i.i.i.i.i.i.i.i.i.i.i.i.i.i.i.i.i.i.i.i.i.i.i.i.i.i.i.i.i.i.u u u u u u u u u i.i.i.i.i.i.i.i.i.i.i.i.i.i.i.i.i.i.i.i.i.i.i.i.i.i.i.i.i.i.i.i.i.i.i.i.i.i.i.i.i.i.i.i.i.i.i.i.i.i.i.i.i.i.i.m.P.I.I.P.G.V.i.i.i.i.i.i.i.B.I.I.J.i.i.i.i.i.m.I.I.J.D.I.I.D.i.i.J.I.I.V.i.B.B.B.B.N.i.i.D.I.I.D.B.B.B.B.i.i.i.i.i.i.i.i.i.i.i.i.i.i.i.i.i.i.m.P.I.I.M.i.i.i.i.i.i.i.i.i.i.i.i.i.i.i.i.i.i.i.i.i.i.i.i.i.i.i.i.i.i.i.i.i.i.i.i.i.i.i.i.i.i.i.i.i.i.i.i.i.i.i.u u u u u u u u u i.i.i.i.i.i.i q ( ( ( w w q w w 7 q z x x w 7 i.i.i.i.i.i.i.u u u u u u u u i.i.i.i.i.i.i.i.i.i.i.i.i.i.i.i.i.i.i.i.i.i.i.i.i.i.i.i.i.i.i.i.i.i.m.P.I.I.P.G.V.i.i.i.i.i.i.i.B.I.I.J.i.i.i.i.i.m.I.I.J.D.I.I.D.i.i.J.I.I.V.i.B.B.B.B.N.i.i.D.I.I.D.B.B.B.B.i.i.i.i.i.i.i.i.i.i.i.i.i.i.M.P.I.K.B.I.I.D.i.i.i.i.i.i.i.i.i.i.i.i.i.i.i.i.i.i.i.i.i.i.i.i.i.i.i.i.i.i.i.i.i.i.i.u u u u u u u u u i.i.i.i.i.i.i.i.i.i.i.i.i.D.D.K.I.I.H.i.i.i.i.i.i.i.i.i.i.u u u u u u u u u i.i.i.i.i.i.i.i.i.i.i.i.i.i.i.i.i.i.i.i.i.i.i.i.i.i.i.i.i.i.i.i.i.i.i.J.I.I.I.H.S.m.i.i.i.i.i.i.i.I.I.I.i.i.i.i.i.i.K.I.I.N.I.I.H.i.i.D.I.I.F.i.N.B.B.B.B.i.i.B.I.I.G.B.B.B.B.m.i.i.i.i.i.i.i.i.i.i.i.i.i.P.I.I.D.J.J.D.B.i.i.i.i.i.i.i.i.i.i.i.i.i.i.i.i.i.i.i.i.i.i.i.i.i.i.i.i.i.i.i.i.i.i.i.u u u u u u u u u i.i.i.i.i.i.i.i.i.i.i.i.i.i.i.i.i.i.i.J.I.I.I.H.S.m.i.i.i.i.i.i.i.I.I.I.i.i.i.i.i.i.K.I.I.N.I.I.H.i.i.D.I.I.F.i.N.B.B.B.B.i.i.B.I.I.G.B.B.B.B.m.i.i.i.i.i.i.i.i.i.i.i.i.i.i.i.i.i.D.I.I.J.i.i.i.i.i.i.i.i.i.i.i.i.i.i.i.i.",
"i.i.i.i.i.i.4.| ` v c M V V C V C C M M ` _ 5.i.i.i.i.i.i.u u u u u u u u u i.i.i.i.i.i.i.i.i.i.i.i.i.i.i.i.i.i.i.i.i.i.i.i.i.i.i.i.i.i.i.i.i.i.i.m.J.I.I.I.I.I.J.m.i.i.i.i.i.J.I.I.B.i.i.i.i.i.L.I.P.i.H.I.I.V.i.B.I.I.H.i.D.I.I.I.I.B.i.i.I.I.I.I.I.I.I.D.i.i.i.i.i.i.i.i.i.i.i.i.B.I.I.G.H.I.I.L.I.I.J.i.i.i.i.i.i.i.i.i.i.i.i.i.i.i.i.i.i.i.i.i.i.i.i.i.i.i.i.i.i.i.i.i.i.u u u u u u u u i.i.i.i.i.i.i.i.i.i.i.i.i.i.i.i.i.i.i.i.i.i.i.i.i.i.i.i.i.i.i.i.i.i.i.i.i.i.i.i.i.i.i.i.i.i.i.i.i.i.i.i.i.i.i.i.F.I.I.I.I.I.L.N.i.i.i.i.i.D.I.I.D.i.i.i.i.i.G.I.I.N.D.I.I.F.i.i.I.I.P.i.B.I.I.I.I.D.i.i.J.I.I.I.I.I.I.J.i.i.i.i.i.i.i.i.i.i.i.i.i.i.i.i.i.I.I.J.i.i.i.i.i.i.i.i.i.i.i.i.i.i.i.i.i.i.i.i.i.i.i.i.i.i.i.i.i.i.i.i.i.i.i.i.i.i.i.i.i.i.i.i.i.i.i.i.i.i.i.i.i.i.i.u u u u u u u u u i.i.i.i.i.i.i.i.i.i.i.i.i.i.i.i.i.i.i.i.i.i.i.i.i.i.i.i.i.i.i.i.i.i.i.i.i.i.i.i.i.i.i.i.i.i.i.i.i.i.i.i.i.i.i.i.S.P.I.I.I.I.P.S.i.i.i.i.i.B.I.I.J.i.i.i.i.i.S.I.I.D.N.I.I.K.i.i.J.I.I.N.i.I.I.I.I.J.i.i.D.I.I.I.I.I.I.I.i.i.i.i.i.i.i.i.i.i.i.i.i.i.i.i.i.i.G.I.I.G.i.i.i.i.i.i.i.i.i.i.i.i.i.i.i.i.i.i.i.i.i.i.i.i.i.i.i.i.i.i.i.i.i.i.i.i.i.i.i.i.i.i.i.i.i.i.i.i.i.i.i.i.u u u u u u u u u i.i.y.i.i.y.e.6 w z ( ( q 7 5 8 5 r z r 0 7 p i.i.i.i.i.i.i.u u u u u u u u i.i.i.i.i.i.i.i.i.i.i.i.i.i.i.i.i.i.i.i.i.i.i.i.i.i.i.i.i.i.i.i.i.i.i.S.P.I.I.I.I.P.S.i.i.i.i.i.B.I.I.J.i.i.i.i.i.S.I.I.D.N.I.I.K.i.i.J.I.I.N.i.I.I.I.I.J.i.i.D.I.I.I.I.I.I.I.i.i.i.i.i.i.i.i.i.i.i.i.i.i.J.I.P.N.B.I.I.D.i.i.i.i.i.i.i.i.i.i.i.i.i.i.i.i.i.i.i.i.i.i.i.i.i.i.i.i.i.i.i.i.i.i.i.u u u u u u u u u i.i.i.i.i.i.i.i.i.i.i.i.i.I.I.I.I.J.m.i.i.i.i.i.i.i.i.i.i.u u u u u u u u u i.i.y.i.i.i.i.i.i.i.i.i.i.i.i.i.i.i.i.i.i.i.i.i.i.i.i.i.i.i.i.i.i.i.i.N.L.I.I.I.I.I.F.i.i.i.i.i.i.I.I.I.i.i.i.i.i.M.I.I.H.i.P.I.I.m.i.D.I.I.D.i.J.I.I.I.I.i.i.B.I.I.I.I.I.I.I.B.i.i.i.i.i.i.i.i.i.i.i.i.i.I.I.I.I.I.I.I.I.F.i.i.i.i.i.i.i.i.i.i.i.i.i.i.i.i.i.i.i.i.i.i.i.i.i.i.i.i.i.i.i.i.i.i.u u u u u u u u u i.i.i.i.i.i.i.i.i.i.i.i.i.i.i.i.i.i.i.N.L.I.I.I.I.I.F.i.i.i.i.i.i.I.I.I.i.i.i.i.i.M.I.I.H.i.P.I.I.m.i.D.I.I.D.i.J.I.I.I.I.i.i.B.I.I.I.I.I.I.I.B.i.i.i.i.i.i.i.i.i.i.i.i.i.i.i.i.m.P.I.I.M.i.i.i.i.i.i.i.i.i.i.i.i.i.i.i.i.",
"i.i.i.i.i.i.l.;.T { { | | | ] } _ _ _ ) E / o.i.i.i.i.i.i.u u u u u u u u u i.i.i.i.i.i.i.i.i.i.i.i.i.i.i.i.i.i.i.i.i.i.i.i.i.i.i.i.i.i.i.i.i.i.i.i.i.N.G.L.I.I.I.K.i.i.i.i.i.J.I.I.B.i.i.i.i.N.I.I.G.i.S.I.I.G.i.B.I.I.J.i.S.J.L.I.I.B.i.i.I.I.L.D.D.D.D.B.i.i.i.i.i.i.i.i.i.i.i.i.B.I.I.I.I.I.F.N.I.I.J.i.i.i.i.i.i.i.i.i.i.i.i.i.i.i.i.i.i.i.i.i.i.i.i.i.i.i.i.i.i.i.i.i.i.u u u u u u u u i.i.i.i.i.i.i.i.i.i.i.i.i.i.i.i.i.i.i.i.i.i.i.i.i.i.i.i.i.i.i.i.i.i.i.i.i.i.i.i.i.i.i.i.i.i.i.i.i.i.i.i.i.i.i.i.i.M.D.K.I.I.I.P.M.i.i.i.i.D.I.I.D.i.i.i.i.i.P.I.L.i.M.I.I.L.i.i.I.I.I.i.N.J.K.I.I.D.i.i.J.I.I.D.D.D.D.S.i.i.i.i.i.i.i.i.i.i.i.i.i.i.i.i.i.I.I.J.i.i.i.i.i.i.i.i.i.i.i.i.i.i.i.i.i.i.i.i.i.i.i.i.i.i.i.i.i.i.i.i.i.i.i.i.i.i.i.i.i.i.i.i.i.i.i.i.i.i.i.i.i.i.i.u u u u u u u u u i.i.i.i.i.i.i.i.i.i.i.i.i.i.i.i.i.i.i.i.i.i.i.i.i.i.i.i.i.i.i.i.i.i.i.i.i.i.i.i.i.i.i.i.i.i.i.i.i.i.i.i.i.i.i.i.i.m.S.J.I.I.I.I.V.i.i.i.i.B.I.I.J.i.i.i.i.i.H.I.I.M.i.L.I.I.M.i.J.I.I.B.i.J.J.I.I.J.i.i.D.I.I.G.D.D.D.D.i.i.i.i.i.i.i.i.i.i.i.i.i.i.i.i.i.G.I.I.K.m.i.i.i.i.i.i.i.i.i.i.i.i.i.i.i.i.i.i.i.i.i.i.i.i.i.i.i.i.i.i.i.i.i.i.i.i.i.i.i.i.i.i.i.i.i.i.i.i.i.i.i.i.u u u u u u u u u i.i.i.i.i.i.i.j 7 7 9   X 6 o O o 6 7 7 7 7 q.i.i.i.i.i.i.i.u u u u u u u u i.i.i.i.i.i.i.i.i.i.i.i.i.i.i.i.i.i.i.i.i.i.i.i.i.i.i.i.i.i.i.i.i.i.i.i.m.S.J.I.I.I.I.V.i.i.i.i.B.I.I.J.i.i.i.i.i.H.I.I.M.i.L.I.I.M.i.J.I.I.B.i.J.J.I.I.J.i.i.D.I.I.G.D.D.D.D.i.i.i.i.i.i.i.i.i.i.i.i.i.D.I.I.D.i.B.I.I.D.i.i.i.i.i.i.i.i.i.i.i.i.i.i.i.i.i.i.i.i.i.i.i.i.i.i.i.i.i.i.i.i.i.i.i.u u u u u u u u u i.i.i.i.i.i.i.i.i.i.i.i.i.I.I.H.N.i.i.i.i.i.i.i.i.i.i.i.i.u u u u u u u u u i.i.i.i.i.i.i.i.i.i.i.i.i.i.i.i.i.i.i.i.i.i.i.i.i.i.i.i.i.i.i.i.i.i.i.i.i.V.H.P.I.I.I.F.i.i.i.i.i.I.I.I.i.i.i.i.i.D.I.I.S.i.G.I.I.S.i.D.I.I.D.i.F.J.P.I.I.i.i.B.I.I.J.D.D.D.D.M.i.i.i.i.i.i.i.i.i.i.i.i.i.I.I.P.D.B.D.I.I.I.m.i.i.i.i.i.i.i.i.i.i.i.i.i.i.i.i.i.i.i.i.i.i.i.i.i.i.i.i.i.i.i.i.i.u u u u u u u u u i.i.i.i.i.i.i.i.i.i.i.i.i.i.i.i.i.i.i.i.i.V.H.P.I.I.I.F.i.i.i.i.i.I.I.I.i.i.i.i.i.D.I.I.S.i.G.I.I.S.i.D.I.I.D.i.F.J.P.I.I.i.i.B.I.I.J.D.D.D.D.M.i.i.i.i.i.i.i.i.i.i.i.i.i.i.i.i.D.I.I.G.i.i.i.i.i.i.i.i.i.i.i.i.i.i.i.i.i.",
"i.i.i.i.i.i.k.4 *.U , ; > v c Z > ; : U $.3 k.i.i.i.i.i.i.u u u u u u u u u i.i.i.i.i.i.i.i.i.i.i.i.i.i.i.i.i.i.i.i.i.i.i.i.i.i.i.i.i.i.i.i.i.i.i.i.i.i.i.i.S.I.I.I.B.i.i.i.i.J.I.I.B.i.i.i.i.F.I.I.L.J.K.I.I.P.i.N.I.I.L.i.i.i.D.I.I.B.i.i.I.I.J.i.i.i.i.i.i.i.i.i.i.i.i.i.i.i.i.i.M.I.I.I.K.B.i.V.I.I.D.i.i.i.i.i.i.i.i.i.i.i.i.i.i.i.i.i.i.i.i.i.i.i.i.i.i.i.i.i.i.i.i.i.i.u u u u u u u u i.i.i.i.i.i.i.i.i.i.i.i.i.i.i.i.i.i.i.i.i.i.i.i.i.i.i.i.i.i.i.i.i.i.i.i.i.i.i.i.i.i.i.i.i.i.i.i.i.i.i.i.i.i.i.i.i.i.i.i.B.L.I.I.D.i.i.i.i.D.I.I.D.i.i.i.i.V.I.I.P.J.J.I.I.I.N.i.P.I.I.M.i.i.B.I.I.D.i.i.J.I.I.i.i.i.i.i.i.i.i.i.i.i.i.i.i.i.i.i.i.i.i.i.i.I.I.J.i.i.i.i.i.i.i.i.i.i.i.i.i.i.i.i.i.i.i.i.i.i.i.i.i.i.i.i.i.i.i.i.i.i.i.i.i.i.i.i.i.i.i.i.i.i.i.i.i.i.i.i.i.i.i.u u u u u u u u u i.i.i.i.i.i.i.i.i.i.i.i.i.i.i.i.i.i.i.i.i.i.i.i.i.i.i.i.i.i.i.i.i.i.i.i.i.i.i.i.i.i.i.i.i.i.i.i.i.i.i.i.i.i.i.i.i.i.i.i.M.J.I.I.J.i.i.i.i.B.I.I.J.i.i.i.i.m.I.I.I.J.J.P.I.I.D.i.H.I.I.S.i.i.i.I.I.J.i.i.D.I.I.B.i.i.i.i.i.i.i.i.i.i.i.i.i.i.i.i.i.i.i.m.H.I.I.K.m.i.i.i.i.i.i.i.i.i.i.i.i.i.i.i.i.i.i.i.i.i.i.i.i.i.i.i.i.i.i.i.i.i.i.i.i.i.i.i.i.i.i.i.i.i.i.i.i.i.i.i.i.i.u u u u u u u u u i.i.i.i.i.i.i.w.7 7 7 . O   $ O 8 6 7 7 7 9.i.i.i.i.i.i.i.i.u u u u u u u u i.i.i.i.i.i.i.i.i.i.i.i.i.i.i.i.i.i.i.i.i.i.i.i.i.i.i.i.i.i.i.i.i.i.i.i.i.i.i.M.J.I.I.J.i.i.i.i.B.I.I.J.i.i.i.i.m.I.I.I.J.J.P.I.I.D.i.H.I.I.S.i.i.i.I.I.J.i.i.D.I.I.B.i.i.i.i.i.i.i.i.i.i.i.i.i.i.i.i.i.I.I.I.I.I.I.I.I.I.I.B.i.i.i.i.i.i.i.i.i.i.i.i.i.i.i.i.i.i.i.i.i.i.i.i.i.i.i.i.i.i.i.i.i.u u u u u u u u u i.i.i.i.i.i.i.i.i.i.i.i.i.I.I.D.i.i.i.i.i.i.i.i.i.i.i.i.i.u u u u u u u u u i.i.i.i.i.i.i.i.i.i.i.i.i.i.i.i.i.i.i.i.i.i.i.i.i.i.i.i.i.i.i.i.i.i.i.i.i.i.i.m.F.I.I.I.i.i.i.i.i.I.I.I.i.i.i.i.i.K.I.I.K.J.L.I.I.H.i.D.I.I.G.i.i.i.J.I.I.i.i.B.I.I.D.i.i.i.i.i.i.i.i.i.i.i.i.i.i.i.i.i.i.I.I.L.i.i.i.J.I.I.B.i.i.i.i.i.i.i.i.i.i.i.i.i.i.i.i.i.i.i.i.i.i.i.i.i.i.i.i.i.i.i.i.i.u u u u u u u u u i.i.i.i.i.i.i.i.i.i.i.i.i.i.i.i.i.i.i.i.i.i.i.m.F.I.I.I.i.i.i.i.i.I.I.I.i.i.i.i.i.K.I.I.K.J.L.I.I.H.i.D.I.I.G.i.i.i.J.I.I.i.i.B.I.I.D.i.i.i.i.i.i.i.i.i.i.i.i.i.i.i.i.i.i.i.i.M.I.I.P.M.i.i.i.i.i.i.i.i.i.i.i.i.i.i.i.i.i.",
"i.i.i.i.i.i.t.1 2 3 +.6.B N N N N  .*.3 2 @ ..y.i.i.y.i.i.u u u u u u u u u i.i.i.i.i.i.i.i.i.i.i.i.i.i.i.i.i.i.i.i.i.i.i.i.i.i.i.i.i.i.i.i.i.i.i.N.i.i.i.i.i.L.I.I.N.i.i.i.i.J.I.I.B.i.i.i.i.L.I.I.I.I.I.I.I.I.V.i.L.I.I.D.i.i.D.I.I.B.i.i.I.I.J.i.i.i.i.i.i.i.i.i.i.i.i.i.i.i.i.i.i.L.I.I.N.i.i.J.I.I.V.i.i.i.i.i.i.i.i.i.i.i.i.i.i.i.i.i.i.i.i.i.i.i.i.i.i.i.i.i.i.i.i.i.i.u u u u u u u u i.i.i.i.i.i.i.i.i.i.i.i.i.i.i.i.i.i.i.i.i.i.i.i.i.i.i.i.i.i.i.i.i.i.i.i.i.i.i.i.i.i.i.i.i.i.i.i.i.i.i.i.i.i.i.M.m.i.i.i.i.G.I.I.D.i.i.i.i.D.I.I.D.i.i.i.i.G.I.I.I.I.I.I.I.I.F.i.G.I.I.H.m.i.B.I.I.D.i.i.J.I.I.i.i.i.i.i.i.i.i.i.i.i.i.i.i.i.i.i.i.i.i.i.i.I.I.J.i.i.i.i.i.i.i.i.i.i.i.i.i.i.i.i.i.i.i.i.i.i.i.i.i.i.i.i.i.i.i.i.i.i.i.i.i.i.i.i.i.i.i.i.i.i.i.i.i.i.i.i.i.i.i.u u u u u u u u u i.i.i.i.i.i.i.i.i.i.i.i.i.i.i.i.i.i.i.i.i.i.i.i.i.i.i.i.i.i.i.i.i.i.i.i.i.i.i.i.i.i.i.i.i.i.i.i.i.i.i.i.i.i.i.m.M.i.i.i.i.S.I.I.H.i.i.i.i.B.I.I.J.i.i.i.i.S.I.I.I.I.I.I.I.I.K.i.S.I.I.L.M.i.i.I.I.J.i.i.D.I.I.B.i.i.i.i.i.i.i.i.i.i.i.i.i.i.i.i.i.i.m.K.I.I.G.i.i.i.i.i.i.i.i.i.i.i.i.i.i.i.i.i.i.i.i.i.i.i.i.i.i.i.i.i.i.i.i.i.i.i.i.i.i.i.i.i.i.i.i.i.i.i.i.i.i.i.i.i.i.i.u u u u u u u u u i.i.i.i.i.i.i.i.w.s 6 7 . O + + # $ a i e.i.i.i.i.i.i.i.i.i.u u u u u u u u i.i.i.i.i.i.i.i.i.i.i.i.i.i.i.i.i.i.i.i.i.i.i.i.i.i.i.i.i.i.i.i.i.i.m.M.i.i.i.i.S.I.I.H.i.i.i.i.B.I.I.J.i.i.i.i.S.I.I.I.I.I.I.I.I.K.i.S.I.I.L.M.i.i.I.I.J.i.i.D.I.I.B.i.i.i.i.i.i.i.i.i.i.i.i.i.i.i.i.i.I.I.I.I.I.I.I.I.I.I.B.i.i.i.i.i.i.i.i.i.i.i.i.i.i.i.i.i.i.i.i.i.i.i.i.i.i.i.i.i.i.i.i.i.u u u u u u u u u i.i.i.i.i.i.i.i.i.i.i.i.i.S.D.M.i.i.i.i.i.i.i.i.i.i.i.i.i.u u u u u u u u u i.i.i.i.i.i.i.i.i.i.i.i.i.i.i.i.i.i.i.i.i.i.i.i.i.i.i.i.i.i.i.i.i.i.i.N.i.i.i.i.M.I.I.P.i.i.i.i.i.I.I.I.i.i.i.i.M.I.I.I.I.I.I.I.I.I.m.M.I.I.I.B.i.i.J.I.I.i.i.B.I.I.D.i.i.i.i.i.i.i.i.i.i.i.i.i.i.i.i.i.i.L.I.I.N.i.i.K.I.I.N.i.i.i.i.i.i.i.i.i.i.i.i.i.i.i.i.i.i.i.i.i.i.i.i.i.i.i.i.i.i.i.i.i.u u u u u u u u u i.i.i.i.i.i.i.i.i.i.i.i.i.i.i.i.i.i.i.N.i.i.i.i.M.I.I.P.i.i.i.i.i.I.I.I.i.i.i.i.M.I.I.I.I.I.I.I.I.I.m.M.I.I.I.B.i.i.J.I.I.i.i.B.I.I.D.i.i.i.i.i.i.i.i.i.i.i.i.i.i.i.i.i.i.i.i.G.I.I.D.i.i.i.i.i.i.i.i.i.i.i.i.i.i.i.i.i.i.",
"i.i.i.i.i.i.i.K O.@ 2 2 ..7.[ [ 7.4 @ @ O.2.,.i.i.i.i.i.i.u u u u u u u u u i.i.i.i.i.i.i.i.i.i.i.i.i.i.i.i.i.i.i.i.i.i.i.i.i.i.i.i.i.i.i.i.i.i.i.J.I.J.G.G.L.I.I.L.i.i.i.i.i.J.I.I.B.i.i.i.N.I.I.H.B.B.B.F.I.I.G.i.V.I.I.I.K.H.L.I.I.B.i.i.I.I.P.J.J.J.J.F.i.i.i.i.i.i.i.i.i.i.i.i.i.D.I.I.P.D.J.I.I.J.i.i.i.i.i.i.i.i.i.i.i.i.i.i.i.i.i.i.i.i.i.i.i.i.i.i.i.i.i.i.i.i.i.i.i.u u u u u u u u i.i.i.i.i.i.i.i.i.i.i.i.i.i.i.i.i.i.i.i.i.i.i.i.i.i.i.i.i.i.i.i.i.i.i.i.i.i.i.i.i.i.i.i.i.i.i.i.i.i.i.i.i.i.i.D.I.K.H.F.K.I.I.I.M.i.i.i.i.D.I.I.D.i.i.i.i.P.I.L.B.B.B.S.I.I.L.i.M.P.I.I.L.H.K.I.I.D.i.i.J.I.I.J.J.J.J.J.i.i.i.i.i.i.i.i.i.i.i.i.i.i.J.J.J.I.I.P.J.J.S.i.i.i.i.i.i.i.i.i.i.i.i.i.i.i.i.i.i.i.i.i.i.i.i.i.i.i.i.i.i.i.i.i.i.i.i.i.i.i.i.i.i.i.i.i.i.i.i.i.i.i.i.u u u u u u u u u i.i.i.i.i.i.i.i.i.i.i.i.i.i.i.i.i.i.i.i.i.i.i.i.i.i.i.i.i.i.i.i.i.i.i.i.i.i.i.i.i.i.i.i.i.i.i.i.i.i.i.i.i.i.i.B.I.L.J.D.J.I.I.I.S.i.i.i.i.B.I.I.J.i.i.i.i.H.I.I.V.B.B.B.P.I.I.M.i.K.I.I.P.J.H.I.I.J.i.i.D.I.I.K.J.J.J.J.N.i.i.i.i.i.i.i.i.i.i.i.i.i.L.I.I.I.J.J.J.J.F.i.i.i.i.i.i.i.i.i.i.i.i.i.i.i.i.i.i.i.i.i.i.i.i.i.i.i.i.i.i.i.i.i.i.i.i.i.i.i.i.i.i.i.i.i.i.i.i.i.i.i.u u u u u u u u u i.i.i.i.i.i.i.i.i.i.y.q.w.* < < + % i.i.i.i.i.i.i.i.i.i.i.i.u u u u u u u u i.i.i.i.i.i.i.i.i.i.i.i.i.i.i.i.i.i.i.i.i.i.i.i.i.i.i.i.i.i.i.i.i.i.B.I.L.J.D.J.I.I.I.S.i.i.i.i.B.I.I.J.i.i.i.i.H.I.I.V.B.B.B.P.I.I.M.i.K.I.I.P.J.H.I.I.J.i.i.D.I.I.K.J.J.J.J.N.i.i.i.i.i.i.i.i.i.i.i.i.i.i.i.i.i.B.I.I.D.i.i.i.i.i.i.i.i.i.i.i.i.i.i.i.i.i.i.i.i.i.i.i.i.i.i.i.i.i.i.i.i.i.i.i.u u u u u u u u u i.i.i.i.i.i.i.i.i.i.i.i.S.I.I.P.i.i.i.i.i.i.i.i.i.i.i.i.i.u u u u u u u u u i.i.i.i.i.i.i.i.i.i.i.i.i.i.i.i.i.i.i.i.i.i.i.i.i.i.i.i.i.i.i.i.i.i.i.I.P.J.F.H.P.I.I.G.i.i.i.i.i.I.I.I.i.i.i.i.D.I.I.D.B.B.B.J.I.I.S.i.F.I.I.I.J.H.P.I.I.i.i.B.I.I.L.J.J.J.J.S.i.i.i.i.i.i.i.i.i.i.i.i.i.D.I.I.L.D.J.I.I.K.i.i.i.i.i.i.i.i.i.i.i.i.i.i.i.i.i.i.i.i.i.i.i.i.i.i.i.i.i.i.i.i.i.i.u u u u u u u u u i.i.i.i.i.i.i.i.i.i.i.i.i.i.i.i.i.i.i.I.P.J.F.H.P.I.I.G.i.i.i.i.i.I.I.I.i.i.i.i.D.I.I.D.B.B.B.J.I.I.S.i.F.I.I.I.J.H.P.I.I.i.i.B.I.I.L.J.J.J.J.S.i.i.i.i.i.i.i.i.i.i.i.i.i.i.B.I.I.P.m.i.i.i.i.i.i.i.i.i.i.i.i.i.i.i.i.i.i.",
"i.i.i.i.i.i.i.,.L :.<.>.+.+.8.8.+.+.<.3.:.Q Z.i.i.i.i.i.i.u u u u u u u u u i.i.i.i.i.i.i.i.i.i.i.i.i.i.i.i.i.i.i.i.i.i.i.i.i.i.i.i.i.i.i.i.i.i.i.J.I.I.I.I.I.I.J.N.i.i.i.i.i.J.I.I.B.i.i.i.F.I.I.V.i.i.i.M.I.I.P.i.i.S.P.I.I.I.I.I.I.N.i.i.I.I.I.I.I.I.I.J.i.i.i.i.i.i.i.i.i.i.i.i.i.i.F.I.I.I.I.I.J.m.i.i.i.i.i.i.i.i.i.i.i.i.i.i.i.i.i.i.i.i.i.i.i.i.i.i.i.i.i.i.i.i.i.i.i.u u u u u u u u i.i.i.i.i.i.i.i.i.i.i.i.i.i.i.i.i.i.i.i.i.i.i.i.i.i.i.i.i.i.i.i.i.i.i.i.i.i.i.i.i.i.i.i.i.i.i.i.i.i.i.i.i.i.i.D.I.I.I.I.I.I.L.V.i.i.i.i.i.D.I.I.D.i.i.i.V.I.I.F.i.i.i.i.L.I.I.N.i.N.L.I.I.I.I.I.I.D.i.i.J.I.I.I.I.I.I.I.i.i.i.i.i.i.i.i.i.i.i.i.i.i.I.I.I.I.I.I.I.I.D.i.i.i.i.i.i.i.i.i.i.i.i.i.i.i.i.i.i.i.i.i.i.i.i.i.i.i.i.i.i.i.i.i.i.i.i.i.i.i.i.i.i.i.i.i.i.i.i.i.i.i.i.u u u u u u u u u i.i.i.i.i.i.i.i.i.i.i.i.i.i.i.i.i.i.i.i.i.i.i.i.i.i.i.i.i.i.i.i.i.i.i.i.i.i.i.i.i.i.i.i.i.i.i.i.i.i.i.i.i.i.i.B.I.I.I.I.I.I.P.D.i.i.i.i.i.B.I.I.J.i.i.i.m.I.I.K.i.i.i.i.G.I.I.D.i.m.J.I.I.I.I.I.I.H.i.i.D.I.I.I.I.I.I.I.B.i.i.i.i.i.i.i.i.i.i.i.i.i.I.I.I.I.I.I.I.I.J.i.i.i.i.i.i.i.i.i.i.i.i.i.i.i.i.i.i.i.i.i.i.i.i.i.i.i.i.i.i.i.i.i.i.i.i.i.i.i.i.i.i.i.i.i.i.i.i.i.i.i.u u u u u u u u u i.i.i.i.i.i.i.i.i.i.i.i.i.- < < & i.i.i.i.i.i.i.i.i.i.i.i.i.u u u u u u u u i.i.i.i.i.i.i.i.i.i.i.i.i.i.i.i.i.i.i.i.i.i.i.i.i.i.i.i.i.i.i.i.i.i.B.I.I.I.I.I.I.P.D.i.i.i.i.i.B.I.I.J.i.i.i.m.I.I.K.i.i.i.i.G.I.I.D.i.m.J.I.I.I.I.I.I.H.i.i.D.I.I.I.I.I.I.I.B.i.i.i.i.i.i.i.i.i.i.i.i.i.i.i.i.i.B.I.I.D.i.i.i.i.i.i.i.i.i.i.i.i.i.i.i.i.i.i.i.i.i.i.i.i.i.i.i.i.i.i.i.i.i.i.i.u u u u u u u u u i.i.i.i.i.i.i.i.i.i.i.i.S.I.I.P.i.i.i.i.i.i.i.i.i.i.i.i.i.u u u u u u u u u i.i.i.i.i.i.i.i.i.i.i.i.i.i.i.i.i.i.i.i.i.i.i.i.i.i.i.i.i.i.i.i.i.i.i.I.I.I.I.I.I.I.G.m.i.i.i.i.i.I.I.I.i.i.i.i.K.I.I.m.i.i.i.S.I.I.H.i.i.F.I.I.I.I.I.I.P.i.i.B.I.I.I.I.I.I.I.D.i.i.i.i.i.i.i.i.i.i.i.i.i.i.G.I.I.I.I.I.J.m.i.i.i.i.i.i.i.i.i.i.i.i.i.i.i.i.i.i.i.i.i.i.i.i.i.i.i.i.i.i.i.i.i.i.u u u u u u u u u i.i.i.i.i.i.i.i.i.i.i.i.i.i.i.i.i.i.i.I.I.I.I.I.I.I.G.m.i.i.i.i.i.I.I.I.i.i.i.i.K.I.I.m.i.i.i.S.I.I.H.i.i.F.I.I.I.I.I.I.P.i.i.B.I.I.I.I.I.I.I.D.i.i.i.i.i.i.i.i.i.i.i.i.i.i.J.I.I.D.i.i.i.i.i.i.i.i.i.i.i.i.i.i.i.i.i.i.i.",
"i.i.i.i.i.i.i.f.,.-.L L %.%.I %.I %.H U ^ @.i.i.i.i.i.i.i.u u u u u u u u u i.i.i.i.i.i.i.i.i.i.i.i.i.i.i.i.i.i.i.i.i.i.i.i.i.i.i.i.i.i.i.i.i.i.i.m.B.D.D.D.S.N.i.i.i.i.i.i.i.N.B.B.m.i.i.i.N.B.B.i.i.i.i.i.B.B.B.i.i.i.i.B.D.D.D.B.m.i.i.i.B.B.B.B.B.B.B.N.i.i.i.i.i.i.i.i.i.i.i.i.i.i.i.M.S.D.D.N.i.i.i.i.i.i.i.i.i.i.i.i.i.i.i.i.i.i.i.i.i.i.i.i.i.i.i.i.i.i.i.i.i.i.i.i.i.u u u u u u u u i.i.i.i.i.i.i.i.i.i.i.i.i.i.i.i.i.i.i.i.i.i.i.i.i.i.i.i.i.i.i.i.i.i.i.i.i.i.i.i.i.i.i.i.i.i.i.i.i.i.i.i.i.i.i.i.B.S.D.D.D.B.i.i.i.i.i.i.i.M.B.B.M.i.i.i.M.B.B.m.i.i.i.i.N.B.B.m.i.i.i.N.D.D.D.V.M.i.i.i.N.B.B.B.B.B.B.B.i.i.i.i.i.i.i.i.i.i.i.i.i.i.B.B.B.B.B.B.B.B.M.i.i.i.i.i.i.i.i.i.i.i.i.i.i.i.i.i.i.i.i.i.i.i.i.i.i.i.i.i.i.i.i.i.i.i.i.i.i.i.i.i.i.i.i.i.i.i.i.i.i.i.i.u u u u u u u u u i.i.i.i.i.i.i.i.i.i.i.i.i.i.i.i.i.i.i.i.i.i.i.i.i.i.i.i.i.i.i.i.i.i.i.i.i.i.i.i.i.i.i.i.i.i.i.i.i.i.i.i.i.i.i.i.N.V.D.D.D.B.m.i.i.i.i.i.i.m.B.B.N.i.i.i.m.B.B.M.i.i.i.i.M.B.B.M.i.i.i.M.S.D.D.S.N.i.i.i.M.B.B.B.B.B.B.B.m.i.i.i.i.i.i.i.i.i.i.i.i.i.B.B.B.B.B.B.B.B.N.i.i.i.i.i.i.i.i.i.i.i.i.i.i.i.i.i.i.i.i.i.i.i.i.i.i.i.i.i.i.i.i.i.i.i.i.i.i.i.i.i.i.i.i.i.i.i.i.i.i.i.u u u u u u u u u i.i.i.i.i.i.i.i.i.i.i.i.i.= < < a.i.i.i.i.i.i.i.i.i.i.i.i.i.u u u u u u u u i.i.i.i.i.i.i.i.i.i.i.i.i.i.i.i.i.i.i.i.i.i.i.i.i.i.i.i.i.i.i.i.i.i.i.N.V.D.D.D.B.m.i.i.i.i.i.i.m.B.B.N.i.i.i.m.B.B.M.i.i.i.i.M.B.B.M.i.i.i.M.S.D.D.S.N.i.i.i.M.B.B.B.B.B.B.B.m.i.i.i.i.i.i.i.i.i.i.i.i.i.i.i.i.i.m.B.B.M.i.i.i.i.i.i.i.i.i.i.i.i.i.i.i.i.i.i.i.i.i.i.i.i.i.i.i.i.i.i.i.i.i.i.i.u u u u u u u u u i.i.i.i.i.i.i.i.i.i.i.i.i.S.D.M.i.i.i.i.i.i.i.i.i.i.i.i.i.u u u u u u u u u i.i.i.i.i.i.i.i.i.i.i.i.i.i.i.i.i.i.i.i.i.i.i.i.i.i.i.i.i.i.i.i.i.i.i.M.B.D.D.D.V.M.i.i.i.i.i.i.i.B.B.B.i.i.i.i.B.B.N.i.i.i.i.m.B.B.N.i.i.i.m.V.D.D.D.B.i.i.i.m.B.B.B.B.B.B.B.M.i.i.i.i.i.i.i.i.i.i.i.i.i.i.i.N.D.D.D.N.i.i.i.i.i.i.i.i.i.i.i.i.i.i.i.i.i.i.i.i.i.i.i.i.i.i.i.i.i.i.i.i.i.i.i.i.u u u u u u u u u i.i.i.i.i.i.i.i.i.i.i.i.i.i.i.i.i.i.i.M.B.D.D.D.V.M.i.i.i.i.i.i.i.B.B.B.i.i.i.i.B.B.N.i.i.i.i.m.B.B.N.i.i.i.m.V.D.D.D.B.i.i.i.m.B.B.B.B.B.B.B.M.i.i.i.i.i.i.i.i.i.i.i.i.i.i.B.B.B.i.i.i.i.i.i.i.i.i.i.i.i.i.i.i.i.i.i.i.i.",
"i.i.i.i.i.i.i.i.i.C.1.6.-.-.-.-.-.-.;.1.b.i.i.i.i.i.y.i.i.u u u u u u u u u i.i.i.i.i.i.i.i.i.i.i.i.i.i.i.i.i.i.i.i.i.i.i.i.i.i.i.i.i.i.i.i.i.i.i.i.i.i.i.i.i.i.i.i.i.i.i.i.i.i.i.i.i.i.i.i.i.i.i.i.i.i.i.i.i.i.i.i.i.i.i.i.i.i.i.i.i.i.i.i.i.i.i.i.i.i.i.i.i.i.i.i.i.i.i.i.i.i.i.i.i.i.i.i.i.i.i.i.i.i.i.i.i.i.i.i.i.i.i.i.i.i.i.i.i.i.i.i.i.i.i.i.i.i.i.i.i.i.i.i.i.i.i.i.i.u u u u u u u u i.i.i.i.i.i.i.i.i.i.i.i.i.i.i.i.i.i.i.i.i.i.i.i.i.i.i.i.i.i.i.i.i.i.i.i.i.i.i.i.i.i.i.i.i.i.i.i.i.i.i.i.i.i.i.i.i.i.i.i.i.i.i.i.i.i.i.i.i.i.i.i.i.i.i.i.i.i.i.i.i.i.i.i.i.i.i.i.i.i.i.i.i.i.i.i.i.i.i.i.i.i.i.i.i.i.i.i.i.i.i.i.i.i.i.i.i.i.i.i.i.i.i.i.i.i.i.i.i.i.i.i.i.i.i.i.i.i.i.i.i.i.i.i.i.i.i.i.i.i.i.i.i.i.i.i.i.i.i.i.i.i.i.i.i.i.i.i.i.i.i.i.i.i.i.i.i.i.i.i.i.i.i.u u u u u u u u u i.i.i.i.i.i.i.i.i.i.i.i.i.i.i.i.i.i.i.i.i.i.i.i.i.i.i.i.i.i.i.i.i.i.i.i.i.i.i.i.i.i.i.i.i.i.i.i.i.i.i.i.i.i.i.i.i.i.i.i.i.i.i.i.i.i.i.i.i.i.i.i.i.i.i.i.i.i.i.i.i.i.i.i.i.i.i.i.i.i.i.i.i.i.i.i.i.i.i.i.i.i.i.i.i.i.i.i.i.i.i.i.i.i.i.i.i.i.i.i.i.i.i.i.i.i.i.i.i.i.i.i.i.i.i.i.i.i.i.i.i.i.i.i.i.i.i.i.i.i.i.i.i.i.i.i.i.i.i.i.i.i.i.i.i.i.i.i.i.i.i.i.i.i.i.i.i.i.i.i.i.i.u u u u u u u u u i.i.i.i.i.i.i.i.i.i.i.i.i.= < @ a.i.i.i.i.i.i.i.i.i.i.i.i.i.u u u u u u u u i.i.i.i.i.i.i.i.i.i.i.i.i.i.i.i.i.i.i.i.i.i.i.i.i.i.i.i.i.i.i.i.i.i.i.i.i.i.i.i.i.i.i.i.i.i.i.i.i.i.i.i.i.i.i.i.i.i.i.i.i.i.i.i.i.i.i.i.i.i.i.i.i.i.i.i.i.i.i.i.i.i.i.i.i.i.i.i.i.i.i.i.i.i.i.i.i.i.i.i.i.i.i.i.i.i.i.i.i.i.i.i.i.i.i.i.i.i.i.i.i.i.i.i.i.i.i.i.i.i.i.i.i.i.i.i.i.i.i.i.i.i.i.i.u u u u u u u u u i.i.i.i.i.i.i.i.i.i.i.i.i.i.i.i.i.i.i.i.i.i.i.i.i.i.i.i.i.u u u u u u u u u i.i.i.i.i.i.i.i.i.i.i.i.i.i.i.i.i.i.i.i.i.i.i.i.i.i.i.i.i.i.i.i.i.i.i.i.i.i.i.i.i.i.i.i.i.i.i.i.i.i.i.i.i.i.i.i.i.i.i.i.i.i.i.i.i.i.i.i.i.i.i.i.i.i.i.i.i.i.i.i.i.i.i.i.i.i.i.i.i.i.i.i.i.i.i.i.i.i.i.i.i.i.i.i.i.i.i.i.i.i.i.i.i.i.i.i.i.i.i.i.i.i.i.i.i.i.i.i.i.i.i.i.i.i.i.i.i.i.i.i.i.i.i.i.u u u u u u u u u i.i.i.i.i.i.i.i.i.i.i.i.i.i.i.i.i.i.i.i.i.i.i.i.i.i.i.i.i.i.i.i.i.i.i.i.i.i.i.i.i.i.i.i.i.i.i.i.i.i.i.i.i.i.i.i.i.i.i.i.i.i.i.i.i.i.i.i.i.i.i.i.i.i.i.i.i.i.i.i.i.i.i.i.i.i.i.i.i.i.i.i.i.i.i.i.i.i.i.i.i.i.i.i.i.i.i.i.i.",
"i.i.i.i.i.i.i.i.i.i.y.i.f.b.b.b.b.g.i.i.i.i.i.i.i.i.i.i.i.u u u u u u u u u i.i.i.i.i.i.i.i.i.i.i.i.i.i.i.i.i.i.i.i.i.i.i.i.i.i.i.i.i.i.i.i.i.i.i.i.i.i.i.i.i.i.i.i.i.i.i.i.i.i.i.i.i.i.i.i.i.i.i.i.i.i.i.i.i.i.i.i.i.i.i.i.i.i.i.i.i.i.i.i.i.i.i.i.i.i.i.i.i.i.i.i.i.i.i.i.i.i.i.i.i.i.i.i.i.i.i.i.i.i.i.i.i.i.i.i.i.i.i.i.i.i.i.i.i.i.i.i.i.i.i.i.i.i.i.i.i.i.i.i.i.i.i.i.i.u u u u u u u u i.i.i.i.i.i.i.i.i.i.i.i.i.i.i.i.i.i.i.i.i.i.i.i.i.i.i.i.i.i.i.i.i.i.i.i.i.i.i.i.i.i.i.i.i.i.i.i.i.i.i.i.i.i.i.i.i.i.i.i.i.i.i.i.i.i.i.i.i.i.i.i.i.i.i.i.i.i.i.i.i.i.i.i.i.i.i.i.i.i.i.i.i.i.i.i.i.i.i.i.i.i.i.i.i.i.i.i.i.i.i.i.i.i.i.i.i.i.i.i.i.i.i.i.i.i.i.i.i.i.i.i.i.i.i.i.i.i.i.i.i.i.i.i.i.i.i.i.i.i.i.i.i.i.i.i.i.i.i.i.i.i.i.i.i.i.i.i.i.i.i.i.i.i.i.i.i.i.i.i.i.i.i.u u u u u u u u u i.i.i.i.i.i.i.i.i.i.i.i.i.i.i.i.i.i.i.i.i.i.i.i.i.i.i.i.i.i.i.i.i.i.i.i.i.i.i.i.i.i.i.i.i.i.i.i.i.i.i.i.i.i.i.i.i.i.i.i.i.i.i.i.i.i.i.i.i.i.i.i.i.i.i.i.i.i.i.i.i.i.i.i.i.i.i.i.i.i.i.i.i.i.i.i.i.i.i.i.i.i.i.i.i.i.i.i.i.i.i.i.i.i.i.i.i.i.i.i.i.i.i.i.i.i.i.i.i.i.i.i.i.i.i.i.i.i.i.i.i.i.i.i.i.i.i.i.i.i.i.i.i.i.i.i.i.i.i.i.i.i.i.i.i.i.i.i.i.i.i.i.i.i.i.i.i.i.i.i.i.i.u u u u u u u u u i.i.i.i.i.i.i.i.i.i.i.i.i.j.h.h.p.i.i.i.i.i.i.i.i.i.i.i.i.i.u u u u u u u u i.i.i.i.i.i.i.i.i.i.i.i.i.i.i.i.i.i.i.i.i.i.i.i.i.i.i.i.i.i.i.i.i.i.i.i.i.i.i.i.i.i.i.i.i.i.i.i.i.i.i.i.i.i.i.i.i.i.i.i.i.i.i.i.i.i.i.i.i.i.i.i.i.i.i.i.i.i.i.i.i.i.i.i.i.i.i.i.i.i.i.i.i.i.i.i.i.i.i.i.i.i.i.i.i.i.i.i.i.i.i.i.i.i.i.i.i.i.i.i.i.i.i.i.i.i.i.i.i.i.i.i.i.i.i.i.i.i.i.i.i.i.i.i.u u u u u u u u u i.i.i.i.i.i.i.i.i.i.i.i.i.i.i.i.i.i.i.i.i.i.i.i.i.i.i.i.i.u u u u u u u u u i.i.y.i.i.i.i.i.i.i.i.i.i.i.i.i.i.i.i.i.i.i.i.i.i.i.i.i.i.i.i.i.i.i.i.i.i.i.i.i.i.i.i.i.i.i.i.i.i.i.i.i.i.i.i.i.i.i.i.i.i.i.i.i.i.i.i.i.i.i.i.i.i.i.i.i.i.i.i.i.i.i.i.i.i.i.i.i.i.i.i.i.i.i.i.i.i.i.i.i.i.i.i.i.i.i.i.i.i.i.i.i.i.i.i.i.i.i.i.i.i.i.i.i.i.i.i.i.i.i.i.i.i.i.i.i.i.i.i.i.i.i.i.i.u u u u u u u u u i.i.i.i.i.i.i.i.i.i.i.i.i.i.i.i.i.i.i.i.i.i.i.i.i.i.i.i.i.i.i.i.i.i.i.i.i.i.i.i.i.i.i.i.i.i.i.i.i.i.i.i.i.i.i.i.i.i.i.i.i.i.i.i.i.i.i.i.i.i.i.i.i.i.i.i.i.i.i.i.i.i.i.i.i.i.i.i.i.i.i.i.i.i.i.i.i.i.i.i.i.i.i.i.i.i.i.i.i.",
"i.i.i.i.i.i.i.i.i.i.i.i.i.i.i.i.i.i.i.i.i.i.i.i.i.i.i.i.i.u u u u u u u u u i.i.i.i.i.i.i.i.i.i.i.i.i.i.i.i.i.i.i.i.i.i.i.i.i.i.i.i.i.i.i.i.i.i.i.i.i.i.i.i.i.i.i.i.i.i.i.i.i.i.i.i.i.i.i.i.i.i.i.i.i.i.i.i.i.i.i.i.i.i.i.i.i.i.i.i.i.i.i.i.i.i.i.i.i.i.i.i.i.i.i.i.i.i.i.i.i.i.i.i.i.i.i.i.i.i.i.i.i.i.i.i.i.i.i.i.i.i.i.i.i.i.i.i.i.i.i.i.i.i.i.i.i.i.i.i.i.i.i.i.i.i.i.i.i.u u u u u u u u i.i.i.i.i.i.i.i.i.i.i.i.i.i.i.i.i.i.i.i.i.i.i.i.i.i.i.i.i.i.i.i.i.i.i.i.i.i.i.i.i.i.i.i.i.i.i.i.i.i.i.i.i.i.i.i.i.i.i.i.i.i.i.i.i.i.i.i.i.i.i.i.i.i.i.i.i.i.i.i.i.i.i.i.i.i.i.i.i.i.i.i.i.i.i.i.i.i.i.i.i.i.i.i.i.i.i.i.i.i.i.i.i.i.i.i.i.i.i.i.i.i.i.i.i.i.i.i.i.i.i.i.i.i.i.i.i.i.i.i.i.i.i.i.i.i.i.i.i.i.i.i.i.i.i.i.i.i.i.i.i.i.i.i.i.i.i.i.i.i.i.i.i.i.i.i.i.i.i.i.i.i.i.u u u u u u u u u i.i.i.i.i.i.i.i.i.i.i.i.i.i.i.i.i.i.i.i.i.i.i.i.i.i.i.i.i.i.i.i.i.i.i.i.i.i.i.i.i.i.i.i.i.i.i.i.i.i.i.i.i.i.i.i.i.i.i.i.i.i.i.i.i.i.i.i.i.i.i.i.i.i.i.i.i.i.i.i.i.i.i.i.i.i.i.i.i.i.i.i.i.i.i.i.i.i.i.i.i.i.i.i.i.i.i.i.i.i.i.i.i.i.i.i.i.i.i.i.i.i.i.i.i.i.i.i.i.i.i.i.i.i.i.i.i.i.i.i.i.i.i.i.i.i.i.i.i.i.i.i.i.i.i.i.i.i.i.i.i.i.i.i.i.i.i.i.i.i.i.i.i.i.i.i.i.i.i.i.i.i.u u u u u u u u u i.i.i.i.i.i.i.i.i.i.i.i.i.i.i.i.i.i.i.i.i.i.i.i.i.i.i.i.i.i.u u u u u u u u i.i.i.i.i.i.i.i.i.i.i.i.i.i.i.i.i.i.i.i.i.i.i.i.i.i.i.i.i.i.i.i.i.i.i.i.i.i.i.i.i.i.i.i.i.i.i.i.i.i.i.i.i.i.i.i.i.i.i.i.i.i.i.i.i.i.i.i.i.i.i.i.i.i.i.i.i.i.i.i.i.i.i.i.i.i.i.i.i.i.i.i.i.i.i.i.i.i.i.i.i.i.i.i.i.i.i.i.i.i.i.i.i.i.i.i.i.i.i.i.i.i.i.i.i.i.i.i.i.i.i.i.i.i.i.i.i.i.i.i.i.i.i.i.u u u u u u u u u i.i.i.i.i.i.i.i.i.i.i.i.i.i.i.i.i.i.i.i.i.i.i.i.i.i.i.i.i.u u u u u u u u u i.i.i.i.i.i.i.i.i.i.i.i.i.i.i.i.i.i.i.i.i.i.i.i.i.i.i.i.i.i.i.i.i.i.i.i.i.i.i.i.i.i.i.i.i.i.i.i.i.i.i.i.i.i.i.i.i.i.i.i.i.i.i.i.i.i.i.i.i.i.i.i.i.i.i.i.i.i.i.i.i.i.i.i.i.i.i.i.i.i.i.i.i.i.i.i.i.i.i.i.i.i.i.i.i.i.i.i.i.i.i.i.i.i.i.i.i.i.i.i.i.i.i.i.i.i.i.i.i.i.i.i.i.i.i.i.i.i.i.i.i.i.i.i.u u u u u u u u u i.i.i.i.i.i.i.i.i.i.i.i.i.i.i.i.i.i.i.i.i.i.i.i.i.i.i.i.i.i.i.i.i.i.i.i.i.i.i.i.i.i.i.i.i.i.i.i.i.i.i.i.i.i.i.i.i.i.i.i.i.i.i.i.i.i.i.i.i.i.i.i.i.i.i.i.i.i.i.i.i.i.i.i.i.i.i.i.i.i.i.i.i.i.i.i.i.i.i.i.i.i.i.i.i.i.i.i.i.",
"i.i.i.i.i.i.i.i.i.i.i.i.i.i.i.i.i.i.i.i.i.i.i.i.i.i.i.i.i.u u u u u u u u u i.i.i.i.i.i.i.i.i.i.i.i.i.i.i.i.i.i.i.i.i.i.i.i.i.i.i.i.i.i.i.i.i.i.i.i.i.i.i.i.i.i.i.i.i.i.i.i.i.i.i.i.i.i.i.i.i.i.i.i.i.i.i.i.i.i.i.i.i.i.i.i.i.i.i.i.i.i.i.i.i.i.i.i.i.i.i.i.i.i.i.i.i.i.i.i.i.i.i.i.i.i.i.i.i.i.i.i.i.i.i.i.i.i.i.i.i.i.i.i.i.i.i.i.i.i.i.i.i.i.i.i.i.i.i.i.i.i.i.i.i.i.i.i.i.u u u u u u u u i.i.i.i.i.i.i.i.i.i.i.i.i.i.i.i.i.i.i.i.i.i.i.i.i.i.i.i.i.i.i.i.i.i.i.i.i.i.i.i.i.i.i.i.i.i.i.i.i.i.i.i.i.i.i.i.i.i.i.i.i.i.i.i.i.i.i.i.i.i.i.i.i.i.i.i.i.i.i.i.i.i.i.i.i.i.i.i.i.i.i.i.i.i.i.i.i.i.i.i.i.i.i.i.i.i.i.i.i.i.i.i.i.i.i.i.i.i.i.i.i.i.i.i.i.i.i.i.i.i.i.i.i.i.i.i.i.i.i.i.i.i.i.i.i.i.i.i.i.i.i.i.i.i.i.i.i.i.i.i.i.i.i.i.i.i.i.i.i.i.i.i.i.i.i.i.i.i.i.i.i.i.i.u u u u u u u u u i.i.i.i.i.i.i.i.i.i.i.i.i.i.i.i.i.i.i.i.i.i.i.i.i.i.i.i.i.i.i.i.i.i.i.i.i.i.i.i.i.i.i.i.i.i.i.i.i.i.i.i.i.i.i.i.i.i.i.i.i.i.i.i.i.i.i.i.i.i.i.i.i.i.i.i.i.i.i.i.i.i.i.i.i.i.i.i.i.i.i.i.i.i.i.i.i.i.i.i.i.i.i.i.i.i.i.i.i.i.i.i.i.i.i.i.i.i.i.i.i.i.i.i.i.i.i.i.i.i.i.i.i.i.i.i.i.i.i.i.i.i.i.i.i.i.i.i.i.i.i.i.i.i.i.i.i.i.i.i.i.i.i.i.i.i.i.i.i.i.i.i.i.i.i.i.i.i.i.i.i.i.u u u u u u u u u i.i.i.i.i.i.i.i.i.i.i.i.i.i.i.i.i.i.i.i.i.i.i.i.i.i.i.i.i.i.u u u u u u u u i.i.i.i.i.i.i.i.i.i.i.i.i.i.i.i.i.i.i.i.i.i.i.i.i.i.i.i.i.i.i.i.i.i.i.i.i.i.i.i.i.i.i.i.i.i.i.i.i.i.i.i.i.i.i.i.i.i.i.i.i.i.i.i.i.i.i.i.i.i.i.i.i.i.i.i.i.i.i.i.i.i.i.i.i.i.i.i.i.i.i.i.i.i.i.i.i.i.i.i.i.i.i.i.i.i.i.i.i.i.i.i.i.i.i.i.i.i.i.i.i.i.i.i.i.i.i.i.i.i.i.i.i.i.i.i.i.i.i.i.i.i.i.i.u u u u u u u u u i.i.i.i.i.i.i.i.i.i.i.i.i.i.i.i.i.i.i.i.i.i.i.i.i.i.i.i.i.u u u u u u u u u i.i.i.i.i.i.i.i.i.i.i.i.i.i.i.i.i.i.i.i.i.i.i.i.i.i.i.i.i.i.i.i.i.i.i.i.i.i.i.i.i.i.i.i.i.i.i.i.i.i.i.i.i.i.i.i.i.i.i.i.i.i.i.i.i.i.i.i.i.i.i.i.i.i.i.i.i.i.i.i.i.i.i.i.i.i.i.i.i.i.i.i.i.i.i.i.i.i.i.i.i.i.i.i.i.i.i.i.i.i.i.i.i.i.i.i.i.i.i.i.i.i.i.i.i.i.i.i.i.i.i.i.i.i.i.i.i.i.i.i.i.i.i.i.u u u u u u u u u i.i.i.i.i.i.i.i.i.i.i.i.i.i.i.i.i.i.i.i.i.i.i.i.i.i.i.i.i.i.i.i.i.i.i.i.i.i.i.i.i.i.i.i.i.i.i.i.i.i.i.i.i.i.i.i.i.i.i.i.i.i.i.i.i.i.i.i.i.i.i.i.i.i.i.i.i.i.i.i.i.i.i.i.i.i.i.i.i.i.i.i.i.i.i.i.i.i.i.i.i.i.i.i.i.i.i.i.i.",
"i.i.i.i.i.i.i.i.i.i.i.i.i.i.i.i.i.i.i.i.i.i.i.i.i.i.i.i.i.u u u u u u u u u i.i.i.i.i.i.i.i.i.i.i.i.i.i.i.i.i.i.i.i.i.i.i.i.i.i.i.i.i.i.i.i.i.i.i.i.i.i.i.i.i.i.i.i.i.i.i.i.i.i.i.i.i.i.i.i.i.i.i.i.i.i.i.i.i.i.i.i.i.i.i.i.i.i.i.i.i.i.i.i.i.i.i.i.i.i.i.i.i.i.i.i.i.i.i.i.i.i.i.i.i.i.i.i.i.i.i.i.i.i.i.i.i.i.i.i.i.i.i.i.i.i.i.i.i.i.i.i.i.i.i.i.i.i.i.i.i.i.i.i.i.i.i.i.i.u u u u u u u u i.i.i.i.i.i.i.i.i.i.i.i.i.i.i.i.i.i.i.i.i.i.i.i.i.i.i.i.i.i.i.i.i.i.i.i.i.i.i.i.i.i.i.i.i.i.i.i.i.i.i.i.i.i.i.i.i.i.i.i.i.i.i.i.i.i.i.i.i.i.i.i.i.i.i.i.i.i.i.i.i.i.i.i.i.i.i.i.i.i.i.i.i.i.i.i.i.i.i.i.i.i.i.i.i.i.i.i.i.i.i.i.i.i.i.i.i.i.i.i.i.i.i.i.i.i.i.i.i.i.i.i.i.i.i.i.i.i.i.i.i.i.i.i.i.i.i.i.i.i.i.i.i.i.i.i.i.i.i.i.i.i.i.i.i.i.i.i.i.i.i.i.i.i.i.i.i.i.i.i.i.i.i.u u u u u u u u u i.i.i.i.i.i.i.i.i.i.i.i.i.i.i.i.i.i.i.i.i.i.i.i.i.i.i.i.i.i.i.i.i.i.i.i.i.i.i.i.i.i.i.i.i.i.i.i.i.i.i.i.i.i.i.i.i.i.i.i.i.i.i.i.i.i.i.i.i.i.i.i.i.i.i.i.i.i.i.i.i.i.i.i.i.i.i.i.i.i.i.i.i.i.i.i.i.i.i.i.i.i.i.i.i.i.i.i.i.i.i.i.i.i.i.i.i.i.i.i.i.i.i.i.i.i.i.i.i.i.i.i.i.i.i.i.i.i.i.i.i.i.i.i.i.i.i.i.i.i.i.i.i.i.i.i.i.i.i.i.i.i.i.i.i.i.i.i.i.i.i.i.i.i.i.i.i.i.i.i.i.i.u u u u u u u u u i.i.i.i.i.i.i.i.i.i.i.i.i.i.i.i.i.i.i.i.i.i.i.i.i.i.i.i.i.i.u u u u u u u u i.i.i.i.i.i.i.i.i.i.i.i.i.i.i.i.i.i.i.i.i.i.i.i.i.i.i.i.i.i.i.i.i.i.i.i.i.i.i.i.i.i.i.i.i.i.i.i.i.i.i.i.i.i.i.i.i.i.i.i.i.i.i.i.i.i.i.i.i.i.i.i.i.i.i.i.i.i.i.i.i.i.i.i.i.i.i.i.i.i.i.i.i.i.i.i.i.i.i.i.i.i.i.i.i.i.i.i.i.i.i.i.i.i.i.i.i.i.i.i.i.i.i.i.i.i.i.i.i.i.i.i.i.i.i.i.i.i.i.i.i.i.i.i.u u u u u u u u u i.i.i.i.i.i.i.i.i.i.i.i.i.i.i.i.i.i.i.i.i.i.i.i.i.i.i.i.i.u u u u u u u u u i.i.i.i.i.i.i.i.i.i.i.i.i.i.i.i.i.i.i.i.i.i.i.i.i.i.i.i.i.i.i.i.i.i.i.i.i.i.i.i.i.i.i.i.i.i.i.i.i.i.i.i.i.i.i.i.i.i.i.i.i.i.i.i.i.i.i.i.i.i.i.i.i.i.i.i.i.i.i.i.i.i.i.i.i.i.i.i.i.i.i.i.i.i.i.i.i.i.i.i.i.i.i.i.i.i.i.i.i.i.i.i.i.i.i.i.i.i.i.i.i.i.i.i.i.i.i.i.i.i.i.i.i.i.i.i.i.i.i.i.i.i.i.i.u u u u u u u u u i.i.i.i.i.i.i.i.i.i.i.i.i.i.i.i.i.i.i.i.i.i.i.i.i.i.i.i.i.i.i.i.i.i.i.i.i.i.i.i.i.i.i.i.i.i.i.i.i.i.i.i.i.i.i.i.i.i.i.i.i.i.i.i.i.i.i.i.i.i.i.i.i.i.i.i.i.i.i.i.i.i.i.i.i.i.i.i.i.i.i.i.i.i.i.i.i.i.i.i.i.i.i.i.i.i.i.i.i."
};
