/* XPM */
static char *_74729857d554a54e677865e1107e5d8B6EWvM2hWjiAecZy[] = {
/* columns rows colors chars-per-pixel */
"128 128 145 2 ",
"   c #030407",
".  c #0E1012",
"X  c #131315",
"o  c #18191C",
"O  c #312E2E",
"+  c #363433",
"@  c #514B4B",
"#  c #575051",
"$  c #5A5353",
"%  c #5F5B5A",
"&  c #635C5B",
"*  c #65615F",
"=  c #68605F",
"-  c #666362",
";  c #6A6261",
":  c #747575",
">  c #7B7473",
",  c #827778",
"<  c #857E7D",
"1  c #897F7F",
"2  c #86807E",
"3  c #89817F",
"4  c #877F81",
"5  c #887F80",
"6  c #878180",
"7  c #8B8482",
"8  c #8E8987",
"9  c #8A8D8D",
"0  c #908987",
"q  c #948C8B",
"w  c #96908F",
"e  c #98908F",
"r  c #998E90",
"t  c #8F9191",
"y  c #969090",
"u  c #9B9493",
"i  c #9E9998",
"p  c #A19896",
"a  c #A29C9B",
"s  c #A6A09F",
"d  c #A8A09E",
"f  c #9EA1A1",
"g  c #A6A3A1",
"h  c #ABA4A3",
"j  c #A7AAAA",
"k  c #AFABA9",
"l  c #B0A9A7",
"z  c #B1ABAA",
"x  c #AFB2B2",
"c  c #B3B6B6",
"v  c #B7BABA",
"b  c #B8BBBB",
"n  c #B8BCBC",
"m  c #B9BDBD",
"M  c #BBBEBE",
"N  c #BCBFBF",
"B  c #BCBEBE",
"V  c #BCC0C0",
"C  c #BDC1C1",
"Z  c #BEC1C1",
"A  c #BEC2C2",
"S  c #BFC2C2",
"D  c #C0C3C3",
"F  c #C1C3C3",
"G  c #C1C4C4",
"H  c #C2C4C4",
"J  c #C2C5C5",
"K  c #C2C6C6",
"L  c #C3C6C6",
"P  c #C3C7C7",
"I  c #C4C7C7",
"U  c #C2C6C6",
"Y  c #C4C8C8",
"T  c #C5C9C9",
"R  c #C6C9C9",
"E  c #C6CACA",
"W  c #C7CACA",
"Q  c #C7CBCB",
"!  c #C6C9C9",
"~  c #C8CCCC",
"^  c #C9CCCC",
"/  c #C9CDCD",
"(  c #CACDCD",
")  c #CACECE",
"_  c #CBCECE",
"`  c #CCCECE",
"'  c #CCCFCF",
"]  c #CDCFCF",
"[  c #CBCECE",
"{  c #CDD0D0",
"}  c #CED1D1",
"|  c #CED2D2",
" . c #CFD2D2",
".. c #CFD3D3",
"X. c #CED1D1",
"o. c #D0D4D4",
"O. c #D1D4D4",
"+. c #D1D5D5",
"@. c #D2D5D5",
"#. c #D2D6D6",
"$. c #D3D7D7",
"%. c #D4D7D7",
"&. c #D2D5D5",
"*. c #D4D8D8",
"=. c #D5D8D8",
"-. c #D5D9D9",
";. c #D6D9D9",
":. c #D7D9D9",
">. c #D7DADA",
",. c #D6D9D9",
"<. c #D8DADA",
"1. c #D8DBDB",
"2. c #D9DCDC",
"3. c #D9DDDD",
"4. c #DBDCDC",
"5. c #DADDDD",
"6. c #DADDDE",
"7. c #DADEDE",
"8. c #DBDEDE",
"9. c #DBDFDF",
"0. c #DCDFDF",
"q. c #DADDDD",
"w. c #DCE0E0",
"e. c #DDE0E0",
"r. c #DDE1E1",
"t. c #DEE0E0",
"y. c #DEE1E1",
"u. c #DFE1E1",
"i. c #DEE2E2",
"p. c #DFE2E2",
"a. c #DFE3E3",
"s. c #DEE1E1",
"d. c #E0E3E3",
"f. c #E1E3E3",
"g. c #E2E3E3",
"h. c #E0E4E4",
"j. c #E1E5E5",
"k. c #E2E5E5",
"l. c #E3E5E5",
"z. c #E5E6E6",
"x. c #E4E7E7",
"c. c #E2E5E5",
"v. c #E7E9E9",
"b. c #E5E8E8",
"n. c #EBEDED",
/* pixels */
":.:.2.' ' ' ..2.:.:.2.i.0.:.) ' $.%.$.2.:.:.2.2.2.2.:.2.2.:.:.:.:.$.2.:.2.:.:.:.2.2.2.i.2.) ' i.$.:.:.$...$.$.1.i.:.$.....' 1.2.1.2.$.N ) H :.:.$.*.i.d.2...Y :.2.1.$.$.1.:.:.:.%...$.:.' ..2.:.' %.i.i.1.:.:.:.1.2.2.2.:.2.2.:.$.2.i.i.i.%.:.i.:.:.:.1.:.:.2.:.",
"$...$.) ' ..2.2.$.$.:.1.2.$.) Z ) 2.2.2.:.d.i.i.$.:.:.:.2.$.) ..%.i.i.2.2.:.$.$.) $.:.$.2.2.) :.' ' ) $.:.) ..1.i.$.) $.2.2.2...) :.:...$.2...) ' :.1.2.0.1.:.2.2.1.2.%.$...' $.$.Y ) $.) Y $.$...:.$.:...1.0.2.1.:.1.:.) $.2.:.:.:.:.:...) 1.2.2.:...1.2.2.2.$.",
"$.) 1.1.) 1.2.2.0.2.%...1...1.Z Y :.1.2.2.2.2.:.2.2.2...:.$.$.%.:.2.i.2.2.2.) H ~ ' :.0.i.%.) ..) $...' Y ' :.) $.:.$.:.:.%.1.$.:.2.) Y i.i.:.2.2.:.2.:.0.2.2.1.2.:.$.%.' 2.1.:.H ' $.$.$.$.%.' :.1.1.Y ..$.' 2.......$.) $.2.:.2.$.$.2.i.i.2.2.2.i.2.2.:.*.$.$.",
"' :.h.h.2.1.:.i.2.$...F $.$.:.2.$.$.$.1.2.:.....1.2.:.i.2.2.:.:.:.$.:.2.2.$.$.%.$.i.h.i.2.:...$.1...Y :.Y $.) ) ..2...Y ) $.$.$.1.i.$.%.:.:.:.) ..:.2.....:.2.1.%.$.:...:.2.:.1.1.2.$.:.:.:.$...:.:.:.$.$.) Y $.$.:.$.2.2.%.:.%.$.2.1.2.i.0.:.:.:.2.:.1.2.:.:.2.",
"$.2.2.2.1.2.:.$.2.$.H ..' $.:.i.2.1.:.$.) ) H ..$.%.$.$.2.:.$...$.:.2.:.2.2.:.%.:.2.2...' :.) Z Y ..' :.$.o.:.2.$...:.H F Y $.:.$.2.1.$.$.2.0.$...:.2.:.:.:.0.2.:.$.$...%.:.:.' ' 1.$.:.:.:.$.$.:.$...$.:.' 2.%.Y ) $.1.$...:.2.$.:.:.2.2.1.2.2.1.$.1.:.i.:...$.",
"2.2.2.2.:.$.$.$.' 2.1...%.%.2.2.2.2.i.:.$.$.......Y H Y ..$.:...$.:.$.2.:.$.1.:.$...:.$.:.1.:.%.$.$.%.) $.) :.2.$...$.H 2.:.' 2.$.$.$.2.:.2.2.2.:.:.' :.1.2.2...:.:.:.:.:.:.:.$.1.$.' 2.2.:.:.2.2.:...:.' :.:.:...$.2.0.2.2.2.Y $.:.:.$.2.2.1.i.i.2.0.i.2.1.$.) ",
"2.2.1.1.:.0.1.1.' :.2.$.) 2.2.:.2.2.1.:.$.) $...H $.$.) 1.:.2.$.$.) ..:.1.2.$.$.:.$.:.:.:.:.2.2.:.%.1.$.1.:.2.:.$.:...' ' 2.$.:...F $.2.$.1.2.i.:...:.:...$.:.1.i.$.) ..:.H Y H ..:.$.2.:.1.2.h.i.2.:.......) :.1.1.0.i.d.i.$.H ..' $.1.2.) $.i.i.2.$.2.:...:.) ",
"1.:.:.i.2.1.1.:.:.:.$.:.$.:.2.2.i.i.2.0.:.....) ' 2.i.i.2.$.2.:.:.H Y ' :.2.2.$.:.:.1.$.2.2.2.1.$...:.1.2.2.2.2.0.2.:.) $.:.$.$...Y :.:.%.:.2.:.$.$.2.2.i...' :.$.$.Y Z ) 2.2.:.H ..:.1.1.:...$...1.2.1.2.$.$.2.....:.%.:.:.:.Y Y Y Y $.1.$.$.2.2.$...2...:.:.2.",
"$.Y 1.i.1.1.2.2.2.2...' $...:.1.:.:.:.....$.$.0.%...$.2.0.$.Y 2.2.$.' 1.$.i.i.1.) ..:.2.2.2.i.i.2.:...:.$.i.0.i.2.) ....Y :.i.i.:...2.2.:.:.1.%.$.:.2.%.:.%.1.:.:.$.:.:.2.:...$.1.2...$.:...' $.$.:...%.2.2.:.2.:.:.%.$.:.%.i.) :.%.i.i.i.i.2.2.2.$.) $.$...:.2.",
"%.1.2.$.$.i.2...' :.1...) ..:.:.) 1.:...I ) 2.2.:.:...$.:.$...:.1.2.w.2.$.$.0.:.$.2.i.d.i.i.i.i.2.:.:.:.1.2.1.:.:.2.i.0.:.2.0...:.%.:.2.2.0.i.d.2.0.$.$.2.1.:.1.:.) 2.a.i.2.2.i.i.:.:.:...F v %.0.i.i.i.h.:.' ..:.:.$...2.2.2.$.:...2.2.0.2.:.2.0.1.:.i.$...i.i.",
"%.:.....$.:...$.$.2.....Y ....:.) ..1.:.:...1.2.:.:.1.$.) $.2.2.2.2.1.1...2.i.2.1.$.%.o.$.i.2.2.2.2...:.2.2.%.' 2.0.2.2.1.$.$...H ' :.:.1.i.2.i.2.2.:.....$.1...:.) :.:.i.i.2.d.$.:.2.i.i.:.2.i.2.2.0.2.:.1.:...$.:.:.' 2.1.$.$.2...%.$.$.2.1.%.:.i.:...' $.' 2.",
"i.0.$.$.2.0.2.i.i.:.:.1.1.:.2.2.2.:.1.2.2.$...2.i.2.1.:.%.2.i.i.$.) ..2.2.:.1.%.$.%.:.' $.1.$.:.2.:.:...2.2.$.:.$.2...H ) I ..i.2.Y ' :.$.:.:.1.0.:.$...' $.:.) I $.%...:.:.2.2.i.0.d.2.:.i.2.:.:...$.2.$.:.%.$.$.....) $.) :.1.$.:.1.2.1.2.1...$.$.$.:.1.:.' $.",
":.2.2.%.$.$.:.2.:.$...$.2.2.i.i.2.:.:.:.:.2...2.d.) 1.0...$.:.1.:.2.:.:.1.0.:.:.i.i.:.:.$.) $.$.:.1.$.$.1.2.) m $.' ..) ....H :.i.h.i.$.$.Y c N H :.$.:.:.%.$.2.$.$.' ) Y ) $.2.2.2.2.2.:.2.:...%.:.:.2.0.2.$.2.2.$.:.%.) ) :.I Y 2.i.i.d.d.0.:.$...$.1.:.2.$.' ",
"$.1.h.:.2.:.i.1.$.:...$.Y H $.2.i.i.2.2.i.2.2.i.1...:.$...$...:.:.2.$.:.2.i.:...2.2.i.i.2.2.2.:.:.$.0.2.:.:.) ' i.i.2.:.$.) ) ..2.%.0.i.2.2...Z ) Y ' ..' Y :.2.2.2.F ..:.....2.:.:.2.:.1.2.2.2.1.:.$.:.1.:.$.$.i.:.:.%.) $.' ) %.:.:.:.2.i.:.$.i.2...:.*.1.%.$.",
":.2.:.$.o.2.1.2.i.:.0.2.2.....' Y ' 0.h.2.$.0.2.:.2.:.) 2.2.2.h.i.2.' Y 2.2.2.$.:.:.2.2.:.1.:.Y Y ) ) :.$...:.i.0.i.i.0.2.:.$.:.:.$.2.2...:.2.i.2.2.:.$.:.Y $.$.$.$.) $.2.2.$.1.2.1.%.$.2.:.' ' :.....$.$...' :.:.:.:.%.2.i.2.2.2.:.%.$.%.$.:...:.:.i.i.$.:.:.:.",
"0.2.:...$.$.' ..2.:.$...:.h...' $.:.1.$.:.%.2.) %.:.:...$.2.i.:.:.i...:.0.2.:.1.1.:.2.2.%.%.:.Y Y $.$.$.%.$...$.:.:.1.2.1.2.$.$.$.1.i.2.Y ' :.$.$.2.i.%.:.' $.2.2.$.:...:.:.:.:.2.:.2.i.0...F ' ) :.:.:.$.) $.$.:.0.1.$.:.%.:.i.2.$.%.$...$.Y ) ..$.:.2.2.$...$.",
":.2.$.1.' o.1.:.1.2.:.$.1.$.$.$.2.2.) Y ..2.1.:.2.$.0.i.:.:.0.$.$.Y ..:.i.2.i.0.$.:.2.0.' Y $.$.1.2.1.$.:.1.:.$.:.:.2.2.2.:.2.i.0.2.2.:.:.H Y :.$.$.:.2.:.:.' ..1.2.:.$.$.$.:.2.:.h.i.h.:.' ..Y Z ..2.2.1...2.0.2.:.2.:.%...$.2.2.$.%.%.:.1.H H ) ) %.:.:.) ..$.",
"..$...I :.2.i.Y 1.1.2.2.i.1.:...:.2.2.:.Z ) ..:.:.1.:.:.$.$.:.:.2.$.' 0.2.1.2.2.:.:.1.:.:.0.$.$.$.:.2.$.$.2.:.1.2.$.i.2.2.:.2.%.) 1.i.2.2.....2.$.:.$.$.2.:.1.$.:.2.$.$.) ) ) i.) :.:.2.i.i.2...Y :.i.i.0.:.:.:.%.:.:.) :...) $.%.2.$.:.....2.1.:.Y ..1.1...$.i.",
"$.$.0...d.i.0.2.i.$.:.2...) ..' %.$.0.' H $.2.$.$.:.%.$...' ) ..$.2.2.:.2.1.2.%.....2.2.h.%...:.2.:.:.2.2.2.2.i.$.$.i.:.:.1.:.' ) :.$.:.:.:.2.1.:.$.$.) ) $.$.:.:.$.1.2.1.:.' %.$.$.H ..$.$.:.1...:.2.:.:.:.:.....Z H $.:.:.:.:.:.:.$.' Z ..:.i.2.:.1.i.i.2.2.2.",
"i.2.1.:.2.2.) ) 2.2.1.2.) ' :.%.%.H H ..:.1.2.i.2.$.1.$.:.:.$...2.2.2.1.0.2.1.:...) 2.2.$.Y ..$.:.:.' ' :.%.:.:.:.2.2.2.i.1.:...) $.:.%.$.1.:.) Y ..) Y ' 1...Y :.1.:.1.1.1.2.:.2.$...H Z ..$...' ' :.:...:.2.:.0.H Y :.2.2.2.2.:.:.1...$.) $.2.2.$.:.$.:.:.$.:.",
"0.2.:.:.$.$.Y ' :.$.1.' 2.:.:.2.2.:.Z $.:.1.1.i.i.1.:.:.h.d.1.:.1.:...:.i.2.$.1.i.2.:.' b ' :.....$.1.....2.%.:.' $.:.:.2.2.2.2.2.i.0.1.1.:.:.*.Y H ..I :.$.$.Y $.:.:.:.....:.$.' ) 0.$.%.2.:.$.N H $.:.$.1.i.i.i.....2.2.1.:.$.$.:.1.:.2.$.$.$...' Y Y :.:.2.%.",
"2.2.:.h.2.$.Y $.:...) H %.i.2...i.i.:.$.2.:.$.:.:.i.2.0.i.2.0.i.2.:...) :.1.$...2.d.2.:.:.$.1.H H ) 1.2.) $.i.2.$.:.2.%...$.i.i.i.i.i.h.i.2.i.:.:.) H Z :.1.2...) ' Y i.$.) :.:.) ....:.2.:.1.:.o.) H ..' $.:.2.$.:.i.$.:.1.:.:.$.$.2.2.2.i.2.:...1.2.:.' $.) ' ",
":.:.2.1.:.i.h.i.1.:.1.2.2.$.:.$.2.i.' :.1...' :...$.:.:.:.$.2.2.i.0.$.$.$.%.0...:.i.i.:.2.i.%.m H $.) :.1.$.1.2.) ..' H ....$.Y :.:.2.h.i...$.*.%.:.$.$.$.1.$.$.%...' $.2.' ..H Y ' $.1.:.$.2.i.d.2.$.......Y ) ) %.:.:.$.1.:.0.$.:.2.2.2.d.2.1.i.2.2.:.) :.Y ..",
"i.:.:.$.$.:.$.i.i.:.1.1.%.2.:.' :.....2.0.:.1.2.h.i.2.i.$.1.$.2.i.2.:.i.i.i.2.) ) 1.2.$.Y ..Y H $.:.Z m H $.i.1...$.:.$.' I ..) ) ....%.:.Y H ) ' i.i.$...:.:.:.:.$.) H ) ..$.%.:...:.1.:.$.:.0.i.1.%.$.1.$.$.) $...$.:...) :...$.Y $.$.:.:.$.' 2.:...$.Y ..Y ..",
"1.2.:.2.$.Y ) :.2.:.0.2.$.i.:.:.) Y ' 2.i.i.2.:.2.1.h.2.Y $.) :.2.1.2.2.$.....:...:.$.$.$...$.$.:.) ....$.:.1.1.$...' 1.:.Y :.i.2.H $.Z H ..:.$.$.' 2.2.1.1.1.i.i.1.H ..$.:.:.$.$.$.:.:.2.$.1.$.H ) :.:.%.$.:.2.) Y :.:.$.' ..F Y ..$.:.2.i.2.H ....$...H ) %...",
"' 1.:.:.Y Z ..) ..:...$.:.%.2.1...H $.2.2.2.$.2...' 2.1.) 1...$.*.%.$.' ..$...:...:.$.%...$.:.:.1.) :...1.$.:.$.i.%.) ..' ..Y :.:.H 2.2.:.$...:.$.$...:.1.1.:.2.w.:.1.:.2.0.2.:.:.1.2.$...:...$.:...' $.:.1.:.$.:.:.i.:...' ' :.:.2.h.h.2.2.2.$.$.:.) ..) ) 2.$.",
"I ..2.0.' ) 2.2.) ..2.:.1.:.%.%.:.Y 1.2.:.i.2.1.:.$.' H ) 2.i.1.2.i.i.2.1...) 2.) ..2.:.2.2.2.2.2...2.0.2...:.....%.:.....$.%...Z :.2.2.i.i.2.:.2.i.2.$.$.$.2.2.2.$.$.1.0.:.2.:.:.2.:.:.' $.$.) 1.$...0.i.i.$...:.:.$.H Y $.$.d.i.2.2.1.2.$.$.2.$.1.$...) ..%.2.",
"1...i.2.$.w.:.:.$.$.2.1.2.2.:.1.:.Y ) 2.:.i.i.2.2.2.2.$...2.i.1.:.i.$.$.2.:.....:.Y ..0.1.:.%.2.2.$.2.$.:.:.$.$.%.:.$.' $.1.2...Z ..$.$...:.:.$.1.:.i.$.H $.:.1.:.:.$.$.i.1.2.2.2.1.2.$.:.$.:.:.0.:.) ..) ' ) F Z Y ) ) ) I $.i.%.' $.$.2.2.%.....:.:.$.i.h.$.%.",
"h.h.d.h.i.2.2.$.%.$.2.1.2.' 2.2.1.:.:.1.:.i.i.0.i.i.2.1.i.:.2.2.' 1.i...%.2.Y Y 2.:.:.$...$.2.2.:.%.0.$.:.i.:.:.2.:.:.:.$.$.$...) Z ' ..' H H $.:.$.1.1...$.) ' ..:.%.:.2.:.2.:.i.2.$.$.2.$.:.2.0.:.) m $.H ..2.$.Y :.Y H ) $...:.%...$.:.2.$.1.o.' %.%.2...$.:.",
"2.i.:.2.2.2.:.) I ' 2.1.2.$.:.2.1.:.1.2.:.i.2.1.2.2.0.2.h.2.:.$...:.:...' %.:.:.2.2.i.1.........%.2.2.1.2.1.2.1.2.2.:.%.$...:.:.2.:.$.....:.2.:.:.1.1.:...' ) %.) 1.1.:.) Y ....1.2.2.i.2.1.i.h.:.1.$.v i.$.) $.) Y Y Y 0.:.) ) 2.2.1.2.2.2.$...:.$.%.%.:.Y ' :.",
":.2.$.:.:.:.$.H $.1.2.1.0.$.1...$.$.:.:.2.$.:.:.:.2.2.2.1.2.2.:...%.:.) Y ..:.$.1.i.i.$...0.:.) ' ' :.i.0...$.H ..:.$.:.$.%.$.:.:.:.2.2.i.2.i.2.:.$.' ..:.$.$.i.$.:.i.2...) ) $.:.$.2.2.$.:.0.0.:.:.:.$.2.:.$.:.:...Y 2.i.i.:.i.2.:.$.%.2.1.:...:.w...2.1.%.:.2.",
"1.1.:.$.$...$.:.h.h.i.:.:.Y 1.%.$.2.1.:...' ..:.i.2.$.2.2.:.1.i.2.) :.$.' ..Y F :.i.i.2.0.h.i.2.i.2.:.:.2.:...H Z :.:.' ..0.0.i.2.2.$.:.:.2.2.2...2.1.:.1.$.:.%.:...i.i.i.2.:.H ..' :.1...F H $.:...0.$...$.$.1.1.%...:.2.2.i.2.2.2...$...:.:.Y ' i.:.:.2.$.$.:.",
"i.2.:.....i.2.2.2.1.Y $.) ) $.i.1.:.1.:.:.2.i.$.' ) $.2.:.:.%.:.2...$.i.:...$.$.:.:.$.$.:.2.2.i.2.2.2.:.1.:.$.' Y ) $...$.1.1.2.:.1.:.$...) $.:.2.i.2.2.$.$.1.....) ..1.$.H Y Y $.2.i.2.2.) ' ) :.Y ) ' H ..2...2.:.2.$.$.:.:...$.Y ..$.$.Y Y $.$.$.:.2.1.$.' 2.",
"1.0.:.:.Y :.2.1.2.1.:.:.2.%.H ' 2.i.2.1.2.i.i.$...0...$.$...:.2.....1.:.$.%.2.i.2.2.$.$.:.$.:.:.:.2.i.0.i.1.:.2.:.Y ..:.' ..:.2.$...$.H N H ) :.2.2.2.2.$.i.2.$.) :.....) ) ' ..$.2.1.2...:.0.$...' ) %.:.H ........:.$.:.:.:.2.2.1.2.2.i.Z Y :.) 1.%.) Y :.2.$.",
":.2.2.:.) :.i.2.2.1.:.2.2.2.i.i.i.i.) $.:.:.2.:...1.$.' Y N Y 2.:.:.2.....i.0.2.0.0.2.i.i.i.:.:.:.:.:.Y Y :.$.i.:.I ' H ..$.1.:.2.i.2.2.2.2.i.i.2.$.) H v :.:...%.' $.$.0.1.i.i.0.:.:.$.$...%.2.2.:.0.h.i...$.2.:.H ....:.2.i.:.:.i.i.2...Y ) :.' Y Y H :.:.:...",
"1.$.:.....1.:.2...$.2.2.%.' ' :.) :.:.1.2.:.2.1.) 1.:.:.) $.H ) i.i.0.$.:.:.:.1.i.:.2.2.i.i.i.2.2.1.:.' ' $.:.1.$...$.' $.) 2.2.2.:.2.' 1.2.:.$.' Y ..Z H $.) Y :...$.:.:.) 0.2.:.:.:.Y H $.$.$.....$.2.2.1.2.i.1.:.2.:...$.:.2.2.2.$.$.:...' :.:.) I :.:.1.:...",
"i.i.2.1.$.:.2.i.:.:.$.%.$...) ..:...$.2.$.' :.1.2.2.$.' ) ..2.:.i.i.2.2.i.2.:.i.1.$.1.1.$.$.0.d.i.$.Y ..:.:.2.1.1.%.:.2.:.:.$.2.2.%.i.:.H ' ) Z ' 2.2.i.i.) %.:.%.) ) 1.' H 1.:.) i.i.2.$...%.$.2.:.:.$.1.1.1.$.:.:.:.$.$.) ..1.:.:.' ..) $.' 1.:.$.$.2.:.$.%...",
"i.2.i.' Y Z 2.$...Y ....$...:.1.i.%.$.:.I ) $...2.2.) ' ..:.:.2.$.1.i.2.2.2.$.1.:.o.i.2.....H ..:.$.I N I 1.$.%.2...:.:.:.$.$.2.0.2.:.i.:.$.:.1.2.2.2.2.1.$.i.2.:.$.1.$.' F $.:.$.1.2.0.i.2.2.1.i.2.1.2.2.2.2.$.$.:.$.I ) :.) $.%...$.:.' $.' 1.i.2.' $.i.:.2.2.",
"$.$.) H H Y 2.$.) $.d.i.2.:...2.:.$.:.:.Y Y Y ..2...:...H Y :.$.$.:.%.$.:.2.$...i.2...2.2.:.' $.$.Y F Z Y :.....1.' :.:.:.:.:.2.i.:.....:.:...$.$.) $.' ..:.2.i.i.2.2.2.i.2.:.:.1.....:.2.d.i.2...:.:.$.:.:.2.) Y $.$.) 0.2.) Y $.$.$.:...$.$.:.0.i.$.$...:.2.1.",
"..$.$...$.$...:.:.:.i.2.:...' ......$.:...H :.%.H Y :.:.%.$.$.$...$...0.1.' $.$.2.i.:.1.i.2.2.:.$.:.$.%.2.2.:...:...2.1.:.2.:.2...1.1.:.2.2.2.1.:.$.' :.2.:.:.:.$.' 1.i.i.2.2.2.2.2.2.:.1.:.2.d.2.0.i.i.$...) ..$...$.$.2.2.$.' ..:.2.:.:.:.:.2.1.i.:.$.:.2.$.:.",
"2.2.i.:.:.:.:.:.%.$.1.$.:.:.2.$.:.1.1.:.:.%.1.0.Y ..' 2.2.$.:.$.$...) ..) $.i.) ) 1...) 2.0.2.$.$.1.2.:.:.:.2.2.:.1.2.:.:.2.2.2.:.1.0.2.0.:...:.2.....$.i.0.:.$.....$.:.2.2.i.1.:.i.i.0.i.:.$.' ..:.i.) $.i.:.:...Y $.:.:.:.:.:.i.$.2.i.2.2.2.:.:.2.$.1.:.$.:.$.",
":.i.i.i.i.h.h.i.2.i.2.1.:.$.2.i.:.i.h.i.i.:.:.2.:.1.$.' 2.2.2.2.$.$.1...b $.2.%...' H ..2.i.:.2.Y Y i.%.%.2.:.1.2.2.2.2.2.i.i.i.:.......:.2.:.2.1.:.:.:.:.$.1.2.:.:.$...$.:.2.:.2.2.1.1.1.i.$.$.2.$.$...2.1.i.2.:.1.%.:.:.) ..Y $.:.1.1.0.i.i.0.i.:.1.:.1.:.$.' ",
"$.2.0.2.%.2.i.2.1.2.2.2.:.1.:.:.2.i.2.0.0.$.$.2.' $.i.' ) :.:.i.$.2.2.2...:.:.2.i.2...$.2.2.%.Y ..$.i.$.:.2.$.' 2.%.2.2.i.2.1.$.$.' Y $.:.1.i.2.2...$.:.%.2.0.$.2.:.1.d.d.d.:...$.2.:.H :.2.1...2.1.:.2.0.:.$.$.2.2.2.1.1.) ..2.$.:.$.$.:.2.2.0.2.1.1.:.2.$.:.$.",
"2.:.:.$...%.%.2.1.:.i.2.i.2.:.:.$.2.:.:.2.2.....%.:.:.2.$.:.:.i...) i.2.2.:.0.2.i.2.' %.2.:.Y ..I H 2.$.$.:.$...:.F %.:.2.i.i.2.%.:.:.2.2.2.:.2.2.0.2.2.) :.:.' %.$.1.2.0.2.2.i.:.H ..' ) ) ....:.:.$.:.%.:.Y :.2.$.:.$...$.:.:.:.:.:.:.$.$.....$.:.1.1.2.:.2.1.",
"2.:.2.:...$.2.2.:.:.$.i.2.$.$.0.2.$.%.$.) 2.2.$...' ..:.:.) :.2.Y ..2.i.2.:.2.:.$.' ) $.:.2.:.I ' Y Y $.$.$.$...' ' %.%.%.2.2.2.i.2.1.%.:.2.%.) $...2.i.0.:.:.o...2.:.2.2.1.2.2.:.' H i.0.' H F ..2.2.:.:.1.:.2.:.:.%.$.) $.2.$...' :.2.h.i.1.2.i.$.:.2.:.2.2.:.",
"- - & * * & % & & & = ; & & & $ $ $ $ @ # - - & * * & % & & & = ; & & & $ $ $ $ @ # - - & * * & % & & & = ; & & & $ $ $ $ @ # z.- - & * * & % & & & = ; & & & $ $ $ $ @ # - - & * * & % & & & = ; & & & $ $ $ $ @ # - - & * * & % & & & = ; & & & $ $ $ $ @ # n.",
"& a a a a a a a a a a a d g h h h z z z % & a a a a a a a a a a a d g h h h z z z % & a a a a a a a a a a a d g h h h z z z % n.& a a a a a a a a a a a d g h h h z z z % & a a a a a a a a a a a d g h h h z z z % & a a a a a a a a a a a d g h h h z z z % b.",
"* u 7 7 < < < < < < 3 3 7 0 q q y u u h & * u 7 7 < < < < < < 3 3 7 0 q q y u u h & * u 7 7 < < < < < < 3 3 7 0 q q y u u h & i.* u 7 7 < < < < < < 3 3 7 0 q q y u u h & * i 7 7 < < < < < < 3 3 7 0 q q y u u h & * u 7 7 < < < < < < 3 3 7 0 q q y u u h & 2.",
"* u 2 8 7 7 7 2 < 2 2 3 7 0 q q u u p l & * u 2 8 7 7 7 2 < 2 2 7 8 0 q r y u p l & * u 2 8 7 7 7 2 < 2 2 3 7 0 q q y u p l & 2.* u 2 8 7 7 3 2 < 2 2 3 7 0 q q y u p l & * u 2 8 7 7 7 2 < 2 2 3 7 0 q q y u p z & * u 2 8 7 7 7 2 < 2 2 3 7 0 q q y u p l & z.",
"& u < 7 7 7 7 < 2 < 7 7 7 8 0 q u u a z & & u < 7 7 7 7 < 2 < 7 7 7 0 0 q y u a z & & u < 7 7 7 7 < 2 < 7 7 7 8 0 q y u a z & g.& u < 7 7 7 3 < 2 < 7 7 7 8 0 q y u a z & & u < 7 7 7 7 < 2 < 7 7 7 8 0 q y u a z & & u < 7 7 7 7 < 2 < 7 7 7 8 0 q y u a z & i.",
"% w , 3 7 7 7 3 2 < 4 7 7 7 8 0 q u a z & % w , 3 7 7 7 3 2 < 4 7 7 7 8 0 q u a z & % w , 3 7 7 7 3 2 < 4 7 7 7 8 0 q u a z & d.% w , 3 7 7 7 3 2 < 4 7 7 7 8 0 q u a z & % w , 3 7 7 7 3 2 < 4 7 7 7 8 0 q u a z & & w , 3 7 7 7 3 2 < 4 7 7 7 8 0 q u a z & d.",
"& q > < 3 7 7 3 3 2 5 3 7 7 8 0 q y u k % & q > < 3 7 7 3 3 2 5 3 7 7 8 0 q y u k % & q > < 3 7 7 3 3 2 5 3 7 7 8 0 q y u z % i.& q > < 3 7 7 3 3 2 5 3 7 7 8 0 q y u k % & q > < 3 7 7 3 3 2 5 3 7 7 8 0 q y u z & & q > < 3 7 7 3 3 2 5 3 7 7 8 0 q y u k % i.",
"& q > , < 7 3 3 3 < 2 2 7 7 8 8 0 q y h & & q > , < 7 3 3 3 < 2 2 7 7 8 8 0 q y h & & q > , < 7 3 3 3 < 2 2 7 7 8 8 0 q y h & d.& q > , < 7 3 3 3 < 2 2 7 7 8 8 0 q y h & & q > , < 3 3 3 3 < 2 2 7 7 8 8 0 q y h & & q > , < 7 3 3 3 < 2 2 7 7 8 8 0 q y h & 0.",
"& q > O + 2 2 3 < < < < 6 6 7 8 0 q q g & & q > O + 2 2 3 < < < 2 6 6 7 8 0 q q g & & q > O + 2 2 3 < < < 2 6 6 7 8 0 q q g & z.& q > O + 2 2 3 < < < 2 6 6 7 8 0 q r g & & q > O + 2 2 3 < < < 2 6 6 7 8 0 q q g & & q > O + 2 2 3 < < < 2 6 6 7 8 0 q q g & d.",
"= q >   . < 2 2 2 2 < < 2 < 7 7 8 8 q g & = q >   . < 2 2 2 2 < < 2 < 6 7 8 8 q g & = q >   . < 2 2 2 2 < < 2 < 7 7 8 8 q g & 2.= q >   . < 2 2 2 2 < < 2 < 7 7 8 0 q g & = q >   . < 2 2 2 2 < < 2 < 7 7 8 8 q g & = q >   . < 2 2 2 2 < < 2 < 7 7 8 8 q g & 2.",
"; q > X o < < < < < < 2 < 2 6 7 7 8 0 a = ; q > X o < < < < < < 2 < 2 6 7 7 8 0 a = ; q > X o < < < < < < 2 < 2 6 7 7 8 0 a = i.; q > X o < < < < < < 2 < 2 6 7 7 8 0 a = ; q > X o < < < < < < 2 < 2 6 7 7 8 0 a = ; q > X o < < < < < < 2 < 2 7 7 7 8 0 a = i.",
"& q >   X < < < < < < < < 2 2 7 7 8 8 a ; & q >   X < < < < < < < < 2 2 7 7 8 8 a ; & q >   X < < < < < < < < 2 2 7 7 8 8 a ; h.& q >   X < < < < < < < < 2 2 7 8 8 8 a ; & q >   X < < < < < < < < 2 2 7 7 8 8 a ; & q >   X < < < < < < < < 2 2 7 7 8 8 a ; h.",
"& q > O + < < 1 < < < < 6 7 7 7 7 8 8 a & & q > O + < < < < < < < 6 7 7 7 7 8 8 a & & q > O + < < < < < < < 6 7 7 7 7 8 8 a & d.& q > O + < < < < < < < 6 7 7 7 7 8 8 a & & q > O + < < < < < < < 6 7 7 7 7 8 0 a & & q > O + < < < < < < < 6 7 7 7 7 8 8 a & 2.",
"& q > , < 2 1 3 2 6 7 7 7 7 7 7 8 8 0 a & & q > , < 2 1 3 2 7 7 7 7 7 7 7 8 8 0 a & & q > , < 2 1 3 2 6 7 7 7 7 7 7 8 8 0 a & d.& q > , < 2 1 3 2 6 7 7 7 7 7 7 8 8 0 a & & q > , < 3 1 3 2 6 7 5 7 7 7 8 8 8 0 a & & q > , < 2 1 3 3 7 7 7 7 7 7 7 8 8 0 a & $.",
"$ e , < 1 7 7 7 7 7 7 7 7 8 8 8 8 0 q a & $ e , < 1 7 7 7 7 7 7 7 7 8 8 8 8 0 0 a & $ e , < 1 7 7 7 7 7 7 7 7 8 8 8 8 0 0 a & :.$ e , < 1 7 7 7 7 7 7 7 7 8 0 8 8 0 0 a & $ e , < 1 7 7 7 7 7 7 7 7 8 8 8 8 0 0 a & $ e , < 1 7 7 7 7 7 7 7 7 8 8 8 8 0 0 a & o.",
"$ y , 5 7 8 8 8 8 8 8 8 8 0 0 0 0 q q g $ $ y , 5 7 8 8 8 8 8 0 0 0 0 0 0 0 q q g $ $ y , 5 7 8 8 8 8 8 0 0 0 0 0 0 0 q q g $ 2.$ y , 5 7 8 8 8 8 8 8 8 0 0 0 0 0 q q g $ $ y , 5 7 8 8 8 8 8 8 8 8 0 0 0 q q q g $ $ y , 5 7 8 8 8 8 8 0 0 0 0 0 0 0 q q g $ o.",
"$ y , 3 0 0 0 0 0 q q q q q q q q q y g $ $ y , 3 8 0 0 0 0 q q q q q q q q q y g $ $ y , 3 0 0 0 0 0 q q q q q q q q r y g $ h.$ y , 3 0 0 0 0 0 q q q q q q q q q y g $ $ y , 3 8 0 0 0 0 q q q q q q q q q y g $ $ y , 3 8 0 0 0 0 q q q q q q q q q y g $ :.",
"$ y , 3 8 0 q q q q w y w e r y y u u h $ $ y , 3 8 0 q q q q w y w e r y y u u h $ $ y , 3 8 0 q q q q y y w e r y y u u h $ i.$ y , 3 0 q q q q q w y y e r y y u u h $ $ y , 3 8 0 q q q q w y w e r y y u u h $ $ y , 3 8 0 q q q q w y y e r y y u u h $ 1.",
"@ y , < 7 q q q y y y y u u u u u u i z $ @ y , < 7 q q q y y y y u u u u u u i z $ @ y , 1 7 q q q y y y y u u u u u u i z $ 2.@ y , < 7 q q q y y y y u u u u u u i z $ @ y , < 7 q q q y y y y u u u u u u i z $ @ y , < 7 q q q y y y y u u u u u u i z $ 1.",
"# y y y u a a a s g g g g g s a a a a g @ # y y y u a a a s g g g g g s a a a a g @ $ y y y u a a a s g g g g g s a a a a g @ z.# y y y u a a a s g g g g g s a a a a g @ # y y y u a a a s g g g g g s a a a a g @ $ y y y u a a a s g g g g g s a a a a g @ 0.",
"$ & & & & % & & & = ; & & & $ $ $ $ @ # # $ & & & & % & & & = ; & & & $ $ $ $ @ # # $ & & & & % & & & = ; & & & $ $ $ $ @ # # h.$ & & & & % & & & = ; & & & $ $ $ $ @ # # $ & & & & % & & & = ; & & & $ $ $ $ @ # # $ & & & & % & & & = ; & & & $ $ $ $ @ # # %.",
"- - & * * & % & & & = ; & & & $ $ $ $ @ # - - & * * & % & & & = ; & & & $ $ $ $ @ # - - & * * & % & & & = ; & & & $ $ $ $ @ # 0.- - & * * & % & & & = ; & & & $ $ $ $ @ # - - & * * & % & & & = ; & & & $ $ $ $ @ # - - & * * & % & & & = ; & & & $ $ $ $ @ # i.",
"& a a a a a a a a a a a d g h h h z z z % & a a a a a a a a a a a d g h h h z z z % & a a a a a a a a a a a d g h h l z z z % :.& a a a a a a a a a a a d g h h h z z z % & a a a a a a a a a a a d g h h h z z z % & a a a a a a a a a a a d g h h l z z z % 2.",
"* u 7 7 < < < < < < 3 3 7 0 q q y u u h & * i 7 7 < < < < < < 3 3 7 0 q q y u u h & * u 7 7 < < < < < < 3 3 7 0 q q y u u h & d.* u 7 7 < < < < < < 3 3 7 0 q q y u u h & * i 7 7 < < < < < < 3 3 7 0 q q y u u h & * u 7 7 < < < < < < 3 3 7 0 q q y u u h & o.",
"* u 2 8 7 7 7 2 < 2 2 3 7 0 q q y u p l & * u 2 8 7 7 7 2 < 2 2 3 8 0 q r y u p l & * u 2 8 7 7 7 2 < 2 3 3 7 0 q q y u p l & 2.* u 2 8 7 7 7 2 < 2 2 3 7 0 q q y u p l & * u 2 8 7 7 7 2 < 2 2 3 8 0 q r y u p l & * u 2 8 7 7 7 2 < 2 3 3 7 0 q q y u p l & 1.",
"& e < 7 7 7 7 < 2 < 7 7 7 8 0 q y u a z & & u < 7 7 7 7 < 2 < 7 7 7 8 0 q y u a z & & u < 7 7 7 7 < 2 < 7 7 7 8 0 q y u a z & d.& e < 7 7 7 7 < 2 < 7 7 7 8 0 q y u a z & & u < 7 7 7 7 < 2 < 7 7 7 8 0 q y u a z & & u < 7 7 7 7 < 2 < 7 7 7 8 0 q y u a z & %.",
"% w , 3 7 7 7 3 2 < 4 7 7 7 8 0 q u a z & % w , 3 7 7 7 3 2 < 4 7 7 7 8 0 q u a z & % w , 3 7 7 7 3 2 < 4 7 7 7 8 0 q u a z & 0.% w , 3 7 7 7 3 2 < 4 7 7 7 8 0 q u a z & % w , 3 7 7 7 3 2 < 4 7 7 7 8 0 q u a z & % w , 3 7 7 7 3 2 < 4 7 7 7 8 0 q u a z & 1.",
"& q > < 3 7 7 3 3 2 5 3 7 7 8 0 q y u k % & q > < 3 7 7 3 3 2 5 3 7 7 8 0 q y u k % & q > < 3 7 7 3 3 2 5 3 7 7 8 0 q y u k % o.& q > < 3 7 7 3 3 2 5 3 7 7 8 0 q y u k % & q > < 3 7 7 3 3 2 5 3 7 7 8 0 q y u k % & q > < 3 7 7 3 3 2 5 3 7 7 8 0 q y u k % i.",
"& q > , < 7 3 3 3 < 2 2 7 7 8 8 0 q y h & & q > , < 7 3 3 3 < 2 2 7 7 8 8 0 q y h & & q > , < 7 3 3 3 < 2 2 7 7 8 8 0 q y h & 2.& q > , < 7 3 3 3 < 2 2 7 7 8 8 0 q y h & & q > , < 7 3 3 3 < 2 2 7 7 8 8 0 q y h & & q > , < 7 3 3 3 < 2 2 7 7 8 8 0 q y h & 1.",
"& q > O + 2 2 3 < < < 2 6 6 7 8 0 q q g & & q > O + 2 2 3 < < < 2 6 6 7 8 0 q q g & & q > O + 2 2 3 < < < 2 6 6 7 8 0 q q g & 2.& q > O + 2 2 3 < < < 2 6 6 7 8 0 q q g & & q > O + 2 2 3 < < < 2 6 6 7 8 0 q q g & & q > O + 2 2 3 < < < 2 6 6 7 8 0 q q g & i.",
"= q >   . < 2 2 2 2 < < 2 < 7 7 8 0 q g & = q >   . < 2 2 2 2 < < 2 < 7 7 8 8 q g & = q >   . < 2 2 2 2 < < 2 < 7 7 8 8 q g & 1.= q >   . < 2 2 2 2 < < 2 < 7 7 8 0 q g & = q >   . < 2 2 2 2 < < 2 < 7 7 8 8 q g & = q >   . < 2 2 2 2 < < 2 < 7 7 8 8 q g & h.",
"; q > X o < < < < < < 2 < 2 6 7 7 8 0 a = ; q > X o < < < < < < 2 < 2 6 7 7 8 0 a = ; q > X o < < < < < < 2 < 2 6 7 7 8 0 a = 0.; q > X o < < < < < < 2 < 2 6 7 7 8 0 a = ; q > X o < < < < < < 2 < 2 6 7 7 8 0 a = ; q > X o < < < < < < 2 < 2 6 7 7 8 0 a = i.",
"& q >   X < < < < < < < < 2 2 7 8 8 8 a ; & q >   X < < < < < < < < 2 2 7 7 8 8 a ; & q >   X < < < < < < < < 2 2 7 7 7 8 a ; 1.& q >   X < < < < < < < < 2 2 7 8 8 8 a ; & q >   X < < < < < < < < 2 2 7 7 8 8 a ; & q >   X < < < < < < < < 2 2 7 7 7 8 a ; i.",
"& q > O + < < < < < < < 6 7 7 7 7 8 0 a & & q > O + < < < < < < < 6 7 7 7 7 8 8 a & & q > O + < < < < < < < 6 7 7 7 7 7 8 a & i.& q > O + < < < < < < < 6 7 7 7 7 8 0 a & & q > O + < < < < < < < 6 7 7 7 7 8 8 a & & q > O + < < < < < < < 6 7 7 7 7 7 8 a & 1.",
"& q > , < 2 1 3 2 6 7 7 7 7 7 7 8 8 0 a & & q > , < 2 1 3 2 6 7 7 7 7 7 7 8 8 0 a & & q > , < 2 1 3 2 6 7 7 7 7 7 7 8 8 0 a & i.& q > , < 2 1 3 2 6 7 7 7 7 7 7 8 8 0 a & & q > , < 2 1 3 2 6 7 7 7 7 7 7 8 8 0 a & & q > , < 2 1 3 2 6 7 7 7 7 7 7 8 8 0 a & 1.",
"$ e , < 1 7 7 7 7 7 7 7 7 8 8 8 8 0 0 a & $ e , < 1 7 7 7 7 7 7 7 7 8 8 8 8 0 0 a & $ e , < 1 7 7 7 7 7 7 7 7 8 0 8 8 0 0 a & h.$ e , < 1 7 7 7 7 7 7 7 7 8 8 8 8 0 0 a & $ e , < 1 7 7 7 7 7 7 7 7 8 8 8 8 0 0 a & $ e , < 1 7 7 7 7 7 7 7 7 8 8 8 8 0 0 a & 2.",
"$ y , 5 7 8 8 8 8 8 8 8 0 0 0 0 0 q q g $ $ y , 5 7 8 8 8 8 8 8 0 0 0 0 0 0 q q g $ $ y , 5 7 8 8 8 8 8 0 0 0 0 0 0 0 q q g $ b.$ y , 5 7 8 8 8 8 8 8 8 0 0 0 0 0 q q g $ $ y , 5 7 8 8 8 8 8 8 0 0 0 0 0 0 q q g $ $ y , 5 7 8 8 8 8 8 0 0 0 0 0 0 0 q q g $ 2.",
"$ y , 3 0 0 0 0 0 q q q q q q q q q y g $ $ y , 3 8 0 0 0 0 q q q q q q q q q y h $ $ y , 3 8 0 0 0 0 q q q q q q q q q y g $ %.$ y , 3 0 0 0 0 0 q q q q q q q q q y g $ $ y , 3 8 0 0 0 0 q q q q q q q q q y h $ $ y , 3 8 0 0 0 0 q q q q q q q q q y g $ ) ",
"$ y , 3 8 0 q q q q w y w e r y y u u h $ $ y , 3 8 0 q q q q w y w e r y y u u h $ $ y , 3 8 0 q q q q w y w e r y y u u h $ :.$ y , 3 8 0 q q q q w y w e r y y u u h $ $ y , 3 8 0 q q q q w y w e r y y u u h $ $ y , 3 8 0 q q q q w y w e r y y u u h $ $.",
"@ y , < 7 q q q y y y y u u u u u i i z $ @ y , < 7 q q q y y y y u u u u u i i z $ @ y , < 7 q q q y y y y u u u u u i i z $ :.@ y , < 7 q q q y y y y u u u u u i i z $ @ y , < 7 q q q y y y y u u u u u i i z $ @ y , < 7 q q q y y y y u u u u u i i z $ :.",
"# y y y u a a a s g g g g g s a a a a g @ # y y y u a a a s g g g g g s a a a a g @ # y y y u a a a s g g g g g g a a a a g @ :.# y y y u a a a s g g g g g s a a a a g @ # y y y u a a a s g g g g g s a a a a g @ # y y y u a a a s g g g g g g a a a a g @ i.",
"$ & & & & & & & & = ; & & & $ $ $ $ @ $ # $ & & & & % & & & = ; & & & $ $ $ $ @ # # $ & & & & % & & & = ; & & & $ $ $ $ @ # # i.$ & & & & & & & & = ; & & & $ $ $ $ @ $ # $ & & & & % & & & = ; & & & $ $ $ $ @ # # $ & & & & % & & & = ; & & & $ $ $ $ @ # # $.",
"- - & * * & & & & & = ; & & & $ $ $ $ @ # - - & * * & & & & & ; ; & & & $ $ $ $ @ # - - & * * & & & & & = ; & & & $ $ $ $ @ # 0.- - & * * & & & & & = ; & & & $ $ $ $ @ # - - & * * & & & & & ; ; & & & $ $ $ $ @ # - - & * * & & & & & = ; & & & $ $ $ $ @ # $.",
"& a a a a a a a a a a a d g h h h z z z % & a a a a a a a a a a a d g h h h z z z % & a a a a a a a a a a a d g h l l z z z % 2.& a a a a a a a a a a a d g h h h z z z % & a a a a a a a a a a a d g h h h z z z % & a a a a a a a a a a a d g h l l z z z % ' ",
"- u 7 7 < < < < < < 3 3 7 0 q q y u u h & * u 7 7 1 < < < < < 3 3 7 0 q q y u u h & * u 7 7 < < < < < < 3 3 7 0 q q y u u l & 0.- u 7 7 < < < < < < 3 3 7 0 q q y u u h & * u 7 7 1 < < < < < 3 3 7 0 q q y u u h & * u 7 7 < < < < < < 3 3 7 0 q q y u u l & $.",
"* u 2 8 7 7 3 2 < 2 2 3 7 0 q q y u p l & * u 2 8 7 7 7 2 < < 2 3 7 0 q q y u p l & * u 2 8 7 7 7 2 < 2 2 3 7 0 q q y u p l & 2.* u 2 8 7 7 3 2 < 2 2 3 7 0 q q y u p l & * u 2 8 7 7 7 2 < < 2 3 7 0 q q y u p l & * u 2 8 7 7 7 2 < 2 2 3 7 0 q q y u p l & :.",
"& u < 7 7 7 7 < 2 < 7 7 7 8 0 q y u a z & & u < 7 7 7 7 < 2 < 1 7 7 8 0 q y u a z & & u < 7 7 7 7 < 2 < 7 7 7 8 0 q y u a z & 2.& u < 7 7 7 7 < 2 < 7 7 7 8 0 q y u a z & & u < 7 7 7 7 < 2 < 1 7 7 8 0 q y u a z & & u < 7 7 7 7 < 2 < 7 7 7 8 0 q y u a z & i.",
"% w , 3 7 7 3 3 2 < 4 7 7 7 8 0 q u a z & % w , 3 7 7 7 3 2 < 4 7 7 7 8 0 w u a z & % w , 3 7 7 7 3 2 < 4 7 7 7 0 0 q u a z & $.% w , 3 7 7 3 3 2 < 4 7 7 7 8 0 q u a z & % w , 3 7 7 7 3 2 < 4 7 7 7 8 0 w u a z & % w , 3 7 7 7 3 2 < 4 7 7 7 0 0 q u a z & 2.",
"& q > < 3 7 7 3 3 2 5 3 7 7 8 0 q y u k % & q > < 3 7 7 3 3 2 5 3 7 7 8 0 q y u k % & q > < 3 7 7 3 3 2 5 3 7 7 8 0 q y u k % 2.& q > < 3 7 7 3 3 2 5 3 7 7 8 0 q y u k % & q > < 3 7 7 3 3 2 5 3 7 7 8 0 q y u k % & q > < 3 7 7 3 3 2 5 3 7 7 8 0 q y u k % $.",
"& q > , < 7 3 3 3 < 2 2 7 7 8 8 q e u h & & q > , < 7 3 3 3 < 2 2 7 7 8 8 q q y h & & q > , < 7 3 3 3 < 2 2 7 7 8 8 0 q y h & 2.& q > , < 7 3 3 3 < 2 2 7 7 8 8 q e u h & & q > , < 7 3 3 3 < 2 2 7 7 8 8 q q y h & & q > , < 7 3 3 3 < 2 2 7 7 8 8 0 q y h & :.",
"& q > O + 2 2 3 < < < < 6 6 7 8 0 q e h & & q > O + 2 2 3 < < < 2 6 7 7 8 0 q q g & & q > O + 2 2 3 < < < 2 6 6 7 8 0 q q g & 1.& q > O + 2 2 3 < < < < 6 6 7 8 0 q e h & & q > O + 2 2 3 < < < 2 6 7 7 8 0 q q g & & q > O + 2 2 3 < < < 2 6 6 7 8 0 q q g & 2.",
"= q >   . < 2 2 2 2 < < 2 < 7 7 8 8 q g & = q >   . < 2 2 2 2 < < 2 < 7 7 8 8 q g & = q >   . < 2 2 2 2 < < 2 < 7 7 8 8 q g & :.= q >   . < 2 2 2 2 < < 2 < 7 7 8 8 q g & = q >   . < 2 2 2 2 < < 2 < 7 7 8 8 q g & = q >   . < 2 2 2 2 < < 2 < 7 7 8 8 q g & ..",
"; q > X o < < < < < < 2 < 2 6 7 7 8 0 a = ; q > X o < < < < < < 2 < 2 6 7 7 8 0 a = ; q > X o < < < < < < 2 < 2 6 7 7 8 0 a = 2.; q > X o < < < < < < 2 < 2 6 7 7 8 0 a = ; q > X o < < < < < < 2 < 2 6 7 7 8 0 a = ; q > X o < < < < < < 2 < 2 6 7 7 8 0 a & H ",
"& q >   X < < < < < < < < 2 2 7 7 8 8 a ; & q >   X < < < < < < < < 2 2 7 7 8 8 a ; & q >   X < < < < < < < < 2 2 7 7 8 8 a ; 1.& q >   X < < < < < < < < 2 2 7 7 8 8 a ; & q >   X < < < < < < < < 2 2 7 7 8 8 a ; & q >   X < < < < < < < < 2 2 7 7 8 8 a ; ..",
"& q > O + < < < < < < < 6 7 7 7 7 8 0 a & & q > O + < < < < < < < 6 7 7 7 7 8 8 a & & q > O + < < < < < < < 6 7 7 7 7 8 8 a & ..& q > O + < < < < < < < 6 7 7 7 7 8 0 a & & q > O + < < < < < < < 6 7 7 7 7 8 8 a & & q > O + < < < < < < < 6 7 7 7 7 8 8 a & $.",
"& q > , < 2 1 3 2 6 7 7 7 7 7 7 8 8 0 a & & q > , < 2 1 3 2 6 7 7 7 7 7 7 8 8 0 a & & q > , < 2 1 3 2 6 7 7 7 7 7 7 8 8 0 a & :.& q > , < 2 1 3 2 6 7 7 7 7 7 7 8 8 0 a & & q > , < 2 1 3 2 6 7 7 7 7 7 7 8 8 0 a & & q > , < 2 1 3 2 6 7 7 7 7 7 7 8 8 0 a & :.",
"$ e , < 1 7 7 7 7 7 7 7 7 8 8 8 8 0 0 a & $ e , < 1 7 7 7 7 7 7 7 7 8 8 8 8 0 0 a & $ e , < 1 7 7 7 7 7 7 7 7 8 8 8 8 0 0 a & $.$ e , < 1 7 7 7 7 7 7 7 7 8 8 8 8 0 0 a & $ e , < 1 7 7 7 7 7 7 7 7 8 8 8 8 0 0 a & $ e , < 1 7 7 7 7 7 7 7 7 8 8 8 8 0 0 a & :.",
"$ y , 5 7 8 8 8 8 8 8 8 8 0 0 0 0 q q g $ $ y , 5 7 8 8 8 8 8 8 8 8 0 0 0 0 q q g $ $ y , 5 7 8 8 8 8 8 8 8 0 0 0 0 0 q q g $ 2.$ y , 5 7 8 8 8 8 8 8 8 8 0 0 0 0 q q g $ $ y , 5 7 8 8 8 8 8 8 8 8 0 0 0 0 q q g $ $ y , 5 7 8 8 8 8 8 8 8 0 0 0 0 0 q q g $ 2.",
"$ y , 3 8 0 0 0 0 q q q q q q q q q y g $ $ y , 3 8 0 0 0 0 q q q q q q q q q y g $ $ y , 3 8 0 0 0 0 q q q q q q q q q y h $ 2.$ y , 3 8 0 0 0 0 q q q q q q q q q y g $ $ y , 3 8 0 0 0 0 q q q q q q q q q y g $ $ y , 3 8 0 0 0 0 q q q q q q q q q y h $ ) ",
"$ y , 3 8 0 q q q q w y w e r y y u u h $ $ y , 3 8 q q q q q w y w e r y y u u h $ $ y , 3 8 0 q q q q w y w e r y y u u h $ $.$ y , 3 8 0 q q q q w y w e r y y u u h $ $ y , 3 8 q q q q q w y w e r y y u u h $ $ y , 3 8 0 q q q q w y w e r y y u u h $ ..",
"@ y , < 7 q q q y y y y u u u u u u i z $ @ y , < 7 q q q y y y y u u u u u u i z $ @ y , < 7 q q q y y y y u u u u u u i z $ ..@ y , < 7 q q q y y y y u u u u u u i z $ @ y , < 7 q q q y y y y u u u u u u i z $ @ y , < 7 q q q y y y y u u u u u u i z $ ' ",
"# y y y u a a a s g g g g g s a a a a g @ # u y y u a a a s g g g g g s a a a a g @ # y y y u a a a s g g g g g s a a a a g @ :.# y y y u a a a s g g g g g s a a a a g @ # u y y u a a a s g g g g g s a a a a g @ # y y y u a a a s g g g g g s a a a a g @ H ",
"- - & * * & % & & & = ; & & & $ $ $ $ @ # - - & * * & & & & & = ; & & & $ $ $ $ @ # - - & * * & % & & & = ; & & & $ $ $ $ @ # ..- - & * * & % & & & = ; & & & $ $ $ $ @ # - - & * * & & & & & = ; & & & $ $ $ $ @ # - - & * * & % & & & = ; & & & $ $ $ $ @ # N ",
"& a a a a a a a a a a a d g h h h z z z % & a a a a a a a a a a a d g h l h z z z % & a a a a a a a a a a s d g h h h z z z % :.& a a a a a a a a a a a d g h h h z z z % & a a a a a a a a a a a d g h l h z z z % & a a a a a a a a a a s d g h h h z z z % k ",
"- u 7 7 < < < < < < 3 3 7 0 q q y u u h & * u 3 7 1 < < < < < 3 3 7 0 q q y u u h & * u 7 7 1 < < < < < 3 3 7 0 q q y u u h & ..- u 7 7 < < < < < < 3 3 7 0 q q y u u h & * u 3 7 1 < < < < < 3 3 7 0 q q y u u h & * u 7 7 1 < < < < < 3 3 7 0 q q y u u h & j ",
"* u 2 8 7 7 7 2 < 2 3 3 7 0 q r y u p l & * u 2 8 7 7 7 2 < 2 2 3 7 0 q q y u p l & * u 2 8 7 7 7 2 < 2 2 3 7 0 q r y u p l & $.* u 2 8 7 7 7 2 < 2 3 3 7 0 q r y u p l & * u 2 8 7 7 7 2 < 2 2 3 7 0 q q y u p l & * u 2 8 7 7 7 2 < 2 2 3 8 0 q r y u p z & j ",
"& u < 7 7 7 7 < 2 < 7 7 7 0 0 q y u a z & & e < 7 7 7 7 < 2 < 7 7 7 0 0 q y u a z & & u < 7 7 7 7 < 2 < 7 7 7 0 0 q y u a z & Y & u < 7 7 7 7 < 2 < 7 7 7 0 0 q y u a z & & e < 7 7 7 7 < 2 < 7 7 7 0 0 q y u a z & & u < 7 7 7 7 < 2 < 7 7 7 0 0 q y u a z & i ",
"% w , 3 7 7 7 3 2 < 4 7 7 7 8 0 q u a z & & y , 3 7 7 7 3 2 < 4 7 7 7 8 0 q u a z & % w , 3 7 7 7 3 2 < 4 7 7 7 8 0 q u a z & :.% w , 3 7 7 7 3 2 < 4 7 7 7 8 0 q u a z & & y , 3 7 7 7 3 2 < 4 7 7 7 8 0 q u a z & % w , 3 7 7 7 3 2 < 4 7 7 7 8 0 q u a z & j ",
"& q > < 3 7 7 3 3 2 5 3 7 7 8 0 q y u k & & q > < 3 7 7 3 3 2 5 3 7 7 8 0 q y u k % & q > < 3 7 7 3 3 2 5 3 7 7 8 0 q y u k % ..& q > < 3 7 7 3 3 2 5 3 7 7 8 0 q y u k & & q > < 3 7 7 3 3 2 5 3 7 7 8 0 q y u k % & q > < 3 7 7 3 3 2 5 3 7 7 8 0 q y u k % x ",
"& q > , < 7 3 3 3 < 2 2 7 7 8 8 0 q y h & & q > , < 7 3 3 3 < 2 2 7 7 8 8 0 q y h & & q > , < 7 3 3 3 < 2 2 7 7 8 8 0 q y h & H & q > , < 7 3 3 3 < 2 2 7 7 8 8 0 q y h & & q > , < 7 3 3 3 < 2 2 7 7 8 8 0 q y h & & q > , < 7 3 3 3 < 2 2 7 7 8 8 0 q y h & g ",
"& q > O + 2 2 3 < < < 2 6 6 7 8 0 q q g & & q > O + 2 2 3 < < < 2 6 6 7 8 0 q q g & & q > O + 2 2 3 < < < 2 6 6 7 8 0 q q g & v & q > O + 2 2 3 < < < 2 6 6 7 8 0 q q g & & q > O + 2 2 3 < < < 2 6 6 7 8 0 q q g & & q > O + 2 2 3 < < < 2 6 6 7 8 0 q q g & i ",
"= q >   . < 2 2 2 2 < < 2 < 7 7 8 8 q g & = q >   . < 2 2 2 2 < < 2 < 7 7 8 8 q g & = q >   . < 2 2 2 2 < < 2 < 7 7 8 8 q g & I = q >   . < 2 2 2 2 < < 2 < 7 7 8 8 q g & = q >   . < 2 2 2 2 < < 2 < 7 7 8 8 q g & = q >   . < 2 2 2 2 < < 2 < 7 7 8 8 q g & j ",
"; q > X o < < < < < < 2 < 2 6 7 7 8 0 a = ; q > X o < < < < < < 2 < 2 6 7 7 8 0 a = ; q > X o < < < < < < 2 < 2 6 7 7 8 0 a = ..; q > X o < < < < < < 2 < 2 6 7 7 8 0 a = ; q > X o < < < < < < 2 < 2 6 7 7 8 0 a = ; q > X o < < < < < < 2 < 2 6 7 7 8 0 a = i ",
"& q >   X < < < < < < < < 2 2 7 7 8 8 a ; & q >   X < < < < < < < < 2 2 7 7 8 8 a ; & q >   X < < < < < < < < 2 2 7 7 8 8 a ; Y & q >   X < < < < < < < < 2 2 7 7 8 8 a ; & q >   X < < < < < < < < 2 2 7 7 8 8 a ; & q >   X < < < < < < < < 2 2 7 7 8 8 a ; u ",
"& q > O + < < < < < < < 6 7 7 7 7 8 8 a & & q > O + < < < < < < < 6 7 7 7 7 8 8 a & & q > O + < < < < < < < 6 7 7 7 7 8 0 a & Y & q > O + < < < < < < < 6 7 7 7 7 8 8 a & & q > O + < < < < < < < 6 7 7 7 7 8 8 a & & q > O + < < < < < < < 6 7 7 7 7 8 8 a & f ",
"& q > , < 3 1 3 2 6 7 5 7 7 7 7 8 8 0 a & & q > , < 2 1 3 3 6 7 7 7 7 7 7 8 8 0 a & & q > , < 2 1 3 2 6 7 7 7 7 7 7 8 8 0 a & Y & q > , < 3 1 3 2 6 7 5 7 7 7 7 8 8 0 a & & q > , < 2 1 3 3 6 7 7 7 7 7 7 8 8 0 a & & q > , < 2 1 3 2 6 7 7 7 7 7 7 8 8 0 a & f ",
"$ e , < 5 7 7 7 7 7 7 7 7 8 0 8 8 0 0 a & $ e , < 1 7 7 7 7 7 7 7 7 8 8 8 8 0 0 a & $ e , < 1 7 7 7 7 7 7 7 7 8 8 8 8 0 0 a & H $ e , < 5 7 7 7 7 7 7 7 7 8 0 8 8 0 0 a & $ e , < 1 7 7 7 7 7 7 7 7 8 8 8 8 0 0 a & $ e , < 1 7 7 7 7 7 7 7 7 8 8 8 8 0 0 a & 9 ",
"$ y , 5 7 8 8 8 8 8 8 8 8 0 0 0 0 q q g $ $ y , 5 7 8 8 8 8 8 0 8 8 0 0 0 0 q q g $ $ y , 5 7 8 8 8 8 8 0 0 0 0 0 0 0 q q g $ Y $ y , 5 7 8 8 8 8 8 8 8 8 0 0 0 0 q q g $ $ y , 5 7 8 8 8 8 8 0 8 8 0 0 0 0 q q g $ $ y , 5 7 8 8 8 8 8 0 0 0 0 0 0 0 q q g $ t ",
"$ y , 3 8 0 0 0 0 q q q q q q q q q y g $ $ y , 3 8 0 0 0 0 q q q q q q q q r y g $ $ y , 3 8 0 0 0 0 q q q q q q q q q y g $ H $ y , 3 8 0 0 0 0 q q q q q q q q q y g $ $ y , 3 8 0 0 0 0 q q q q q q q q r y g $ $ y , 3 8 0 0 0 0 q q q q q q q q q y g $ 9 ",
"$ y , 3 8 0 q q q q w y w e r y y u u l $ $ y , 3 8 0 q q q r w y w e r y y u u h $ $ y , 3 8 0 q q q r w y w e r y y u u h $ j $ y , 3 8 0 q q q q w y w e r y y u u l $ $ y , 3 8 0 q q q r w y w e r y y u u h $ $ y , 3 8 0 q q q r w y w e r y y u u h $ 9 ",
"@ y , < 7 q q q y y y y u u u u u u i z $ @ y , < 7 q q q y y y y u u u u u u i z $ @ y , < 7 q q q y y y y u u u u u u i z $ g @ y , < 7 q q q y y y y u u u u u u i z $ @ y , < 7 q q q y y y y u u u u u u i z $ @ y , < 7 q q q y y y y u u u u u u i z $ 9 ",
"# y y y u a a a s g g g g g s a a a a g @ # y y y u a a a s g g g g g s a a a a g @ # y y y u a a a s g g g g g s a a a a g @ k # y y y u a a a s g g g g g s a a a a g @ # y y y u a a a s g g g g g s a a a a g @ # y y y u a a a s g g g g g s a a a a g @ : ",
"$ & & & & % & & & = ; & & & $ $ $ $ @ $ # $ & & & & % & & & = ; & & & $ $ $ $ @ # # $ & & & & % & & & = ; & & & $ $ $ $ @ # # m $ & & & & % & & & = ; & & & $ $ $ $ @ $ # $ & & & & % & & & = ; & & & $ $ $ $ @ # # $ & & & & % & & & = ; & & & $ $ $ $ @ # # : "
};
