/* XPM */
static char *_89e1b4418f54496b75cff8d288e9d6alYd0bgZHckv4tAfM[] = {
/* columns rows colors chars-per-pixel */
"128 128 80 1 ",
"  c #CED2D2",
". c #CFD2D2",
"X c #CFD3D3",
"o c #D1D5D5",
"O c #D2D6D6",
"+ c #D3D7D7",
"@ c #D4D8D8",
"# c #D5D8D8",
"$ c #D5D9D9",
"% c #D6DADA",
"& c #D7DBDB",
"* c #D8DBDB",
"= c #D8DCDC",
"- c #D9DCDC",
"; c #DADDDD",
": c #DBDDDD",
"> c #DBDEDE",
", c #DCDEDE",
"< c #DCDFDF",
"1 c #DCE0E0",
"2 c #DDE0E0",
"3 c #DDE1E1",
"4 c #DEE1E1",
"5 c #DEE2E2",
"6 c #DFE3E3",
"7 c #E0E3E3",
"8 c #E0E4E4",
"9 c #E1E4E4",
"0 c #E1E5E5",
"q c #E2E6E6",
"w c #E3E6E6",
"e c #E3E7E7",
"r c #E4E7E7",
"t c #E4E8E8",
"y c #E5E9E9",
"u c #E6E9E9",
"i c #E6EAEA",
"p c #E7EAEA",
"a c #E7EBEB",
"s c #E8EBEB",
"d c #E9EBEB",
"f c #E9ECEC",
"g c #EAECEC",
"h c #EAEDED",
"j c #EBEEEE",
"k c #EBEFEF",
"l c #ECEFEF",
"z c #ECF0F0",
"x c #EDF0F1",
"c c #EDF1F1",
"v c #EEF1F1",
"b c #EEF2F2",
"n c #EFF2F2",
"m c #EFF3F3",
"M c #F0F4F4",
"N c #F1F4F4",
"B c #F1F5F5",
"V c #F2F5F5",
"C c #F2F6F6",
"Z c #F3F6F7",
"A c #F3F7F7",
"S c #F4F7F7",
"D c #F4F8F8",
"F c #F5F8F8",
"G c #F6F9F9",
"H c #F7F9F9",
"J c #F7FAFA",
"K c #F8FAFA",
"L c #F8FAFB",
"P c #F8FBFB",
"I c #F8FCFC",
"U c #F9FCFC",
"Y c #F9FDFD",
"T c #FAFDFD",
"R c #FAFEFE",
"E c #FBFFFF",
"W c #FCFFFF",
"Q c #FDFFFF",
"! c #FEFFFF",
"~ c white",
/* pixels */
"SDDfddzPSMIIISafzMMDMDPPPPMDIDDMSzPSPMMSDPPIPafIzSMzlMMDIMMllfDPDPz:a0DMzMIQPfaSDDMMDMMSMlMDdlPMdMIQDMDMDDDPSDPDzPIQIMMIMMDDMMDS",
"MzzafzPPzzMDPza:aDPDDQQQMMSMPzdzMIIDIDzzdzMzDDdMffaMSafDIMdzIDDfaSSzzDzafMDDIDSPDDDMzzdzM0dMaaMzzSMMlDIPDSDMazPDSMMMfaDDPDzDIIPM",
"zaDDdDPDIDMfDlD:0MDPPPIMPDIfMMzMSPIDDDa2afMIQMafazlf0fMazSzMMMDzDPa0IISPIMDMIPDDDMzMfPDM0fzzzzMdDDD0fMfDlzlzazPSPzMDIIDPPQIPMMzM",
"dDQQPDSIDzz2zzSPzzzDPMlfDDSIDDMMSzMPIMzMMIQIPDlzDlrDrzadfDz0azzzDIzMMMMdlMDzlMPDMzMzDDDDDDzMMMzzMMSzMd0zzMMIIMSMMDDPIIMMMDMDDMDD",
"zDPPDPMzIM2ldzMIIDMMaa2lMMzzDMzlzMPMDDMMMDPldMd:0ffMzzMDzlM22rzMzDDzzDIzlMDMMDIDMMzzMSSdfDzMDMzzMzlMDdDMrazDMzSDMMDPDDPIDzDMQMfz",
"PIDDMzzMfDDlMMDDPPQMzzfllr2rzzMlzMzDMzDDzfDMMDMMzzMaMdDDzlz0DMfPMzzDMDDPSMfDDPDzDMSMSMMMDMfPDMMDPMzSfMMDzzPIDDDrzDMMPDDQIPIIIDza",
"IDDDDIDDdMPMdDPDIDDMzazf0zMaDDIzzdfMDDMMMzSMDSPISMDzDMPDzMzfdDMDz2MPMDIISzMDlzMDIMafM0a2lDMDMDPQIIMzzfaMDDIIQIz0lfzDDazQQIMISfMa",
"DMMIPDDDDMzMMMDDIIPIMflafDQIPzPMS2rdSIPMMSDzDPPDzfMDPPDDIDMazSzMlrSMMSPSzMDPIldMzz0:aDDM7zDDDMfzfDIDDMMDffDMDDM00a0zDzMPIzfDlMMP",
"z0DIDDIPPPzfzfMDSMMllzzIMlzDIMaPIzdDzIQDalDDDIIQIMlMzIIQPdff0MIIMzPPMSDMzSPMMMDSMMMSPSlzDPlzMlfzzMlMPPMPMMMMMMIaMMQIIIPPPzdMzfSP",
"MDPzMIDffMDfdfDDaDMf0aPPDMlzMzzSDIIPzzIMzIIQIIQQIDMDDIDMDDQIMPIzMMSPDIIQPIMMPDMDSdDQQPPIQDMDf2%MIIIQQMflSSMlDPIzSlIDIDMPIDSIzlQI",
"MDlfzSlMMPff0ffSafDDDfDISDDzdzPDDDDDfDIDDzMzMIPDPPzMDDMdPIIIDzzl7fMDDIPIPPMzlzDlSaMSQIPQzMIIISPIIPIDDDDlzMMdPDzzPfMzzDDMDIMffMfP",
"QIzzPIIQIMMDDMPIPMDDDzzIQPDMMDIIMazPDMDMzMMfzDzMPDMfIDMMMDz0d0lIP0dDzMMDIMzzfzSd0MMzSDPPIIQDDIPMSlzDMMMzMzfdMaMDMMDPDDDzMzzMDDdM",
"MPPMzMMPSzfzIPIIDDMMDDlDQaDIzMMDMPMMDIDMIIDMMdzzSDzzDPd%zfzazl7MIQIMMro:0MzMDMzIzMfa0azPIPPDMDSlMMMIIDzDPzMMddM0aDIIQQIMzzMDDPMf",
"MDQSDDIDzMfz02zPQQPPIDDIDlMzfzfDSDzMPIDlPPIIPIDMSzIDDDfdIIPMMadfIMIIPPf:a0dffrMDPD2lSzzDSMIDDIPPDMzMDMzzIDSMazfaMSMDDISzIDfSMDMM",
"DPDzzPDPIMIPPlfdrfIQIzIDMDMaPPIQIPdrPIDMMSDDMDMr0adDMfMIIIQIIMzSSzPPlDPIIDSzDrzzzMazDDzDDDMzPMffMffzMfdMDMMMIIIDDMMzMMSfMDQIMMMM",
"IDMfMMfzIMMlDQldzMDMMMIaMMSfzIIMMIzMIPSDDSPPMMM00zzMMzzMSMDIDDzzzDII0fMzMDIMSfzDDzDfMMMSDSPIIz2fdMDMzazMSIDzMMMIPMMzlz0dfMMIDMzz",
"MIMDfzDSDPMMDzzzPPaafDDSDMIISSIzz0fMIPIIMMDIf0zzDDDzMDSMMSPPPMPIIPDMM7rMzzSDMDfzDDDzMMMPMQQQDffr:zDPDfPIPMDMMzzDPzMMMD02aaMMSdlz",
"fzf0MPIrDDPPIDMfDDDD:alMSDSDzMMDDzfIPDPIMMDDSIMzzSIzzDDDPMIPDDPMdDIDDfzPzSzzDDDMMPMzadaQaDSPQIDf0DQQIMSSMMDaMfdzMPzMffPDS0lDDfzQ",
"zzIzQIIPIzMIfafdMzIf0zIzzMMMldafMPIMDDDMffPIQMfMDMMPPIIIzzIMDDMffMMMSMPDMzzdazzMMMDDDSfMMz0lzzSDzDPMDSMff:2zMDDSSMMd:lMIDMDIIDDD",
"IPDMDIaaIIDDdfMMM77fMDDIDMDzMMMfDDPDIPDMldDPzrlzDSdfMMMMMDDIIDMzdzDMMDMaafaafDlrMDDDDDDDPzl2:zzfffDDfMPMI70MPPIDMSDlMfzPDMMMSMzM",
"IPMMMzafDzDfDMSIDD:zSDDQIDSMQQDDDMlMIDMDIDMd%fMflzDffDMDfzSMPPPPDIIDDDDMa2f0Mzz0zMMMffMMdaIzMPMz:7MDMDQIIffDPDMzzMDSPzzzff0aSDDM",
"PPMQPzaMMla2MIPzQIMzPMzDMIDIQDIQPDlaMDMfPQPSMMD22aDDdzQPzMDMlzIIIIIQQPIDSa0:MDDfdfrIMaMMallMPSDMzd2ffMMDzDIzMDMMzzPPPIIMfDISfzad",
"SDPDSIQIDSDDPMMMIIfDDffSlMMMMMDPIIMzzMIfSIIMIIM%2zaSDzDPdff7ffzrMMIQQlMMMMzzMDzzMlfMDfl70fzDDMIQQPzfffrddMDDMDMIzMPPIQDDIDPMdM0l",
"IMDzMMzQQDDDMPMfMllDIDDPQIDIMDzDIIMIIIIdaDDM0la0zM:%0MIDlzMzf0laaffMDr2dfIIMlDMSMza7alzMDfSDDMDIQDMzDzzaMlzMlfMfzrMMMSzfPDfz0frf",
"DDSDz0aSPDIDzISMa0dPIIDMDDQP0zaDIDPDMlfDzMzMMzzzMaffMMDDzlfDSaMQD2M:7lMzzfDIDDDIID2fzDDzzMSSDMPz0aMMMMMPa0DMMff2afMMDII0llMf2aMf",
"fDSSr:zdzSzzMMIDf0MDDDzDldIDdDzMMMMdfMlDfMzMfzSMDdMfDMSMIMffff0MS2PDMzlMMzlMDDMPISDMDIIMDDPzlMfzMzfMSDMzMSISldfMMDQQDPPzzMdldaDz",
"0zIIfdPDafDMDMMMM0DPSIPDMMf0dPIDPIIDDfdDalIMPPDIPfDIPlMfzMDffzMf:MIDIIDMIIDzzMDPPzzDIDDDSDMSfzzaDzlIIIMfMDz20MzQIPIDPzzPMDzfdlMD",
"DlQDzISMMzPDPIMDD0aDSIIPPPDzfDQDMIzzDMffSrfIDDMDPMDMSMzzMMMfzDPl:zzzlMMzDMIz2zSDMSzMIDPIDDDzMzMDIMafafa2:0add0zIMfMzDDMfzMMzIQMM",
"QQQQIPDzMzDDIfDIDMSDMIIIIQIDQSIDdDIfMD00DMMzfzDPMMIzMIMSDMMDMzMfa:fzf27MMzDDfzadzMMMPDDSIPMzDMMIIMa*z2fPzrM07azzMMfzMDMDzfMMPlzM",
"IIMDPPMa0fPDDMMPDMDPMIIDDIIDQPMzzDDffMSDDDQDlzllMDDDPDIDPDSMzfMMPSzflSPMMDDMffdMaDDSa0flDPPIPDIQDDz@IzdMa00aIMaaPIDPIPMlMzMMMadM",
"MIzMMSz7MDIDIzDlzzMDPMMSSPIDDDIMlMMaalMMDIIzzISdffMIIlz7fMMDMMMMSDPPQPIPMzfzMMzIzMQPfaaMMzDDzMIIDMMzPSzMDfrPQIDIDDzMDDDlSIzPDMDD",
"DDSzMlzMQQQMM0DMMDDMldlSIDzPPDDIPaMzfz02MIIPIQIIIDMSPMf2:MMfzIIIPDzMMDPDzDDMDzMMSlIIIPD2lfMDf27zMfIMzMzDDMfMDPIDPDlzlSM0fISSPzzD",
"IDMllIIDPDazaaMIDMDMMPIzdazDSSMMPzzQSlMMMMzzDDPIDIIDDMMfrdzlzDDDMDDzfazSPQIDMzDlfafDz0razDIPPafaDraf0lPzPMDMMSMlzafMz00zzzMDDMdD",
"DIDS0MDDDDMSDM0fIQDDPIQMfIfzMfMIlzDMzMDIPDzzMMSSMDIIIDSPMrlDdlSDzlz2:2dMDDPPMIIMdMlfaaffMDDPlSIzzdaMD2lzzfSzMMDPPDDPQ:rDdDMarMDz",
"MPDMaMIPDDSPPPIIIIazMMDMfDMf0:aDMMDffIIPIIDQQISDSSMr0MzIM0d2zzDSPIDPDPIIDzf2OSSfMfzzIDIQIMSMMzMDPMIQQfMDM0ffSPIMMQIDzadMfar7DMMf",
"DzSllDSPzMDDMffMaMDDDSDDdDSMaM7fIIIzDSMDIMIPIQIIDDMfdzMDzfzfMaPDPMDdDPMzf0z22za0MfMSMaIDMDMa0MzzflzDIDPIDDDMlzDDPPzzMffMMd0DDDSf",
"QQPDzMPQMMzMzzazMfzPzdMDDPzdazPDIIPIIDMIDzDDzzIQQzrlMSDDDMMDMMzDPMIM2dd:fPPIQaMMMaaDf2DDaIIIzlMzDMMzDDDMMSMMzazDDSffdzfDDzzPDMMf",
"IIIf0:PMf0zfzfDDIMzS0azfDDaflDDPzDIDDDMDMzIPll7lMz0:0DzMPfMMMzMPIISQMzSDDDDPDzIPSMDzf2MSzDPIQPDDIPDDDPPMMDM0aMazMlMMfMfDIDfzISDD",
"zzd220PzazQQDMfIMzSMr0rlIfMf7rMzzMMMSPMlIDzDPMdzz02:0DllDfDDMDMPIMzfSSlzzdzfzDPIIDPPIPMMDllMDQIDlSDMMMParMMdIDa0zMzMzMMMIQzzlSDD",
"zzzfzzlSMMIISfdlzzMSl2MM20MSMzMzfzlIDdMzDIMDIDDMMMzMDDMzMlDDMPMPfDDDPDPDMzfMPDMMzdDQIIIDDIDMDMIQPIQIzfalzfzzDPzdlDIMDSDPDIMzDDMS",
"DIIDSSMDMzDzMDPMSDDMMMDIaffPIMMMzldfazIdaDlaDIDzMDDMMMPPMDPDDDDPMDIPIMzDDffzIIMzffzMPPIDSQQIIMMdlMIazIMSlrMMMDMMIzIIPPPDDIMDMzMz",
"MIIIQQQIDIPDMMDQMIQIIDDPSDzdDIDIMzPz%zDMlf7fDIDDaaQMMPSDPIDPPIQISlzlMDMDDMMMSMDDSMMfzSDMDPDDDIMzPMzfIDIDMDMSMafrMDDDIIIIIMDSDSMf",
"zPIIMIIDDDIPSDDMDQDIIzzPfMIfdMMIMPPIfMMPQDfMDPMrlMIzSPzfIMDPIDDzzf0zDDIIDzMSMIIzPDDQQQMzzPM2MDDlPDMPIDMMPDDDDafPMSzzMDPIPDDDPzSM",
"PMMMlMMIDMIDIPSMzDSMPPllMMMDzMSQfaQIDMIIIIfMPD0l00DzzMzlM2MMIQIDMDMDPPMPPIIPdMMfMMDDIDPIM0ldddzfMDzMMM0MPMDzlzMMMDDMzzflzMDDPMDD",
"PMIDfzDPMSzIPzzIPzMzdDPzzfzMMaMP0fDIDMPMzfdMMDM0f0azzMzfdfMMMPIIIDDMMDMazzDIIMSzzPSDIDPPMf0IIf22lPDMMDMISMMzdzDzlfMPQIDDIMSDSPDM",
"zMDSMzDDzrlDPMzIPMMQIIPMMMPDDDd:%PMzMMDDDzMMfDDal020MDDDDfzMSMzfPDMzMMzfSzMDPMMzMMDPDMlzMlzfDIQzzDMzDDIzMIDMPDMDzMIPSzIIIzMDDDSM",
"SIISzzSPPMdMDD2zIPMDPDlSDMQIIIDd2DfdMDPPMDDDzMDldzMfIQQQPMzMDfSPDPPzffSDPSzllIQQQDSDSDPMDMSfzPQQDDMPDDMrDDIQIISDMIDSlaSDMIPDMzMz",
"MPSDSzMMzzDDDMzlMSMDMfzfdzIMPIQPzfaffIQQSIIPDaMD0rzMSQPDlMzDDMfMPDPDMzDPMDDzMPDPMzDzSDSPPMIDzSPPMlzISlPdzfMSzfMSMzMMMDPDdDMDDadl",
"MDfIDzDl0aMQMMIMzSDIPSDPIfSMfDMDMzzfDIMzDIIPDzDIzafMfDMff0fIMPIfrMMzMMfDPDIPDIMlMafMMMIIDMDPlzDMzadDDDzd:zDDMdlMDMMDMlzIzaMMPDII",
"MDIISDDfffzDMMDPMIMMIIDzzlaMMMDMaffzIPSlPIzMDlfMllfzDSMf%rzDlMPM0zDPIazSfDIIDDDDQrlQQMSzzzDPPDMDMPDDDDzlMSDIlMDDSPzMDPzMzfzMDzDD",
"DaMDz2fMDPDzMSDPMfDMDQIdrlzMDDIIIPDMfll2zMzaDarazIDzzzMzMIDISMMMDDPDPSDIdalzDDIzMDMQDMDIDMMMPMfSDDMSMzMMMPSzMdDDQIMaalrllDDMMMlD",
"MlSf0razSIIQQDMDf:aMMzMMzMIMd2fQMDSIffd0aDM0MMlzlIQDDPMzQQQQIPzzDMDIIIIMDfMlIIQMMPPDMIPPDPIMaMPDPIIPDIDMDDPDDzSSQPPd2:%zPPSzfMMM",
"dSfDzzSQDaQPIM00a0aDMMzfzzDDz0zMfMQIMMPDPIIMMDMMDDMMMQfMDDPIIISSMSDMflPMMMIIIIPPIPPzMDDMPDDQDMDDM0fDMDDzIPDMzDDDMzMf0fazMMDIDDSM",
"fSzzDDzMM0dlPlffIrfDID0MlzzflPMfzfMfMMzMzDSMDPPIzMl2DMlQQDSPPIzPzll0zMMDSMzMSMMlMMDaMDMfzfzIDPMDM:lMSMMMlMDzMMSalMfzfzlPMMMMIDMD",
"Mzr2MDM2fa:aDzzMMSDMSDzSMIl0fMzflfalzMfMfMrzfaMSlfMSaMDPIQIDPDDf0drDSzIISfDDDDMDDDDDIIPPfMzf0PfDPSM7azzzllDIQIaafMfMMzfPPIPD0fMM",
"MzMzMDPDfDMDSaMPMDMMSMMMzPlfzDIPzMlDDIMDIIzdMzzMzlllzMSfMdfzDDPzSdaMDMPIDzMMSDDMQMM0*MSzlDDllzMaDDIfzf0DSfIQIDfzzfzPSfzMzDPIMDMP",
"DIS2fPQQIDDPPMDIIPMMMDzMPIIMfIMDlPIMDQIzDSz0fIffDIPdPPzMPzzMDPDPQSMMMzzMMMMMDzMzPISfaDSPMIQQQdzfddQDDDPQQDfDISfrfMDfDIDfafzPrDDI",
"DQQDDQQDIIzfMIIIDDIPMSlMDzMIIPPMMIzfazfaMDPDMf0MIDIIDl0MPDzMDPDMPIPaMfzMDISPIMDIIIDDIlzIIMPIDaSzMfzfDQQPQIMMPDz:2dzMzQMMMDMMMDrM",
"MzPDDDP2SIzMzMMMIMPIDPIDIDDDMDQDDMMMza*dzMMlzDzMMPMIDMzaDSMPDMDMDMa%aMMIQMlDMMDDIIIMdffMMlDIPDPMDPSDDMIlMQIIDPDzDIIIDIDdMMDQQM0f",
"DfDSDMfzMMlzzffzMlzDlMIIPDDDDMlMdDMDDDafMDIMaSDDIISMMz2zMzMIDPPazD200DDDDDPMzDDMMQSlfzMMDDIDDIIlSIzIDazPMMMDfMDMPQQPfdDSSDaMIIff",
"Mf0MIDfDzfDIQIMPMzDMd0MIPQIPDafM0zDIIIDMl0DMDzSIIMIIS:lPzDPMdIzfQDIIMDDzSfSDSzDDMMDMPPzPQPPffzldDDzDDIMMPSDMMMzDlMIDMPSzzM0DIMMf",
"MDfafIIIIIQQQISMzMMfSafzPPPSa0SadDIIDzazDdMMzDlDSrDIQDDMDDflMzzDDDIDddDzzzMPl0fDDazDPlaMMPDz:0DDDDzDIPzfPIQPDDzfffDPIPPMafDMfzMM",
"IIDD0DSfaMzDDMDDPDlfSMzMMPDa0far2dPIPflSDDDDad0dMDzPQIMIDaPPazSMaMzdaMfSMPDM020DIDaIIMMzzfzMMDPMDzMDDDzMDMIQIIPPMDMDSDMfMMIM0MMD",
"DSMPPd0z2::dMMPPIIz7zSDDDIIMfMz0MMMMfMPPPPDPMDDMaffIPDMQDfMDzMPfdaaMzSMIDMafaMMzDD7*zMzPIDMDMDzMfdzdDDMPIMDIMDQQIDIDDSPPIIIIlSzD",
"llMDIIIDIdzDSDMDDDDddMDDDIzPPPfMMDIPMIDzMlaDMPQQPMMSDMMPMMzzMDzPfaaIPMMDSMzMDIlfzaS77zIIQQDPDMSSfIDzPQDDIfMD00lDQDIQIIIIISaazMDI",
"MrfDPQPMIMDIQIMPzDzzPQIIIDlzlDMMPIQIQPflD0zlDDPIDPQIf7rzMzldIP0Dz:fMIDzzMaDIDDMMMdMfl0fIIDzfMzDfMMDIDDMzDzMzMadfzzPSMDIISlfDMIDM",
"zSSDPQIDzPDPzd0lzfafaMIPDMdraMDDzDIMMDMDDzdSIPMDMDPIz0MDDIDMPDaaz0aDDIQDlzSDPzMDDDDMDMMIPIzDDzIMIIIDMzzSfaPzIzaDDQQDMfMIDzMPDIMD",
"MfDDMSPMzQIMfMDDdffflaSMDDa0IDf0zfzzDSzfaMaSDMMMzIzzafPDDIf:lfralSfzDlDDPIM0MDMlMzDQPMfIIQDDIIlSPMMzzQMfMPPMDMMDMDPMMzMDDMdMPDMM",
"DlMDzzPDQPflQDIQMaMSDDdMDPMrzDzzDDMDMPDMzd7MIPM2MMMDMzMDMMldzMSPPDMrzdDIIPIfMzMffzIPf0afIIDDMMSISfz02lIDDDPDISzPDMzMMzMzDIzzSMMl",
"DPzzMMDPPzalQll22DIzzDlfffdMfMIIMMIPDISIPMfzdMafPMDDQQDSfzDlzllMIIPIMzzMDMMDDSMMaMPDDz0%azzfzfaadMM0z0fMDDIIIIMMIDMflMzIDDIPDdfS",
"SDDMDDfaMzzMzDf0dDIl2zzzMIzDM0dMSMzMMzMDQQIDflrDMMMfMQQQQQDMSfzPDDIDDPDzfMzzDPMDIDPIIPa2:zafDMf2rfddddMlfdzMMDIzDDzf7lDMPIMMDlaM",
"MDPlzzMMDMMSMMzMDISMzMDQQQafz0zfzldfIDlzDIIPDlfMDPDzMIDDIMMfDDIDzIIMPIPDzzDPzMDPPDfdDzzDdSIQQQIPIPd:fzMDDzzMd0fzSa0dfSPzMQfffzMD",
"SMaM0lPIQfaIPfMDSMzMMzPIPQfaMMzfdzzMDDzaMMDzDrMQIIPDPPSfd%afzMfrMIPDIDMSIDDMzMMdMPM0zfzDddDPIDMSzMMflz0aIQQID7ffzz0MMMPdfDzfzPII",
"a0:aaIPIDMMDIPDMadzIDSSMazMf0MPDDMdfzzlzMDIIzIIIPDMzDDPM700dDIzMSzDDSMazQDMzzIIMDSSzrMPdMfPDDzlMalaazMdffzSQQPDM2aaIPlIDMMzlMzMM",
"0:0dMPQPzDazIMzP%adDlMDPlfMfSPIDzMMMflMzDDQlaIDDDSMMzfDzMMlfzzzzMzMzMDMPIIff2MQDSMzfzlPaPffMMzSPdzSfIIIMffzPIQQDa::0fSIMDPPDPIII",
"PDDDzlMIIz7MMMadaDfMDPDDIQPDIDMzMDPQPzSMMMDMMMDIIDDQzdPzDDzPzMMzDSzMMIPPPIPIzazIIM*fzIMDPPMflMDPMzzlIDIPMzl0fadMDDzf0MSMIQIIIQQQ",
"zzfzzMMQDMMDDDazPMdaDIzDDDzDPIdMfMQDlMzIDldMDffMfMzDdlfMDMSQlPISl0fSIDPIIQPDDMlPIf:zlzMMPIPQMzMMMDMdDPzDIffr7%zDMMMP7MPPIPDPDPIQ",
"Mz0lSDMIIMDPMIMIMDMazPM2afzQQMalPQIPzzdPPMlMz:z0zDaffSDPDlMPMSfza.aMlDzDIIzdMMzDDDMfSMfPSM0dr0MzMzMzMMMMDDDzP7dSSMrdMSMzzdzMPIPI",
"DPfDMMMDDPDMlDPDSIDzzDIz0a00dzdlMMMDzSdDIIPDl2Mr2lMSMQQQISDzMDMDDIQIMPDMIIIfMDPDIQIIIISMDMflDIDDMDDDPPPPIIDlMMzMMzfzDDPMzfMMSSSS",
"SfMMSMMSDQIDDDPDMDIfMDDPDMSMzDDMMMzffSDIIIISM0dl0zMDMMMDIDMzMDDPfIIQMIIIIM0zDIIDMIPDDSf:fMMIDDIPMMIDSMDDPDMDrMMDMMDDMSMPIIQr:DzD",
"DzIIQIIQIMQPPIPDzaMDDPDDMDDPzzDIIIIMMzSzDzzMSfafa2fDDzSMDDPMDQIIDzDMzDDPPzdMSDMzMDlfaMzfMDzSMMDlf0SDMMIPDSDDzDMMPIIzDD0MDMMdDMDP",
"MIPQDMzDDMDMDDIIadfdDDPMzzMdMMMlMQIMSMMrdzaSMMl22dDDSSIMfQzzSMIQIDDMMzPPDSIIDMDlMIDMSDfzDMDIMDzl22zIMMQIDDzMDDDDzDQDz2:zdfzzzMzD",
"SQPIDl0fIllDaafz:afflQIfafMMPPDzlMDlfDMzlMDMzDDzlzDDPMMPPDl200dfzPDPzMPIIIIQIzIIMMDDIllMPDMPDDfMMzzIIPIDIISDfDIzzfMl2:MM0IDfzPMa",
"DzMMf:zQISzzd:00dfDD0SMPlMQQSMSSDlDDDSzMDfaMM:MMzDzPIDzzMlfazMMzDPMDfzIDMdDPDIMDIDPIM20DDDfIIDMMQDDQIMfzIQDSSDIMDMDMzPDIMQDfPSIz",
"MlSDfzSDDIPPSfdMIIPD0fDIMfQMfrMzDMIIPDPDPflDIz2lrMzSlz0lMf7MDIIzPDMDDDlaaMMMMIf0fMIISzfzfDMzMSDSMafDDMPIzaMMDMDDDMfPDMMMPMlzSMDM",
"IPDPPPIQQDMPSSfadDIMDMDDMzPPDMzMDDDDMDDPISSMMIIl7MDzfzDlDIafMDQlzQIIDMffMPDzIQIPzzDMdrSMMMMzzdllMzafDDlDafDMSIDMISrzIIf7fMPMMQII",
"DDPDzIIDDDSIPDPd0DIIDDMPDPDDDDDMfMzfdSMMPIIIDzDfaDSIIIQzDD0zzdDDfaMIPMzzPDDDIIIzIQQzzzfSMPDIQalzMzSMSDDDfzDMzMIDMzDDlfdzPIIMMdfl",
"DIDMlzzDDDazPDDD2fDMzDDSPIIPzDQDMDMf0aMDDzMII0frDMPIDPzSDMz:2MMDMafDPzfdMlzfzSDDMDDDMMzMzDMzDlIMDQIPMrMdzafzdlPDfMzfzafMPMfDPDMM",
"fazafzaDMDzfDIIIffzMMPIzDIPDDzMSPPIDz20PIDMPMMzfIIIPPdadraSPIQPMzlzzDMMDazDDSDIDzfzPQzzdMlzzDSldzPDMadzlMMDfzMIDzfzaaIDIf0MIPPMf",
"0zlMMzMDzPISPIDDDDzDQIQM:lSDIfzzMMMDMfzSSMDMaMPzMPalzzDzazDfMIPDPMDMadrMDlIPIMMSIMDDMfSMaazMzM0zMDzMMDQSMDMdzzD0a7dMlPIDDPDDMMMz",
"lSDQPPDIPMDIIzDDIIDDDSPMMDDDDlzl0MMDMDDPfdIPDPMISPfDDzaPMMzf0zPDaMDDPfMMDlfMM:dzMDDDDDQMzQ0dDISDQPDfzfDIffMMzfMf0f*MffSIIPfDDfzM",
"SzlMDDz0DPIQPlMDPDfMDDDzDPDDllzflMzDPDDMDDDMMDIDMPlaPD7dIPSPzPDS2dfDIlfMzzMDa0M20fIPlISfDzz7DaIPPDDSMzMS222aMIIIMDDDMDzMDDzMDDII",
"IDdlMQMzPSPDDMzMPPSPIDDSDDlfDSSDMlazMIPSSMzzlMlDDIDMSMdaDIPIPIDfPDrSPP00zDIDQMIMfzPISSff0SDlldDDMDMDMDMPMd:llMSDMDDlDSz2lMzSDDMP",
"IQIDMfMDDMDPDPSDSfzfIlzdaSSzMzzMDa0MlzIQDSMMMIzzzDIIDIMzMMMPDzMDISzfrMz0fDDSzDIIlzMzlDPffDIMzzazMMMIMMffDMlM2zMfzMaMDDMfaDPPDPPz",
"IIDIPMflazPIMMzlDfM:7lM0aPQDMMfDIfMMDdzlMzPIDIPMfDMMdMDDDPDDIMMSDMMaf0ffMDDafMMMDMMlazffPzDMDQfzMDIMzz0fMrdzaDDalMMMDMMDIQIDDPDM",
"DlPDSMzMzfDDPl0aaaIz2zIIMMIPMDzfDMMzzzMlPDzIMSDMzzlMPDDM0zMMzMMMa0fSMMafMzMDMarDIPIIMffMzzaDPDDzazDDf0dQIIadIPIzSIDlMzPDQQIIPPDD",
"dPPMzDDzDDMMDz:DzMzDPIDlDPDDDIMzMzfzMQIlDPDIlMDDMfPIDMIaaMIID7zzfMzMDPMPPa2MMMMMfIISDIlzMSazSISM0fDMMSDPDIf0azDSSfMDDzzMPIIPDMff",
"MIzDzPMPIPMDfMdfQDIzzQIDlMDSSPPzzMfMDPPPIPDMzlQIIIPlfPPMzMzQDaIDDDMQSdMPDMa20lMSMlMMMzlDzzzzzSMMzDDDfMDMDSzS2%0MMlMPDPMPDDMDMDl2",
"DIafDdzIIIDMMMzrDzSSMMQQzSDzMIPIQDPMMPIDIISDDDDIIMMfMQPff7fMMMPDMfIQDzIIIDDzMalSIfMPSMDQQIzDPDIPIDDMMISMPIDMzf2alfMfDDMPSIMzMMPf",
"zd2MMlMDDMMMSSMMSMSfflDIMlPMPDzMMDDzzMDMMMfDDPDMDDIaMQDzfalSDQDlzfMMzlDDDIMMPDDDIMMDMDzMMfDIIIDSIQIDf2dS0lSDDIDzPMzfzzDSPSfMPPlz",
"IMaSafMDDMzDPIDIIDDM:SQQPMzfDzMMMMMMMDDDDMzDDMzzzMDz2fMDPDIQMfSSMMdflMPPMDPMDPMDMDIIMPPf27aMfzMPPIfDIMIM07flMIMMDIDMSzzafzfzzzMM",
"DDIIMIIzfSfMMMSzQQMz0zDDPPzzDDDMzDMDIMzMDDDzIafDPIDflffzSDDIDMzzDDDMazzDSPza0zMzzzPIPf00MzDQIMlfMPMDIDMQQMzMMMMDIPMDMfazzfDDMDDS",
"dfMIMDMzzfzPDzzfDQIDrlMDDMlMIISrzIMPPMfPDfIfDSMIPPI0MIIPIDDMlDSDPIIDMffMMzaalfzPIDMSfddzzPDDQIPQQlz02z0MIMzDIMMMIPDMMMfISMzzPDDP",
"zlMMzMMaDIaDQIz%2DIDdDPDMffDDDPd2DzMIPDzIlMaSIPPMlMlaSDIDfIz7MDPPSIPDzzdarfzISMQQQIDMMzMzDDDDfIMzfd:aMzfMz0zMzIlMfDlfMDPPMf0DIDM",
"MffMDIPDDPMazMDDDDDDzlDSPPIDMzDMzldlDaDMzfzzaIDSzMMMDlfDfaDfOdMzzafDDzfMMzDIDSffMQIfzP0flDDSlfI72MMMSMDSMdlz2zPlMDDzMz2aDDMzPPDD",
"fMDPIIzDDzf2zPIIDIPIPDMSMMDPDzzMdzDDIdSPDDDDDPPISPDfzazDz0zlPDffdlfMMMzDD2MDDSffzSz7dafQIPSMafDfffDIfDDMPDIMzSDDPDDDD*o2zMaMMSMS",
"DIIPQS=fzr:dDDzDzMIQPDPDSSQDIDfMMfSMDPDMDDzzMMIPzazz0200dzzMSMzSMDaMPSMDDafMMfMMMzfafzDMSMMfzzMafDMzzSMMPPQMPIDPMMMMSM7:zPlzMMDM",
"MzMDP02fMMM20dMMlfDMDfflffMMMMDSDPSMDMMMPSIIaDPPMDalzra0zDIMzMDlSzd22zDDDMlPSzzMDlMDDIMzzM2:afMMDIMMdMDzMIQIIIIPQDPDMfaMIPSMMDDD",
"z0lMlfPDlMMdzdzldzPzDzdd0IDfMPSSMfSDDfaMIDPzaIIIDPPzzMflaMIDMDDDMzzf0MDMMSDDDMa2fzDMMPDPPMMzSMDzfSMMIISDQIDzMPMzIPIQIDPDDIDSSMSD",
"DMzMMalfalDPMMDDMPMMMMzMzIIfMPMzPM70zlMzMzzaMDDPDIDDDIMlDfz0fMzzzzDlazzMMDDDSMIzazMMMPDMPSMzDIPMzlMMIIPDPDlfafDDMDDIzMQIDMSMDMzD",
"QIQIMfffzMDzMDDDSMDfzfMlzzDIDPPzaf02fMPMlMPDDPDDDMfMDQQDMMffSDzMMzzzIPPDDMDDzfQPIQQIMDMlSMIMMIDzfzPMMDDDPPzf2zzSz2Pa7MzfIMMDSDMD",
"Dzdzfz:zSzDalDlM02MIIIzzdfPDMDIDlaf:dMMMMzMfzSIPDaDzMMPMDMMIPDllPPl0IQaaPIzMDDPzDIIIDffzM2SDIIDDDMDzfzz:fIMfrDfDMzMf0zDaPDSzzMzD",
"DzMDPPMIMMDz0z0DzPDPIPDQDzzDzMlMIDM2zSlfDzzfzDPzddMMMPPMMMzDIIDSMMffMfaDPMrDPQDDMzMIQIDIMrzffMMMIDDdDlddPIDDzDzDPPMDDlDMDDMMlPDM",
"DDPPIDMSzPPPadaMzzDPMMIIPMDMzIDDIQISfa0MISDzzMDPfDDMMl200:aSDDMDIIflMfSPDDIPMSMDPSldzIPDlzIDPzzPSMIMDMMIIPIISMzDaMPDfzDIIIPMdPQI",
"MMMfDPfzPIIDMfdffzMMz7zIIIDMlDQIDMMDMzMMM0fIMMDMzDDMDflMdazDDfDDPDMlPMzfflMDDfMIQDf0aMMMdMMPIMMMdMDzMMDPMDIDPDMMlSlaMIDPQIIMfDPD",
"MMMzDDDDMDIIz:MMDMdzMlfMMDlzMDDIMzPIDdDDa:lPzfDMMDMMffDIIDDQzaDMaDDMMMzfdM:MIMMDzfDzMfzzfzflDIMlzMIfSDDMDIMMPMDDPDfaDDIQQIMPSMMz",
"PIMMMfMIDPIDffPDDMadrzSPIPIMzzzzzSDIPM2MDMMMMzafffDffzzzSDIISdMMPzDDzMfPzDPIDMMIfaMMIDDS:MMddMDDM0MMPQDSMMzDDMMPDDIDzMMSMDMDIDzf",
"SMMMMfMDffMaaDQIQffMDIPIIPIMMazfMlDPMMMlMfMfaf%raMMDQDz*0DPDPDPDPafrr0zDIPMMDPIPMMfSMzSDfDlzMIDMPDzMIfaDDDMSDMMDDDIDQDMDSaMSMDfa",
"DPIQMMMMMMzMaQQDPadMMSDPPIDPQDPDMzlMPMzDIMDf0zMDIIDIQPMMaDzzSMMMMzPDQQDlzMzzMSzzMPzSzMMPDDMzMDPDMPMDI0zMIPPIPMQPDDDSMPPQIMDDSffd",
"DIPQz0IPDPIMzMzzzSzDMSDMDDDMQPMIMMSMMzzPIIIzdMl2zMazPIPQfzSfaffMDdaIIMIlaDDMa0MSDMIDDzzzzzMDPaaMMzMzzMfPzlMMQfMfMlzf2flPPMPDdfzz",
"DDMDIaMDMSMaaSzMDDDMfaDMfDMfDMMMDDQPPDDMPDDzfMzfMI20fMSPMdPMzDDMDMfDzdMMMMPIPzDMdMMDDIQPlrMMfDDMDDPPDDzMDMlfDf0DIIMfDM0fzzMl2DDP",
"MPDSzfMSfzlaffazDMMM:fPIISlzfdzflDDMMMzSIIDDIIQQIPzMzMIDSlPIIIMMMDDSfazMPa0SIDDDzMzMzDIDMzDM2flzfdzDDDMDPDlMMMDzfPdIQDdzzMPDlDQQ",
"PIQQDIMMQDPaazMMDMf0azMMDzMlzMMzMMDlzzMDIPM2aPDDSDMMIIPIDfIDIMPSIPDIPIIIPD:dQDzMMPSDzzzzDDIPMMSDM0MSDMMDIIIPMIDIDM2PPzMQIIIIIPDD",
"MMMDDDPDIQQDDMzMzPIDPPDzSPDMMIIDMdSPDdzMDMPfzDfSDMdMzMMMffMMzrDzPMDIQIIDIl:DDSrMlDSIzMDffDPIQIQIQISQIMDMDPIPIIPDIDaaDMSIIQQIIPDz",
"DzdzzzIfDPzfdDSMMDDDIQIPQQPfMPIQPMzIQIPlMMSPISDDDSMMDzzfzfMM0la2zPDlIPMMPMIDDMz0lDMPPDMzfaMzSMMMMMzDDzMMDffDSDPDIDDzzMDDSIIPPSMD",
"PDfddMMMMMzDPDDIPIPSDIIPIPfDPMMzMSIIPIDPMDMfDSSPDIIMzzz0lflMfP%2fMzaa0adzIDDIDIPMfMzMDSMDDMMMzMDDPPDzflPDzDMaMIIIQQIlzMPlDDMISdf",
"Pfaz0fDa0SDDIlDSDPIdDIISDMIIDMMMMMMaaMMPSDSDzMzzMDDMzPPS20PPzMzlarfDDl227MPDMfSDIDIMIIPIPQDMMzDIIPIPDDDlzMdfMMSSDDDMSMPPDDSzDDMa",
"MIQIIzMMzMIIIDPQIDPDDDIMMIPIIIQIIIDzzMMDlDIIIzMlfMSMzPQQIDPPIIPDzz0zPQID7MDf0lfDISMDPMMMSDfrzDMQIPIPDDDaMQM0DIIIIDDMDMSDzDIIISzM"
};
