/* XPM */
static char *_90bb3756d864e93d6d9bcab1d81ef5fJCnJd3FuKf8i5ARh[] = {
/* columns rows colors chars-per-pixel */
"128 128 81 1 ",
"  c #B2B6B6",
". c #B3B6B6",
"X c #B5B8B8",
"o c #B6B9B9",
"O c #B6BABA",
"+ c #B7BBBB",
"@ c #B8BBBB",
"# c #B8BCBC",
"$ c #B9BDBD",
"% c #BABEBE",
"& c #BBBEBE",
"* c #BBBFBF",
"= c #BCBFBF",
"- c #BCC0C0",
"; c #BDC1C1",
": c #BEC1C1",
"> c #BEC2C2",
", c #BFC2C2",
"< c #C0C3C3",
"1 c #C1C3C3",
"2 c #C1C4C4",
"3 c #C2C4C4",
"4 c #C2C5C5",
"5 c #C2C6C6",
"6 c #C3C6C6",
"7 c #C3C7C7",
"8 c #C4C7C7",
"9 c #C4C8C8",
"0 c #C5C9C9",
"q c #C6C9C9",
"w c #C6CACA",
"e c #C7CACA",
"r c #C7CBCB",
"t c #C8CCCC",
"y c #C9CCCC",
"u c #C9CDCD",
"i c #CACDCD",
"p c #CACECE",
"a c #CBCECE",
"s c #CCCECE",
"d c #CCCFCF",
"f c #CDCFCF",
"g c #CDD0D0",
"h c #CED1D1",
"j c #CED2D2",
"k c #CFD2D2",
"l c #CFD3D3",
"z c #D0D3D4",
"x c #D0D4D4",
"c c #D1D4D4",
"v c #D1D5D5",
"b c #D2D5D5",
"n c #D2D6D6",
"m c #D3D7D7",
"M c #D4D7D7",
"N c #D4D8D8",
"B c #D5D8D8",
"V c #D5D9D9",
"C c #D6D9D9",
"Z c #D7D9D9",
"A c #D7DADA",
"S c #D8DADA",
"D c #D8DBDB",
"F c #D9DCDC",
"G c #D9DDDD",
"H c #DADDDD",
"J c #DADDDE",
"K c #DADEDE",
"L c #DBDFDF",
"P c #DCDFDF",
"I c #DCE0E0",
"U c #DDE0E0",
"Y c #DDE1E1",
"T c #DEE2E2",
"R c #DFE2E2",
"E c #DFE3E3",
"W c #E0E3E3",
"Q c #E0E4E4",
"! c #E1E5E5",
"~ c #E2E5E5",
"^ c #E3E5E5",
/* pixels */
"ZZFdddlFZZFTPZpdmMmFZZFFFFZFFZZZZmFZFZZZFFFTFpdTmZZmlmmDTZmlldDFDFm=p3ZZmNTWFl9ZFDmmDZZZMlmZdlFZdMTTDZZZDFFFZFFZmFTTTMZTZZZDZZFZ",
"mlmpdlFFmmZDFmp:pFFFZWTTmZZZFmplMTTFFZmmpmZmFFpZddpmZplDTmpmFFFlpZZlmFlpdZDFPDZFFDFMmldmm9pmp9mmlZmZlDPFDZDZpmFZZZZZlpDFFZlDFFFm",
"mpDDpDFFPFMlDlD:9ZDFFFFZFFFlZmmMZFTFFFp3tdZPTMplpmld9dZpmZmZZMDmZFp9TTZFFZFZPFFDFZmMdFDZ3dmmmmMdZDD9lmdFlllmpmFZFmmFTTFFFTFFZNmm",
"dZQQFDZTFml1mmZFmmmDFZllDFZTFFZZZmZFFmmMmTQTFZlmDl9Z9mpplFl9pmmmDTmMZZZplZFllZFDMmZlZFZDDFmZZZmlZZZmmp9mmZmFFMZMmFDFTPZZZFZDFZZF",
"mFFFDFZmFm3ldmZTFDZmpp3lmMmmFZmlmZFZFFZMZFFldZp:9ldZmzZFmlZ319mZmFDmmFPmlZFZZZPFZmmlMZZddDmZZZmmZmlmZdFM9pmDmlZFmZZFFDFFDmDZTZlm",
"FFFFZmmmdFDlMMFFFFTZmmlll939lmZlmZmFZmDZmlZmZDZMmmMpmpZFmlm3FZdFmmmFZFFFZZdZDFFlZZZZZZZmDmdFFZZFFZlZdZZZlmFPFFF9mZZmFFDTTFPTFDmp",
"FFDDZPDDdZFmpFFZFFDZmpml3mmpDZFmmplZDFmmZmZZZZFFZMDmDZFZmZlddFmZl1mFmDFTZlZZlmZDTmplZ393lZmFZDFQTFZlllpZDDPTWTm3ldmDFpmTTFmFZlZp",
"DZZTFDDZZZmZmZFFTTFPZllpdFTTFmFZZ39dZFFmZZDmFFFDmlZDFFFFPFZpmZmml9ZZMZFZmmFFTldZmm9:pFFZ3lZDDZlmlDFDFmmFllZMZZZ9999mDmmFFmlFlZZF",
"m9DTDDFFFFldmlZDZZZllmmPMlmFPm9FFmdDmTTDplZFFFTTFZlZmTPTFpll9ZTTZlFFZZDMmZFMZMDZZmZZFZlmDFlmZldmmZlMFFZFZZMmZMTpZMTTTTFFFmpmmlZF",
"MDFmmTFldZDlplZZpDZl8pFFZZlmZmlZDFIFmmPZmFTWTTTTFZZZDFDZZFTPZFPlZMZFFPTWFPmmFDZDZpFETFFTTZZZl1+MPTTTQZdlZZmlFFFmZlFFPFZFPDZTmlTT",
"MZllmZlmmFll9llZplDZZlDFZZDmpmFFFFDDlFTFDmMzmTFFFFlZFFMdFPFFDmml3dZZDTFTFFZllmDlZpZZTTFWmZFTTZFTFFPFZDZlmZZdFDmmFlMmmFDMZTZldmdF",
"TPmmFPFTTZZDDZFFFZDFFmlFTFDZMFTTmplFFZDMmMZdmDmZFZZlFFmZmFl3p8lTF9dZmZZDPZmldmZp8mMlZZFFTPWFZTFZZlmFmZMmmllpmpZDmZDFDFDlmmmZDZdm",
"ZFFMmmZFZmlmFFTTFZZZZFlFWpDPlmZDZFZZDPZZTTZZmpmmZDmmDFp$mdlpll3ZTQTmm9 =3ZmZZMmFmmdp9pmFFFFFZFZlMZZFPFmFFmZMppZ89FTTWWPZmlmDZFmd",
"mDQZFZTDmZlm93mFTTFFTFFTDlZmlmlZZFmZFTZlFFTTFFFZZmPFZZpdTTFZmpplFMPTFFl:p9dld9ZFFF1lZllFZZFZDFFFDZmZDZmmTZZMpmdpMZZZFTZmTFlZNDMm",
"ZFZmzFDFTZPFFlld9dPQFmPFZFZpFFFQTFd9FFFmZZFFZDZ99ppZmlZTPTTPFZmZZmFFlZFTFFZmZ9mmmmpmFFmDFDMmFZddZllmmldZZZZMFTFFFZMmMmZlZZTTmZZZ",
"PFZlmmdlFZmlZQldmZDmZMFpMZZlmFTZZTlZPFZDDZFFMMZ99mmmMmlmZZDFDFmmmDTF9dZmmFTMZdmFFmZlZZZZFZFTPl1dpZZZmpmmZPDmZMZTFmMmlm9plmZFFmlm",
"ZFmDdzDZDFZmDmmmFFp9lFDZFmPTZZPmm9lZTFTPmZFPd9mmDFDmZDZmZZFFFZFTPFFZZ39ZmmZFZZdlDFZmmmZFZQTQZdl9:lFFDlFPFZFZMlmFFmMMZD33ppMZZplm",
"lml8ZFT9DDFFTDZlZFFZ:plZZDZZmmZZFmdPFDFFZZDZZPmmmZFmmFZDFmTFFZFMpDTFFllFmZmmFZDmZFmmpppTpZZFTTFl9ZTTPZZZMZZpZlpmMFmZllFDZ9lDDlmT",
"mmPlWTPFTmZFlpldMmPd3mFmmZMmldplmFFZFDFMllFFQMlZFZZFFFFTmmTZZDZdpZmZZZFDZmmppmmZZmDFDZdMmm3lmmZDlZFZZZZll:3mZZZZZZmd:lZTFZDTTFFF",
"TFDZFFppFFDFpdZMM33lZDFTFmDmZZmlFFFDPFDZlpFFm9lmZZddZMZZZFFFTDZlpmZMmDZp9lp9dDl9ZDZDDDFZFml3:lmlddZZlZFZP39ZFFFFZZDlmpmFFmZmZZmZ",
"PFZZmm9dZmDdFZZFFZ:mZDDTTDZZQWDZDZlZTFmDTFZd@dZllmDllFMZdmZZFFFFFTPDDZZN93l8Zmm9mZZZllZmdpPmMFZm=3mZmDTTTllFFDZmmZDZFmmmld99ZZFM",
"FFZQFm9mZlp3MTFlTTZmFZmZZTFPTFPTFZlpZDmlFWFZZmD33pDFpmTFmZFMlmTTTTTQTFTZZp3:ZDFlpd9TmpZZpllZFZDZzp3ldmZFmZTmZDZZmmFFFTFZlDFZdmpd",
"ZZFDZTQTDZDFFmZmFTdZDldZlmZZZmFFTPmmmMPlZTTZFTM$3mpZDmDFpld3llm9ZZFQTlmNMZmmmDmmMldmFdl39dmDZmFTWFmlll9ppMZZmDZPmZFFFWFDTFFZpZ9l",
"TZZmmZmTTZDDMFZdZllFPZDFQTFTmDmFTFZTTTFppDFm9l93mZ:$3mTDlmZmd8lppllMZ93pdTTmlZZZZmp3plmMZlZDZmZPTDMmDmmpmlmZlpZlm9mmZZmdFZlm9l9l",
"DFZFm9pZFZPFmTZZp9dFTTFZFDQF9mpZFDFFmllZlZmmmlmmZpllmZDDmldDZ9ZTF3m:3lZmmdFFDDDTTD3lmZZmmmZZFmDm3pZZMmZFp9ZZmdl19lmZFTF3llml3pMl",
"dDZZ9:lplZlmZMFDl3mFFFmFldFDpDlmNMmdlmlZlZmMlmZZDpZlDmZmTMpldl9ZZ3FFZmlZmmlZDDZFIZDZFPFZZDFmlZlmZldmZDZmZZTZlddZZFQQFFFmmZplppFm",
"8lFPdpFFplFZDZMMZ9DFZTFDZmd3pFTDFTTFDlpFplFZFFFFFlFPFlZllMZllmMl:ZFFTTFZFTFmmmFFFmmDPZFZZFZZdmmpDmlPTTmlZZm39mmWTFFDFmmFmDmlplMF",
"DlTFmIZZmmFDFFZDZ9pFZTTFFFFmlFTDZTmmFZllZ9lPDZMFFmFmZZmmMZmdmDFl:lmmlZZmDZTm3mZDZZmmTDFFFDFmZmZZPZplpdp1:9ppp8mTMdmmFFMllZZmTQmM",
"QQWQTFFmMmFDFdFFDZZDZTTPTTFDTZFFdDTlMF99FZZmlmFFZMPmZTZZFZZZmmmlp:dld33mZmDDlmpdlZMZFZFZTFmmFmZFPZp$m3lFm9Z93pmlZMlmZFmDzdMMFlmZ",
"FTZFFFZp8dFDFmZFDZDFZTFDFFPFQFZmlZZldMZZFFTDllllMFFDFDFDFFZMmlZZFZmllZFZZDDZldpMpDDZp9llDFFTFDTQZDm+Tmpmp999PZppFFDFFFmlZmMMZ9dZ",
"ZFmZZZm3mDFDPmDlmmZZFmZZZFFFDFFZlMZp9lZmDTTmlPZpddZTPlm3lZmZmMmZZZFFTFTFZmdlZmmTmZTFlppmZmFFmZPPZZZmFZmZZl9FTTZTFZmMFDZlZIlFDMZF",
"DDZmmlmZQQTZZ9DMmFDZldlZTFmFFZDTFpZmdl91ZTTFPQTFTFZZFZl3:ZZdlPPTFFmZZFFFlFDZDmZMZlTTTFZ3ldZDl13mZlPmlmmDDMlZFFTFFFlmlZZ9dTZZFmmZ",
"TFZllTFFFD9mppmTDZDZZFTmdpmFZZMZFlmTZlmmZZmmZFFTFFFZDZmd9pmlmDDFZDZmlpmZFTFFmmDllplDm399mFTFFpdpZ9pd3lFlFZFmmZZlm9lmm99mmmZFDmdF",
"DPZZ9ZFDFDZZFM3dFTFDFTTmlPlmmlZFllDZmMFTFFmmZmZZZFTPTDZFZ9lZdlZFmlm3=3pZFFFFmTFmpZllppdlmFDFlZPmldpMZ3llllZmZZZFFDFFT:9ZpDMp9ZFm",
"ZFFZpZTFFDZFFFTTTTpmZZFZlDmd9=9FZZFllTPFPPFTTTZZZZZ99ZmTZ8d3lmDZFTFFFFTTFmp3+ZZlMdmmPDTTPZZmmlMFFZPQTlmFZ3llZFTZZTTFl9pZd993ZZZl",
"DmZllDZFlmFFMddZpZZDFZFDpDZZpm3pTTPmZZZDTZFFTTTFFDZddmZDmlmdmpFFFZFdDFZmd9l:3mp9ZlmZZpPFZZZ93mmmllmFFDFTDZFZlmZFFFmmZldZZp8ZZDZl",
"TTFDmZFTZZmMmlplZlmFmdZDFFmdplFZTTFFTFZTDmDDmmPWTm9lZZFDDMZFZZmFFMTZ3dp:dFFTTpMZMppDd3DZpTTFmlMmFZZmDDDmZZZmmplDZZdlpmdDZmmFZmMl",
"TFTd9:Fml9llmlZDTMmZ8pmlFFpdlZZFmDTFFFmDZzTFll3lZm8=8DmMFlZZZmmFPFZTZmZDFFFFDmTFZmDmd1mZmDFPTFFDTFDFFFFmmZm8pZpmMlmZdmdDTFdmTZFF",
"mmp339FmpmWTFZlFZmZZ999lFlZl39ZmmZMmZFmlTFlFFZdmm91:9ZllDdZZZZZFTZllZZlmmpmdlZFTTFFFTFZZDllZFWTFlZZmZZFp9mmpPFp9mmmZlmmZPTmmlZFD",
"lmmlmmlZZZTFZldlllmZl3ZM39ZZMmmmlmlPDdmmFTZDTFFZmZmMFFZlZlFDZFZFlDDZFFFDZmdZFZZZmdDTTFFFFFFZDZFWFPTTmlplmlmmFFmdlZFZZZZFDTZmZFmZ",
"FFTZZZZZmmDmZZFmZDDZZMDP9ldFFmZmmlplpmTppDlpFPFmmDFZZZFFZDFZZFFFZDPFPZlZFllmTPZmllmZFFTDZTTPTZmdlZTpmTZZl9mZZZZZTmFTFFFZZFmDZmZm",
"ZTTTTQQTFTFDZmFTZTQTTZZFZDmdFFFFmmDl@mFMld3lFTZF99TMMFZDFFFFFTTTZlllZFZFDZZZZmDFZZmlmZFZFFDDDTmmFmmlFDTFZDMZZpl9mZDDPTTPTZDZDZmd",
"mFPFMFTFDFFFZDZZFTFPPmmFdmTdpZZTmFFFlZZFTFlmFFM9lmTmZFmdFMFFTFDmmd9mZDTFFlmZMFPmFZDWWWZlmFZ3ZFDlFDZFPZmmFFFDDplFmZmmZFFPFDZZFmZm",
"FZZmlMMFDZTFTFZZmFZZFFllMZZFmZZTlpTFFZFFTFdMFZ9l83FmmZmlZ1MZFTTFMZZFFFZFFPFFpZZdMmDFPFFTZ3ldppllZZmZMZ9ZFmZmlmZZZZZZmmllmZDDFZFD",
"FZFZlmFFZZmTFmmPFmMmpFFmldlZZpZF9lFTFZFZmdpmZFZ8d99mmmmlddMMMFFFTFDMZFMpmlFTPZZllFZFFDFFZd3TPd31lFFZZDZFZZMmpmFmldZFQTDFTmZFZFFZ",
"mZDZZmDDl9lFFMmTFZZTPPFMZZFZFDd:$FZmZZZZDmmmlFFpl838ZFFZDlmmZmllFFZmmZmlZmmZFZZmZZZFFmlmZlmlDTTmlFZmDDFlZFFMFDZFmZFFZmTFPmZFFDZZ",
"ZTFZmmZFFmpZFF1mPFZFFFlZFZTTTTDd3DldmDFFMFFFmZFldmZlTQQQFZmZZlZFFFFmldZFFZlllFTQQDZDZDFZZMZlmFTTFZZFFDZ9DFTTFTZDmTDZlpZDZTFFZmZl",
"ZFZDZmZZmmDDDZmlmZZZMlllplTMFTWFmlpldTTTZFPFZpMZ99mMZTFDlMmDDZlmFDFDmmFFZDDmmFDFZmDmZFZFFZPDlZFFZlmFZlFpllmZllmZmmMmmDFDpZmDDpdl",
"ZFlTZlFl9pZTZZTmmZDFFZDFTdZZdZZDmmmlFPmmDTTFFlZFmplZdDZld9lFmFTd9ZmlmZlDFDTFFTZlZ9lMmmTTFmDFlmDZmppDFZmd:lFFZplZFZMFZllTmpZmFFTT",
"MFPTZFZddlmDMMFFZFmZTFDmmlpZmZDmpdlmTFZlFTmmDllmlldmFZZd$9mDlZFZ9mDFFpmZlDTPFZFDW9lTTmZmmlFFFDZFZFFDDZmlMZFFlZDDZFmZFFmMmlmZDlDD",
"DpmFm1lMFFFmZZZFZlFZZTFp9lmZDDTTTFZMlll3mZm9Dp99mPFmmmZlmTDFZmZZDZFFFZFTppllFDPmMDZTFZFPZZMZFZdZFFZZmmMZZFZmmdFDTTM9pl9llZFMmmlF",
"ZlZl89pmZTTWWZZDl:pMZmMmmZTZp3lTmZZTllp3pDZ8ZmlmlTQFZFmmTTTQTFmmZZDTPTTZDlZlPTTZZFFDZTFFDFPZ9mFZFTTFZTFZDZFFDlZZTFFp3:+mFFZmdmZZ",
"pZdFmmZTDpTFTM9999pFZmmdmlZZz9mZlmTPZMFFFTFZZFZMZDZMZTpmZDFTTTZZmZZZllFMZmTPTFFFPFFlZFFMFFFWDMFFm3lFZFDlPFFMmDFZmlZl9lpmMmDTZZZm",
"dZmmZDmMZ8plFlllT9lFTF9mlmlllFmlmdZlZZmMmFZZFFFFmml3DZlQQDZFFFmFzll9mZZFZMmZZMmlZZZpmZZdmlmTDFmFm:lmZMmmlZDmMZZplZpmlllFMZZZTDmZ",
"mm93mFZ1l9:9FlmmZZZZZZlZMTl9dMmlllplmZdmlM9ldpMZldmZpZFFPTTFFFZl9p9DZmTTZlFZFZZFFFDFPTFFdMml9FdFFZZ3pmmlllDTWTpplMlZmmdFFFFF9lZm",
"MmZmZZFZlDmDZpZFZDZZZMZmmFllmZTFmmlFDPMZTFlpZmmmllllmZZlmplmDFFmZppmDZFPZmZZZZZZTmZ3$ZZmlZZllmZpDZFlll9ZZlFQTZlmmdmFZlmZmDFTZDZF",
"DTZ1lFTQTFZFFZDTTFZZZDmZFTFmlPMZlFTZDTPmZZm9lFdlFTFpFFmZFmmZZFDFQZmmZmmZZZMZFmmmFTZlpDZFZTWTTpmddpQDDDFQQZlFPZd9lZZlFTZdpdmF9DDP",
"DTWDFQTDFPmdZPTPFZTFmZlZFmZFTFFmZFzd9mdpmFFDmd9mPZTPZl9ZFZmMFFDMFFFpMdmZZTZFTmFTTTDDFlmTPZFPZpZmmlmlDTTFQTZMFDl:3dmmmTZZZDZZmD9Z",
"mmFZFFF3ZTmmlMMZFZFTDFFFPDFDZDTFFZMZm9$pmZZlmDlZZFZFFZm9FZZFZZZZZZp$pmmFTZlZZmZFFTTMpdlMmlZTFFFMFFZDFmTlZTFTZFFzDPFFFTFpMmDTTZ9l",
"FlDZZZllZZlmmllmmlmDlMFTFFFZZMlZpDZDDFpdZDFMpZDFTTZZZm3lMmZTDFFplF339FDFFFFZlDDZZTZllmMZDFFFDTTlZTmTFpmFZZZFlmDZFQTFddZZZDpZTTll",
"Zl9ZPFlFmdFTQTZFZmFmp9ZPFTTFZpdm9mDFFFZZl9FMDmZPFZTPZ:lFmFFMpFmlQDTTMFFlZlZDZlDFMmDZFFmFTFFllmlpDDlFDTZZFZDZZmmZlZPDZFZlmZ9DPZZl",
"ZFlplPTTFFTTTFZZmZZlZpdmFFFZp9ZpdZTPFmpmFdZZmFlFZ9ZTTZFZZDllZmmFFZTFdpZlmmmFl9lZFpmFFlpmmFFm:9DDDDzFFFmdFTTFFDmdllDFFFFZpdDZllmZ",
"FPDF9FZlpmmDZMDDFFldZmmmZFDp9lp91pFTFllZZZFFpp9dZDmFTTZPFpFFplZmpmmppmlZZFDZ939ZTFpTTZmmmdmmZFFZFlZDFZmZZZTWTFFFZFZFZFZlZMTZ9mMD",
"DZmFFd9m3:=dZZFFTFm3mZFFFPFZlZl9mZmZlMFFFFFFMZDZpllPFZZQFdZDmZFdpppMmZmFFZpdpMmlDF3$lMlFFZZDMDmmdpldFFZFTmDTZFTQTDFFFZFFPTPFlZmD",
"llZFFFTZFdmDZZmFFDDppZFFFTmFFFlMMDTFZPFmml9ZZFTQFZZZDmZFZZmlZFmFl9pTFmMDZmmZFTldlpZ33lFTTQFFDMZZdFDmFTFFTlZD33lFTFTTFTTTTZppmMZP",
"Z9dFFTFmFmFPQFZFmZmlFTPPPFlmlFZZFFTTTFllF9mlFZFFDFWFd39mZllpFF9Fm:lZTFmmZpFTFFZmmpmll8lTTDllmmDlZZFTZFZmZmZmm9dlmmFZMFTTZllFZTZm",
"lZZFFTTZmFFFmd9lldpdpMTFDMd9pmFZmFFmZDZDZmpZTFZZZFFFm9ZFFFDmFF99m9pZFTTDlmZZFmZDFFDZFZZTFTmFDmFmTFTFMmmZd9FmTl9DFTTDMlmPFmmFFTZD",
"MlDFZZFMmTTZlZDZpldll9ZZFZp3TDl9mlmmZZmdpMpZFmZmmPmmplFFFPl:ld99lZllZlZFFTm3ZZMlZmFQFmlTTTFFTTlZFMZmmTmdZFFZFZmDZDFZZmZZDmdZFDZZ",
"ZlZDmmFZWFdlQDTTMpZZFFdmZFZ9mZmmZDZZZFFZmd3ZPFM3MZZFZmmZmMlplmZFFZm9mpFTTFPlZlZldmPFl3plTFDFZZZTZlm31lTFDFFDPZmFDZmmmlMmZPmmZmZl",
"ZFmmZmZFFmplQll13ZTmmFlldlpZlmFTZZTFFFZPFZdmdZ9dFZDFTTFZllZlmllmTTFFZlmZFZMDFZZZpZFFDl8$pmmlmlppdZM9m9lmFZFFTTZZPFmdlmmPFDPFZplZ",
"ZDZZFDlpZmlZmZd9dFTl3mlmMTmZM9pMZmmZmmmZQQPFll9ZZZZlZTTWQQFZZlmFFDFDFFFmlZllDFmDPFFTFFp3:mpdZNd39ddpddZlppmmZFTmFDmd3lFZFFZZDl9M",
"ZDFlmmZZDZmZZZmZFFZmlMFQQWpdm9mlmlplTZlmFTTFZllZDFFmMPFFPZMlDFFZmFTZFFFDmlZFlmFFFDlpFmmFdZIETTTFTFp:dmZFZmmZp9dmZ99dlZFlZWdllmZD",
"ZmpZ9lFTWl9TFlZFZMmZMmFFFTlpmMllpmmmDDmpmZFmF9ZTTFFDFFZlp+plmZd9ZPFZTDmZFFDMmmMdMFm9mllZppFFTFZZmZZdlm9pTQQTF3ddmm9MZmFdlFmlmFTP",
"p9:ppTFPFZZFFFDZpdmPDZZZpmMd8MFFFZplmmlmZZTTmPTTFZZmZFFM398dFPmMZmZFZmpmTDmmmTPmDZZl9MFpMlFDDmlmpl9pmmddlmZTQFFZ1ppPFlTFZmmlZmZZ",
"9:3dZFTFlFpmTZmF@pdFlZFFllZdZFTDmZZMdlmzFFTl9TFDDZMZldFlMZllmmmmmmMmMFZFFTll3mTFZZmlmlFpFllZmmZFpmZlFTTZlllFTQTFp::9lZTmZFFDFTTF",
"FFFDmlZTTm3mZZpppFdmDFFFTTFFTDZmmFFTFmZZmZFmmZDTPDFWmpFlFFmFmmmmDZmmZTFFFTFTmpmTTZ$lmFmDFFMllZDFNlmlPDFFZml8lppZFFml9ZZZTQTTFQQQ",
"lmdmmMmTDmmDDFpmFMdpDFmFFDmDFFdmdZTDlZmFFldmDllZlZmZpllZFmZTlFFZl9lZTFFFTWFFDZlFTl:mlmZZFTFTmmZZZZZpDFlFFld93+mFZMZF3MFFFFDFFFTT",
"Zm9lZFmTPZDFZFZPZDMplFm3pdmTQZplFTTFmmpFFZlmm:l3mFpldZFFFlZFZZdmp 9MlFmFTFmpZZmFZZZlZZlFZZ9p99ZmZmZmZMZMDZFmF3dZZm9dZZZmmpmZFFFF",
"FFdDZZZDFFDZlFFDZFFmmFFm3p38dmplMZZDmZpFTTFZl3Z93lZZZQQTPZDmZZMDFTTTZFZZTFTlmDFDPTTTTTZZDmdlZTFFZFFFFFFFTPZlmZmZZmlmZDFZzdMZZZZZ",
"ZlmmZZZZDTPFDFFDZDFdmZFFFMZZmZDZZMmllZFFFTTZZ3dl9mZDMmZFPFZmZDFFlFTTZFTTPZ9mDTTZZPFZDZl:lMZPDDTFZMPZZmFFFZZF9MZZmZFZZZMFTTQ9:DmD",
"DmFPTTTQTZWFFTFFmpZFFFZDZDDFmmFPTTTmZmZmDmlZZlppp1dFDmZmZDFZFTTTFmFZmZZFFmpZZDMlmZldpMmlMFmZZZDll9ZDmmTFZZFZmZZZFPTmFZ9MFMmdZZDF",
"MFFTZZmZFZFZDFTFpddpDFFZmmZdZZZlZTTZZmZ9dmpZZZl33dDZZZTZlTmmZZFQTFDZZmFFFZTTFZFlMPDmZDllZZDTZFml31mFMZQPDDmZZFDDmFQDm3:mdllmmMmF",
"ZTFTFl8lTllDpplm:pldlTPdplZZFFFmlZZllFmllmZmmDDmlmZFFMZFFDl399pdmFFFmZFFFTPTPmTTmMFFFllZFDZFZDlZZlmTPFTDFPZDlFTlmlZl1:ZZ9PDdlFZp",
"DmMZd$lTPZlmp:93plDZ8ZMFlZTQZmZZZlDDFZmmDlpZZ:mZmDlFTZlmMllpmZmmFFZFllPDZpFFFTmDTFFFZ33DFFdPTDmZTDFTPZlmPTDZZFTZZZZmmFZFZTZdFZFm",
"mlZFdmZFFTFFZldmTTFZ8dFTmdTZl9mmFZFTFFFDFllFPm3l9mlZlm9lmd3ZFTTlFFZZFZlppmZmmPd8lMFFZmlmdZZmZZZZMplDDZFTmpZMZMDDDmlFDZZZFZlmZmDZ",
"FFDFFFTTWFMFZZlpdZTZZZFDMmFFZmmMDDFFZDZFFZZZZTFl3ZFmlmDlFFplZZWllQTFZmldmFFmTTTFmmDZd9ZMZmZmmpllZzpdFZlFplFZZFZZPZ9mTTl3lZFMmQPT",
"FFFFmTFDFFZFFFFp9DTTFFZFFFZFFFFmlmmddZZZFFTTFmZdpDZPFTTmFD9lmpFFlpZTFZmmFDDFTTPmTQQmmmdZZFFTWplmZmZmZZZFlmFZmZFZmlZFldpmFFTmZppl",
"DFDZlmlZFFplFDFD3lDZmZZZFTTFmFTDmFZd8pZFZmZTT9p9ZZFPDFlZFZm:1ZZDZpdDFmldmlllmZFDZFZDZZmZmZMmDlFZDTPFZ9MdmpdmplFDlZllmplmFZlDFZmm",
"lpmpdmpDZFmdDFFTddmZZFPmFFFDFmZZFFFFm38FFZZFZMmdTTTFFppd99ZFTTFZllmlFZZFpmDFZDTDmdmFTmmdmlmmFZlpmFZMppmlmZFdmZTDmdm9pFFTd9ZPFFZd",
"9mlZmmZFmFTZFPFDFZmDTTTZ:lZDPllmZZmDmpmZZmFZpZFmMFplmmDmpmFlZFFDFZDZpd9ZZlFFPZmZPZFFZdZZppmZmZ9mZDmZmDTZmFZpmlZ3p3dZlFFFDFDDZMZm",
"lZDTFFZTFZFPFmZZPTFFZZFZMZFDDlll9ZZDZDDFdpPFDFZPZFlZZmpFZZll9mFFpmFFFlZmDldMM:dmZFFDZDQMmT9pZTZZTFDlllFTdlmZmdZl9d$MllZPFFdDDlmZ",
"ZmlmFFm3ZFPTFlMZFFdZDDFmDFFFllmllZmFFFZZDFDMmDPZZFlpFD3pFFZFmFDZ1plFTldmlmZFp3m39lTFlFZlFmm3ZpFFFFFZZmNZ313pZTFPZDDZZZmMZDmZFFTT",
"PFplMTZlFZFFDmmZFFZFTFFZDFldDZZDNlpmZFFZZmmmlMlDFPDMZZppDPFTFFZdFD9ZFF89mFFFTZTMlmFTZZll9ZFlldFFZFNZZFZFZp:llZZZZFDlFZl3lmmZFDZF",
"FTTDmlZDFZFFFFZDZdmlTlmdpZZmZmmZFp3mllTTFZMZZTmlmDTTFFZmZZZFDmmZFZld9Zm9dDFZlZPTllZllDFllZTMmmpmmmZTZZllZZlZ3mZdmmpZFZZd9DFFDFFm",
"TTFTFZllpmFPMmmlFlZ:3lM9pFWDZmlDPdZZDpmlZmFPFPFMlDZMdMDDFFZDTZmZDZmpd3dlmFZplMMMDMZl9lllFmZmDTdmZZFZmm9lm9pl9DFplZMmFmZDFTTFFFDZ",
"ZlFDZZmMmlDDFl9pppPm3mPTZmTFMZllFmmmmmZlFFmTmZDMmmlmFDZZ9mmZmmmZp9lZMZplZlmFmp9FTFTTmdlMlmpZFFFmplDFl9dQPF9pPFTmZPDlZmFDQWTPFFZF",
"pFFZzZDlZFZZFm:ZmmmFFFZlFFFFZPZmMmlmZTTlZFFFlMFZZpFTFmPppmTPZ3mmdmmmZFZFFp3MZmmMdFPZDFlmZZ9lZTZm9lFZZZDFFTd99mDZZdZDFlmZFFPFFZdl",
"ZTmFmDZFFFZFlZplTDFmmQTFlZFZZFFlmmlmFFFFPFFZmlTFTTFldFFZlmlWZpPFFDZQZpZFDZp39lZZZlMmmllDmmmmmZZZlFDFlZFZZZlZ3$9ZMlZFDFZFDDZFZDl3",
"FTpdZplTTPDmmNl9FmZZMMTWlZFmZTFTTFFZZFTDPTZFDFFPPZZlMTFdl3dmZZFDMdTTFlPTPDDlZplZTdZFZZFQQFmZFFFFTDFmZTZZFTDZmd3pllmlZDMFZFZmmZFl",
"md3ZmlZDDZZZZZmZZZZlllDTZlFZFDmmZDFmmZFNZZlZDFDMFFTpMTFml9lZDTFlmdZmllDFFTZZFFFZTZZFZFmZmlDPTFZZFTTFl1dZ3lZDDTDmFmmlmmZZFZlZFFlm",
"PmpZplmDFZmFFTZFTFZM:ZTTFZllFmMZmMZZZDZZDMmZFZmmmZFm3lZZFFTTZlZZZZpdlmFFZFFZFFZDZZFPZFFd13pZlmmFFTlDTZFZ93llZTZZFFDMZmlpdmlmmmmZ",
"DZPPZTTmlZdmMZZmWQZm9mFZFFmmFFFmmDmDFZmMZFDmFpdFFTFlldlmZZDFDZmmFDFmpmmDZFl98mZmmmFTFd89ZmZTFMllZFmDTFMTTZmmZmMDTFZZMlplllFZZZZZ",
"pdMPZDZmmlmFFlmlFWTD9lMDDmlZFTZ9mTZFFZlFFlFlZZZPFFF8ZFTFTDFZlZZFFFTDmdlZZmppllmFPDmZlpdmmFZFQTFTTlm81m8mPZmDFmmmTFDmmZlTZmmlFDFF",
"mlZmmZZpDFpZWTm$1FFZpFFFZddZFFFp3FlmTFFmFlMpZTFFZlMlpZFTFlPm3ZDFFZFFFmmpp9dmFZMTQTFFmMmmlZDFDlPMmdd:pmmdZm9mmmTlZlZldZZFFml3FTFM",
"ZdlZDPFFZFmplMFFZFFDmlDZFFFDZmFmmlplFpZZmdmmpFFZmmmZZllDlpFd+pZmmpdZDmlMZmZTDZllZWTdmF9llDFZllT31ZmMZZFZMplm3mFlmDDmZm3pDZZmFFFD",
"lMDFFTmDFmd3mFFFFFFPFDZZZZZFDmlmdmDDFpZFDFFDDFFPZFDdm9mFm3mlFDdlpldZMMmFF3mDDZldlZm3dpdTTFZZpdDlllDTlDDZFFFmlZFFFFDFD$ 1mZpmZZMZ",
"ZTFFTZ$ll9:dZZmDmmFTFFFDZZQFTFlmMdZZZFFZDDmmmZFFmpmm3393pllZZZmZMFpZFZZFFplZZlZZZmdplmFZZZZdlmZplZMmlZZMFFTZFFFFZmmZZm3:mFlmmZDZ",
"ZmmDF91dZMZ39pZMldFMZldldlmMZZDZFFZZDZmMFZFT9DFFZFplm9p9mDFZmZFlZmd31mFDZZlFZmmZZlZZDPZmmZ1:plmMFTmmdZDmZFTFTTFFTFFFZlpZFFZMZDDF",
"m9lMllDZlmZdlpmlplFmDmpd9TDlZFZZZdZDZlpZTFFmpTTTFFFlmZdlpMTFZFFZZlml3MFMmZFDFZp3dmDZZFFFFZmmZZDllZZZFPZDQTDmmFZmPFTQFZFFFPZZZmZF",
"DZmmZpldplZFZmFFmFMZMMmMmTTlZFZmFM38mlZmZmm9MDDFDTDZFPZlFlm9dMmlmlFlpmmZZZFFZZFmpmZZmFFZFZmmDPFmmlMZFTFFFZldplFZZFDTmmTPZZZZFZmZ",
"TFTPZdllmmDmZFDFZMFlzlmlmmDTDFFlpl83lmFZlMFFDFDDZmlZDTTDZMllZZmmMmmlTFFFFmZDmdTFPTTFZZZlZZPmmTFmlmFZmFFZFFmd3mmZl3F93ZllTZZFZDmZ",
"Flpmlm:mZmFplFlm83ZTTTzlplFDMDTDlpd:dZMmMmmlmZPFDpDmZZFZZZmFFFllFFl8TQppFTlmZZFlDTTTFddmZ3ZDTTDDDZZldmm=dFZl9DdZZmZd9mDpFFZmmMmD",
"ZmZDFFmTmZDm9m8DmFDFTFFTZmlZlmlMTZM3mZllFmmlmFFmpdZmZFFmMZlFTTDZZZllmdpFFZ9DFWZFMmMFTPFTZ9mdlmZZFZDpFlpdFTDZmZmFFFmDFlZZFFMZlFFZ",
"FFFFFDMZmFFFpdpZlmFFZZPPFZZmmPFFTTFZl93ZTZFmmZDFlZDMml399=pZFFZZPTdlZlZFDDTFZZZZFZlpmTFFlmTFFmmFZNTZDmZTFFFPZZmFpZFDlmFFTTFMpFTT",
"MZMlFFlmFTFFZddllmmZm3lFTTDMlFTTFMZDmlZZZ9dPMMZZmFDZDllmd9mFDdFFFFZlFZmlllmDDlZPQZd8pmZmdZZFFmMmpZFmZMDFZDFDFDZZlZlpZPFFTTTZlDFD",
"ZZMmZFFFmZTTm$MZZZdlZllZZFllZDFTZmFTFdZDp:lFldZmmDZZdlZPTZFTmpDZpDDZZMlldm:ZFZZFmlDmMdmmllllDPZlmMTdZDDZDTZZFZDDFDdpDFTTQTZFZZmm",
"FTZMZdZPDFTFdlFDFZpd9mZFPFTZlmmlmZFTFm3ZZZZmmmpdllZdlmmmZDPTZdZMFmZZmmlFmFFPFMMTdpZMFDFZ=mMpdmZZZ3ZZFTFZZZmDDZmFFFFDlmZZZZZZFDml",
"ZmZZZdMZllMppZTTWllZFFFTPFTZmpmlZlDFZMmlZdmlpd+9pZmDQFm$9FFDFDFZFpd999mFTFZMFFTFmZlZmmZDdDlmZTZMFZmZTd9FFZZZDZmDDFTFQZMDZpmZZZdp",
"ZFTTZMmmZZmmpTTFF9pZmZZFFFFFTDFZmmlmFmmFPMFl8mZDPTFTTFZZpZmmZMZZMmFFTQFllmmmmZllZFmZmZMFFFMmmFFZZFMDT9mZFFFTFZTFDDFZZFFQTMFDZldp",
"FTFTm9TFDFTMlZllmZmDmZZZZDDMTFZPZZZZZmmFTTPmpml3mZpmFFFTdmZd9ddZFppFPZTlpZFM98MZDZFFFmmmllZFFppZZlZmmZlFmlZmTlZlmlml3llFFZFDplmm",
"DDZFTpmFZZZppZmNZDDMlpDZlZMlDmZmDZQFFZZMFDFmdMmdmF13lZZFmpFmlFDZDMdZmdZmZZFFFmFZdZZFFTTFl9mMlFFZZZFFFFmZZMllFd8FPTZlFM9lmmZl1FFF",
"ZFDZmlNZlmlrldpmFZmM:lFTPZlmlpmdlFDZZZlZPPZZPTWWTFmMmMPFZlFFTPZmmFFZdpmmFp9ZFFFZmMmZmDTZmmFM1llmddmFZFMDFDlMZZFldFpFQFpmmmFFlDWT",
"FTTTDTZMTZFpplmZDZl9pmZZZmZlmZZmmmZlmmmDFFZ1pFFZZDmmTTFFDlPFTZFZPFDFFPTTFF:dTFlmMFZDmmmmDFPFZZZZM9ZZDmMFFTTFZFDPDZ3FFmmTFTFTPFFD",
"mZZFDZFDPTTFDMmZmFTZFFDmZFDMZTIFZpZFFpmZFZFlmFlZDmdMmZZmllZZl9ZmFZFTTTTFFl:ZFZ9mlDZPmZDldFFTQFTFQFZTPMDmFFFFTFFDFDppDmZFTQQPTFFm",
"FmdmlmTdZFmlpDZZZFDFFWTFQQFdZFFTFZmTWPFlZmZFTZZDFZmZZmllmlZZ9lp3mFZlFFZZFZFFDZm9lZZFFFmldpZmZZZmMZmFFmmZDllZZDFZTDFmmZDDZTTFFZmD",
"FZlpdZZmZZlFFFZTFTFZFPTFFFlFFZmmMZTTFTDFZDZlFZZFFFPMmmm9lllZlF$3lmmpp9ppmFFFTDFFmlZmmZZmDZMmMmmDDFFDmdlFDmDZpmTFTTTPlmMFlDZmFZdl",
"Flpm9lFp9ZFDPlDZZFPdZPFZFZPFZmZMZZZppMMFZFZDlZmmZFFZmFFZ38FFmZmlp9lZZl333MFFMdZFTDTZFTFTFTFZZlDTPFFFFDFlmZddZMZZZFDmZMFFFDZmFFMp",
"ZTTTTmmMmZPTPFFTPFFDFFPmZFFFFFTTTTFlmZmDlDTTFmmllZZZmFTTTDFFPFFFmm9mFTTZ3MFl9ldZTZZZFmZmZDd9mDZTTFTFFFFpZTm9FTTTTDDZFZZZmFTTFZmZ"
};
