/* XPM */
static char *_185779a1ad04885d0a06d36c9ad59046oqYXi9jugP3g9D4[] = {
/* columns rows colors chars-per-pixel */
"128 128 256 2 ",
"   c #0F0E10",
".  c #2F100C",
"X  c #312E2E",
"o  c #192026",
"O  c #47190B",
"+  c #56180B",
"@  c #4E1413",
"#  c #6E1811",
"$  c #522814",
"%  c #792808",
"&  c #782817",
"*  c #783518",
"=  c #692815",
"-  c #53302D",
";  c #773828",
":  c #6C2D2A",
">  c #661924",
",  c #544234",
"<  c #714A37",
"1  c #724916",
"2  c #193346",
"3  c #663D44",
"4  c #2B4D58",
"5  c #544A4A",
"6  c #704F4D",
"7  c #686866",
"8  c #35473D",
"9  c #8F1411",
"0  c #B01316",
"q  c #862816",
"w  c #962915",
"e  c #983815",
"r  c #8E310F",
"t  c #AA360A",
"y  c #B8370A",
"u  c #A73717",
"i  c #B83816",
"p  c #AE2A14",
"a  c #893528",
"s  c #9B3627",
"d  c #8D2E2D",
"f  c #A83B24",
"g  c #B1312D",
"h  c #981E23",
"j  c #CC3B0D",
"k  c #C6380C",
"l  c #D33C0E",
"z  c #C83B15",
"x  c #D33C13",
"c  c #CA2C13",
"v  c #E83C17",
"b  c #C73B26",
"n  c #D0352C",
"m  c #E63B2F",
"M  c #CF1916",
"N  c #954A17",
"B  c #A84516",
"V  c #B84816",
"C  c #B85416",
"Z  c #B55110",
"A  c #934E31",
"S  c #A94627",
"D  c #BA4826",
"F  c #B05331",
"G  c #956534",
"H  c #B36C33",
"J  c #B76E1E",
"K  c #CC430C",
"L  c #CB4B0B",
"P  c #C5440D",
"I  c #D3440D",
"U  c #D64A0D",
"Y  c #CC540B",
"T  c #C7580C",
"R  c #D4550B",
"E  c #CC4313",
"W  c #C94718",
"Q  c #D34512",
"!  c #D44B13",
"~  c #D74919",
"^  c #C95517",
"/  c #D75617",
"(  c #E55817",
")  c #ED4F19",
"_  c #D16B15",
"`  c #ED6A17",
"'  c #C84726",
"]  c #D54927",
"[  c #CB5526",
"{  c #D65628",
"}  c #C95637",
"|  c #D85736",
" . c #CE4936",
".. c #E55727",
"X. c #F55926",
"o. c #E75A39",
"O. c #EE512F",
"+. c #D66929",
"@. c #D67827",
"#. c #C86A38",
"$. c #D76638",
"%. c #C87837",
"&. c #D67737",
"*. c #C87228",
"=. c #E76927",
"-. c #F56829",
";. c #E86738",
":. c #F56937",
">. c #F67737",
",. c #EC772F",
"<. c #943647",
"1. c #B13744",
"2. c #8F514D",
"3. c #AD534D",
"4. c #966853",
"5. c #B27052",
"6. c #946F6F",
"7. c #AF716B",
"8. c #A15969",
"9. c #CD5349",
"0. c #E8584B",
"q. c #D86747",
"w. c #D97748",
"e. c #CE7154",
"r. c #E86845",
"t. c #E8764A",
"y. c #F57A46",
"u. c #E77857",
"i. c #EF7050",
"p. c #CE746A",
"a. c #E7766D",
"s. c #CA5A69",
"d. c #D33540",
"f. c #D5861A",
"g. c #F5981A",
"h. c #ED8F17",
"j. c #F5A617",
"k. c #F3AD14",
"l. c #D88828",
"z. c #D88637",
"x. c #CE8435",
"c. c #E68A27",
"v. c #F58B29",
"b. c #F59628",
"n. c #E98638",
"m. c #F6843C",
"M. c #F68C3B",
"N. c #F68733",
"B. c #F69D33",
"V. c #F69438",
"C. c #E8942F",
"Z. c #F5A829",
"A. c #F5B629",
"S. c #F5A838",
"D. c #F6B738",
"F. c #EFAA3B",
"G. c #BA8957",
"H. c #B68972",
"J. c #8F8B78",
"K. c #CE9B58",
"L. c #D38B51",
"P. c #F78444",
"I. c #F68948",
"U. c #F6934B",
"Y. c #F69746",
"T. c #F58656",
"R. c #E79757",
"E. c #F79956",
"W. c #E88D4B",
"Q. c #F6A847",
"!. c #F6B342",
"~. c #F6B849",
"^. c #E9A759",
"/. c #F6A45B",
"(. c #F6A956",
"). c #F7B657",
"_. c #ECAF53",
"`. c #C98669",
"'. c #CB9A68",
"]. c #D9986A",
"[. c #D88A74",
"{. c #D69877",
"}. c #CF8D71",
"|. c #E59866",
" X c #ED8F6D",
".X c #D5A469",
"XX c #DAA375",
"oX c #D1AB76",
"OX c #F7AA65",
"+X c #ECB768",
"@X c #F6B667",
"#X c #F7B976",
"$X c #EAAD70",
"%X c #D7A15B",
"&X c #F7C155",
"*X c #F7C577",
"=X c #F4C370",
"-X c #DFC17A",
";X c #E2AF2E",
":X c #5D7887",
">X c #B47788",
",X c #CA768A",
"<X c #62909F",
"1X c #948D8C",
"2X c #B2918E",
"3X c #B3A596",
"4X c #B6ABAC",
"5X c #9FA3AE",
"6X c #D09389",
"7X c #D0AE8C",
"8X c #EEB188",
"9X c #D39AA6",
"0X c #C9B5B0",
"qX c #E49C95",
"wX c #D9CA9A",
"eX c #F8C788",
"rX c #F6D597",
"tX c #F0CC90",
"yX c #D2C8B2",
"uX c #F0D7AB",
"iX c #F4E2B2",
"pX c #ACC3CA",
"aX c #DBDDDD",
"sX c #D5D9D9",
"dX c #CDD1CF",
"fX c #DEE1E1",
"gX c #E2E5E5",
"hX c #E6EAEA",
"jX c #E6EAEA",
"kX c #E9EBEB",
"lX c #EBEEEE",
"zX c #EAECEC",
"xX c #ECEFEF",
"cX c #EAEDED",
"vX c #EDECE0",
"bX c #ECF0F0",
"nX c #EEF1F1",
"mX c #EFF2F2",
"MX c #EEF2F2",
"NX c #F1F4F4",
"BX c #F2F5F5",
"VX c #F3F6F7",
"CX c #F4F7F7",
"ZX c #F2F5F5",
"AX c #F5F8F8",
"SX c #F4F8F8",
"DX c #F6F9F9",
"FX c #F7FAFA",
"GX c #F6F9F9",
"HX c #F8FAFA",
"JX c #F9FCFC",
"KX c #FAFEFE",
"LX c #FDFFFF",
"PX c #F9FCFC",
"IX c #ECE1CC",
"UX c #A0BDC1",
/* pixels */
"CXSXSXzXkXkXbXHXCXNXJXJXJXCXjXzXbXNXNXSXNXSXHXHXHXHXNXSXJXSXSXNXCXbXHXNXHXNXNXSXSXHXHXJXSXjXzXJXbXCXNXbXxXNXNXSXJXNXbXzXxXzXSXSXSXHXbXaXjXgXSXNXbXNXJXLXHXzXjXNXSXSXNXNXSXNXNXNXNXzXbXSXkXxXHXNXkXNXJXLXSXNXSXNXSXSXSXSXCXSXHXSXbXHXJXLXJXNXNXJXNXNXSXSXNXNXSXCX",
"NXbXbXjXzXbXHXHXbXbXNXSXHXbXjXaXjXSXHXSXSXLXLXLXNXNXCXNXSXbXkXbXNXJXJXSXJXSXbXbXkXbXNXbXSXSXkXNXzXzXjXNXCXjXzXSXJXNXjXbXJXSXSXzXjXCXCXbXbXSXbXjXzXNXSXSXJXSXCXHXSXSXSXNXbXbXkXbXNXgXkXNXjXjXNXbXbXCXNXNXxXSXJXHXSXCXSXNXjXbXHXSXCXNXNXNXzXjXSXSXHXSXbXSXJXJXHXNX",
"bXjXSXSXkXSXHXSXJXSXNXzXSXxXSXaXgXNXSXSXSXHXJXNXHXSXJXzXNXNXbXNXCXHXJXSXSXSXjXfXjXzXNXJXLXNXjXzXjXbXxXzXgXzXNXjXbXCXbXNXNXNXSXbXSXHXjXgXJXJXCXHXJXNXSXNXJXHXSXSXSXNXbXNXzXHXSXNXgXzXbXbXbXbXNXkXSXSXSXgXzXNXzXSXxXbXxXbXkXbXHXCXHXbXNXSXJXJXSXHXSXJXJXHXNXNXbXNX",
"kXSXLXLXHXSXNXJXSXbXbXfXbXbXCXHXbXbXbXSXHXNXxXzXSXSXCXJXSXSXNXNXNXbXNXHXJXNXbXNXNXJXLXJXHXSXxXNXSXzXgXSXgXbXjXkXzXSXbXgXjXNXbXbXSXJXbXNXNXNXNXkXzXNXSXbXxXNXHXSXNXbXNXbXSXSXSXSXSXSXbXNXNXNXbXbXNXNXCXbXbXkXgXbXbXNXNXJXJXNXCXNXNXSXSXSXJXJXNXNXNXSXNXSXSXNXSXSX",
"bXSXSXSXSXHXNXbXJXNXfXxXkXbXNXJXJXSXNXNXjXjXfXxXNXNXbXbXSXNXbXxXbXNXHXNXSXSXNXNXNXSXHXxXkXNXkXaXgXzXzXNXbXbXNXSXNXxXNXfXfXgXbXNXbXSXSXbXbXSXJXbXxXNXSXNXNXSXJXSXNXbXbXbXNXCXCXkXzXSXbXNXSXNXbXbXNXbXzXbXCXkXSXNXgXjXbXSXNXbXCXSXNXNXSXHXSXSXHXJXSXbXSXNXJXNXzXbX",
"HXJXSXSXNXbXbXNXzXSXSXxXNXNXSXSXHXHXLXNXNXbXzXzXzXgXfXgXbXbXNXxXNXNXbXHXNXbXSXSXbXzXSXbXNXSXNXNXbXbXNXjXbXkXSXSXNXxXbXgXSXNXzXHXNXbXbXSXNXSXSXHXCXNXzXSXSXHXSXbXSXNXCXNXCXNXNXbXSXNXzXHXSXNXNXSXHXNXbXNXzXNXNXSXbXbXSXJXSXSXSXgXbXSXNXNXHXSXSXLXJXHXJXJXJXSXbXjX",
"JXSXSXSXSXJXSXSXkXNXHXNXkXSXHXSXJXSXSXSXbXjXbXzXgXbXNXjXSXSXJXNXbXkXxXNXSXSXNXbXNXbXCXNXSXCXHXJXCXNXSXNXSXNXSXSXNXNXbXzXkXSXNXCXbXfXbXHXNXSXJXJXCXbXNXSXxXbXNXSXJXNXjXzXNXgXjXfXzXSXbXSXNXSXHXLXJXJXNXbXbXzXjXNXSXSXJXJXLXJXbXgXxXzXbXSXSXjXbXLXLXJXNXJXCXzXNXjX",
"SXNXNXJXHXSXSXSXSXNXbXNXNXNXSXSXJXJXHXJXNXzXzXjXzXSXLXJXHXbXHXNXCXfXgXkXNXJXSXbXNXCXSXbXSXHXHXSXbXzXNXSXHXHXSXSXJXSXNXjXbXNXbXbXxXgXCXNXNXCXHXNXbXNXSXSXJXxXkXNXbXbXgXaXjXSXSXNXfXbXSXSXSXNXzXbXzXSXJXSXSXNXNXSXzXzXSXNXSXSXNXgXgXjXgXbXSXbXNXHXJXbXzXSXxXNXNXHX",
"bXgXSXJXSXSXJXJXHXHXbXzXbXzXNXSXCXNXNXxXxXbXbXJXNXzXbXSXJXNXjXSXJXbXkXSXbXJXLXSXjXxXSXSXSXJXJXJXJXNXxXNXNXJXJXLXHXkXzXzXgXNXJXJXNXbXHXHXNXCXSXNXbXCXHXNXNXNXSXCXNXbXNXCXHXCXxXbXSXHXxXbXNXxXzXbXbXNXzXNXHXHXNXSXNXNXNXNXNXNXJXjXNXNXLXJXJXJXSXHXHXbXkXNXbXzXCXHX",
"NXSXSXbXNXJXHXxXzXNXSXzXkXzXSXSXkXSXCXxXgXjXSXSXCXNXxXbXCXbXbXCXSXJXJXSXbXbXJXNXbXHXJXLXJXJXLXLXJXSXNXSXSXJXSXNXSXSXLXJXNXHXJXbXNXNXCXHXSXJXJXLXHXJXNXNXSXSXNXSXCXkXSXLXLXHXHXLXLXSXNXSXzXfXsXNXJXJXJXLXLXNXkXxXCXCXbXzXSXHXJXbXCXxXJXHXJXSXNXHXJXSXCXJXbXxXJXJX",
"NXSXxXzXbXCXxXNXNXHXzXzXgXzXzXNXjXzXSXSXSXzXSXHXSXSXSXbXjXbXSXSXSXSXSXSXzXSXJXSXSXbXNXbXNXJXHXSXHXHXbXNXSXSXNXkXSXJXJXHXSXbXbXxXgXzXNXSXSXJXHXJXHXHXNXbXxXbXSXxXNXjXSXSXLXJXSXLXbXNXJXJXJXCXHXJXJXHXJXSXSXSXSXzXbXCXNXkXSXSXbXbXSXzXNXbXNXSXSXNXSXJXNXzXzXNXzXHX",
"LXJXbXbXHXJXJXLXJXNXNXSXSXNXSXJXHXNXSXSXSXbXbXJXLXHXSXNXNXSXJXJXNXjXbXHXSXNXSXNXbXNXNXzXbXSXbXNXHXSXNXzXJXSXbXNXbXSXzXgXjXgXxXJXSXgXkXSXbXNXNXSXJXNXbXbXzXbXCXjXgXbXNXbXCXSXHXSXJXJXLXSXSXJXHXNXCXzXbXSXNXNXNXbXNXbXzXkXbXjXNXSXbXNXSXSXSXSXSXbXbXbXbXNXSXSXkXNX",
"NXSXSXNXbXbXNXHXCXbXzXbXJXHXJXJXSXSXNXNXSXSXzXSXLXjXSXJXbXbXNXSXNXHXNXNXSXJXSXNXJXJXSXNXNXkXbXbXNXSXbXbXSXSXjXsXbXzXbXjXbXxXgXNXJXLXJXNXNXgXdXaXgXNXbXNXSXNXbXJXbXNXzXjXgXjXbXHXJXHXHXSXNXSXCXxXNXNXNXJXJXSXbXSXSXbXNXNXkXkXNXgXjXSXJXJXLXLXJXNXbXbXNXSXSXSXNXzX",
"NXSXLXCXSXSXJXSXbXNXzXbXgXfXbXHXLXLXSXSXJXSXSXJXSXxXNXbXzXbXzXSXCXSXbXNXSXJXSXzXHXHXJXJXHXJXSXNXCXbXJXSXSXSXkXkXJXJXSXNXNXjXkXzXJXNXJXJXHXSXzXaXjXgXkXzXzXgXNXSXHXSXfXbXCXbXbXSXCXNXHXSXSXJXSXHXSXNXbXNXSXCXbXbXJXNXNXNXjXbXzXjXNXCXNXSXSXJXCXbXJXSXzXCXNXSXNXNX",
"SXHXSXbXbXSXSXHXJXNXJXSXHXzXzXzXgXzXJXLXJXbXJXSXNXSXNXjXHXHXJXLXJXHXkXgXHXJXSXNXNXCXSXSXNXSXNXgXgXjXkXSXNXxXNXJXJXJXLXJXJXNXbXCXCXbXHXHXzXSXHXJXJXSXCXbXSXgXbXbXbXNXjXbXSXSXbXSXSXSXNXbXSXNXzXzXNXzXzXbXNXzXkXNXSXNXNXNXJXLXJXSXSXNXNXbXNXNXCXzXNXSXLXJXNXNXNXNX",
"JXSXNXzXbXNXzXbXJXNXNXzXSXLXbXkXbXNXSXNXNXNXJXjXNXNXCXzXbXJXJXNXNXJXbXNXJXHXCXSXSXNXSXHXNXNXNXgXgXbXbXNXNXbXbXNXCXNXSXJXSXSXbXbXbXSXJXJXgXzXNXbXNXSXJXNXCXzXbXSXSXbXSXzXNXNXNXCXSXCXHXJXJXbXfXzXkXNXSXNXbXjXbXNXCXJXSXbXNXNXNXJXHXNXNXbXxXbXgXjXxXNXNXJXSXNXxXbX",
"NXJXNXSXzXbXSXNXSXHXNXNXSXbXbXbXHXHXjXjXzXSXSXCXSXNXJXJXNXNXJXNXbXgXxXNXJXHXJXJXNXNXSXJXzXgXbXbXSXSXSXbXVXSXAXNXNXAXHXHXHXNXHXJXJXJXHXSXSXgXgXNXbXbXCXSXNXNXkXxXSXSXAXbXNXNXAXJXVXLXLXLXSXzXzXhXaXbXSXHXSXzXHXJXHXNXSXNXNXbXbXSXSXbXNXNXNXSXgXfXjXjXNXNXCXkXzXbX",
"zXbXzXgXNXSXJXgXSXSXHXHXJXSXNXzXSXSXSXSXaXjXzXNXNXSXCXSXbXbXNXSXSXOX(.(.).@X).~.).@X(.(.).).OXOX@X@X@X).).).&X&X=X*X&X).@X@X@X@X@X#X8XeXeXeX#X#X@X@X#X#XOX(.Q.Y.L.Y.Y.Y.I.I.N.m.U.Y.M.Y.Y.U.SXzXgXSXLXLXJXNXCXCXNXNXCXjXNXzXkXbXNXHXbXNXzXzXHXSXCXgXxXSXSXzXbXLX",
"bXbXJXbXLXJXJXHXJXbXNXJXzXjXzXkXNXbXJXzXgXbXJXbXNXNXNXNXxXkXjXzXNXY.S.!.).).!.~.).E.Q.!.!.!.S.Q.Q.S.S.!.!.~.~.).=X&X~.&X@X).).).@X#XeX*X@XOXOXOXOX#XOXE.Q.Y.V.Q.G A V.m.P.m.,.,.V.v.v.V.V.N.CXSXbXCXSXNXSXCXNXzXzXaXfXbXNXSXSXCXCXNXNXkXaXzXNXJXSXNXSXJXJXSXSXSX",
"JXHXSXNXSXJXjXjXJXJXSXSXkXzXNXNXNXgXgXzXNXSXSXJXSXNXSXbXNXNXNXzXSX(.Q.).).Q.!.~.(.!.D.D.!.!.!.D.!.!.~.~.~.).&X=X=X).).=X&X).(.(.#X*X@X(.OXOXOXOXOXOXU.Y.M.V.B.S.S.%.n.V.V.N.` v.b.b.B.B.b.M.bXzXzXzXSXNXzXNXHXNXJXgXgXNXHXSXJXSXNXCXSXxXbXkXbXHXSXNXNXNXCXNXbXNX",
"JXSXNXNXNXbXjXzXSXbXSXzXSXNXNXJXHXSXaXbXCXSXSXLXJXSXCXNXLXLXSXSXSX).(.).~.!.!.!.S.A.D.!.!.!.!.!.~.).).).).@X*X=X=X=X@X*X@X(.(.#X#X(.(.@XOXOX#X@XOXU.m.I.Y.B.Z.Z.B.c.@.b.B.v.,.b.b.b.B.V.N.P.NXbXaXgXNXSXNXSXLXJXJXzXzXSXHXSXNXbXbXNXSXCXSXbXbXbXzXzXgXjXCXSXSXNX",
"HXHXNXLXHXNXjXNXNXxXjXfXNXJXHXbXLXJXNXbXHXNXbXSXNXJXSXJXLXSXJXLXSX).(.~.!.D.!.D.A.A.D.!.D.D.S.S.!.).).@X#XeXeXeX*XeXuX=X~.(.eXrX(.@X@X#X#X#X8XOXE.I.I.U.Y.B.Z.l.@.b.l.B.B.v.h.g.b.V.V.M.M.P.SXNXbXkXfXzXzXNXNXSXbXSXJXbXNXSXNXNXbXbXHXHXHXJXJXNXzXSXJXNXzXbXjXkX",
"CXSXHXSXCXJXLXJXSXCXSXSXHXNXNXbXJXJXzXSXSXzXzXCXzXbXNXNXNXNXSXHXJX).).~.D.S.D.D.A.D.D.D.D.Z.S.D.~.&X).*XrXeXeXrXeXuXrXQ.Q.@XiXtX(.@XOX#XeX#X#XOXE.T.T.U.B.Z.Z.l.@.b.z.B.b.b.h.g.b.M.M.V.M.y.JXLXLXHXbXxXzXzXgXjXkXNXSXSXbXSXNXJXbXNXHXHXJXLXSXSXJXSXHXNXkXNXgXxX",
"JXNXSXbXNXNXbXLXLXSXSXSXNXHXNXzXNXzXxXSXJXSXSXSXLXJXSXJXNXSXNXHXJX).).!.D.S.D.A.D.D.D.D.D.A.D.&X&X~.=XrXrXeXrXrXtXeX(./.OX#XeX#X#X).OX8XeX8X@XOXT.P.I.B.Z.Z.Z.l.l.Z.l.C.b.b.g.b.N.M.Y.V.m.y.SXJXJXSXNXbXSXbXbXjXbXxXbXNXxXzXNXzXbXgXNXNXCXSXbXzXHXSXzXbXgXzXgXzX",
"SXSXCXSXbXgXjXNXHXSXJXSXbXJXNXNXjXgXkXSXJXJXSXNXSXSXLXHXgXbXjXSXJX).Q.D.S.S.Z.A.D.D.D.&XD.D.~.~.).).rXiXrXeXrXiXoX^.OX#XOX#X#X#X@X(.#XeXeX8X#X/.P.m.V.Z.Z.j.Z.c.l.Z.l.l.Z.b.b.b.v.M.Y.P.>.>.SXmXgXjXNXNXNXNXNXHXjXgXSXNXNXzXzXfXjXzXNXNXSXJXJXgXzXxXNXzXfXjXNXzX",
"zXSXCXCXgXaXbXjXbXCXbXbXNXNXJXSXzXgXbXSXSXSXbXSXxXkXJXSXkXSXbXNXNX).S.Z.Z.D.A.A.A.D.D.D.D.!.!.).@XeXiXiXrXrXrXrX.XL.*X/.OXeX#XeX(.@X#X#X#X#XOXE.y.M.S.Z.j.g.Z.l.l.b.l.l.S.B.b.b.N.I.P.P.>.>.zXbXNXbXzXNXNXSXNXbXNXCXJXCXxXkXzXNXNXSXLXLXSXHXHXbXbXNXjXxXjXjXSXbX",
"gXbXJXJXzXjXHXHXjXzXSXNXSXNXNXNXNXgXSXHXCXJXHXSXNXNXzXgXkXHXJXSXHX@XQ.Z.S.D.A.A.A.D.D.D.&X!.~.@XeXiXIXiXrXeXrXrX#X'.OXI.8X#X@X#X(.@X#X@XOXOXE.U.m.B.Z.k.g.b.b.c.c.b.f.@.B.S.b.m.I.I.P.V.>.>.bXjXSXbXxXJXJXJXNXzXNXSXbXfXgXbXbXLXJXHXJXSXHXbXbXHXNXSXbXzXjXxXNXSX",
"SXxXLXSXNXJXCXNXNXbXHXSXHXJXNXSXSXgXjXSXCXJXJXHXHXHXSXbXzXSXJXSXNX@XQ.S.D.D.A.A.A.D.D.D.!.Q.@X*XuXIXIXrXrXeXrXrX*XOXn.E.#XOXOXOX@X@X@XOX/.U.U.P.m.S.A.k.g.v.b.c.c.g.f.@.B.B.m.P.I.m.M.N.>.>.NXSXJXNXjXzXjXzXjXfXaXgXjXkXkXgXbXJXNXzXbXbXSXSXNXzXbXNXNXbXJXLXbXNX",
"LXLXLXLXJXSXSXbXNXbXSXSXJXzXSXJXSXNXCXSXNXJXJXJXJXLXJXSXJXCXJXSXkX#XS.S.A.A.A.A.A.A.A.C.W.).*XrXIXIXuXrXuXtXeXeX@XU.&.OXOX/./.(.@X@X(./.E.U.I.P.N.S.k.j.g.b.b.n.l.g.c.@.V.m.y.I.M.m.P.N.>.>.NXJXJXNXjXaXbXfXzXHXbXgXNXgXgXjXbXbXNXNXzXbXNXSXNXSXbXzXNXNXHXxXbXNX",
"JXJXNXSXHXHXNXjXgXzXHXSXSXNXNXHXSXNXSXHXNXJXJXSXSXJXJXSXLXHXNXbXbXeXS.Z.A.A.Z.A.A.k.S.$.z.~.=XuXvXiXrXuXrXeX#X@X/.M.W.OXOX/.Q.(.@X(././.U.P.P.P.N.Z.k.j.g.v.N.n.c.b.c.z.E.P.m.M.P.P.P.m.:.>.JXLXSXSXbXsXJXbXjXNXjXgXgXjXJXNXjXjXSXJXSXHXJXHXbXxXNXbXNXNXNXjXkXNX",
"NXJXbXNXNXCXbXgXbXSXJXSXJXbXSXxXNXbXNXSXSXNXNXCXCXHXJXSXSXSXJXNXxX*XS.Z.A.Z.Z.A.k.k.b.n.z.).*XIXaXuXiXuXrX#X@XOXE.I.R.OX/.Y.Y.(.(.Q.E.E.M.m.P.m.V.Z.j.g.h.v.N.c.@.b.%X5.Y.U.Y.M.P.P.y.y.:.>.JXJXSXNXNXbXSXNXbXNXSXzXgXHXLXJXSXJXSXSXbXNXSXSXSXxXCXJXbXSXSXNXSXSX",
"SXSXCXbXbXzXbXNXLXLXLXNXNXgXSXNXNXSXSXNXzXkXzXNXJXSXbXHXHXSXSXJXHX+XS.Z.Z.Z.Z.j.j.g.g.!._.+XrXIXyXuXuXrXeX@X/./.U.W.R.OXE.Y.V.(.(.Q.(./.M.m.y.m.b.j.j.g.h.N.v.h.l.b.^.].m.N.Y.I.P.P.y.y.:.>.gXbXNXzXJXbXbXNXbXSXSXNXzXNXSXHXJXSXHXHXxXbXzXCXNXgXzXJXNXNXHXNXbXSX",
"JXSXNXzXxXJXJXSXHXSXjXbXjXjXbXJXSXNXSXNXNXHXJXbXkXjXbXSXCXCXNXNXSX+XS.Z.Z.Z.Z.j.j.b.B.).=X-XwXiXwXuXuXeX*X@XE./.U.U.OX/.E.Y.V.Q.).Y.w.w.#.;.>.F J g.h.g.b.N.g.j.c.b.n.L.I.V.P.T.I.y.y.>.-.>.zXjXSXgXjXzXgXzXHXbXHXNXSXNXNXCXNXxXbXjXzXNXbXgXgXbXbXbXNXHXSXbXkXSX",
"SXJXSXNXgXCXHXSXSXSXNXCXSXNXgXzXJXLXSXSXHXJXLXNXzXJXzXbXNXzXNXJXxX).S.Z.Z.D.j.g.Z.S.(.+X*XtX7XwXuXiXrX*X#X@XE.E.U.E././.U.Y.V.%.H H 5.%.&.>.>.+.l.*.N J F G j.J @.b.&.G.(.M.P.I.T.T.y.:.-.>.JXmXbXkXjXNXSXfXzXbXbXzXCXbXNXNXSXHXHXSXSXHXLXaXgXSXkXSXNXjXgXNXSXbX",
"NXHXSXNXjXNXJXHXSXSXNXHXHXHXJXJXJXJXjXbXNXNXSXNXzXSXNXzXgXaXjXSXNX_.S.S.A.D.Z.B.Q.(.@XtXtXrXuX7XuXrX$X#X*X@XE.U.U.E./.U.M.V.z.G L.Q.(.Y.N.;.,.#.l.f.f.f.J J f.J c.v.W..XE.P.P.P.T.T.i.;.;.y.NXSXHXNXJXLXLXzXNXSXNXgXzXzXCXHXJXNXNXLXJXSXbXjXkXNXzXjXgXgXCXNXNXzX",
"SXbXNXxXxXSXCXSXbXNXSXSXNXzXzXNXjXNXSXSXSXCXSXSXkXSXCXNXjXNXgXkXJX_.Q.S.D.S.S.(.).(.*XtX-XuXuXwX7X8X$X.X#X@XW.I.E./.Y.>.N.n.F B.~././.n.+.+.+.n.c.j.j.g.Z.@.1 l.v.N.R.].E.T.y.E. XT.t.;.;.y.bXmXzXxXbXSXJXSXHXJXSXSXSXNXzXbXSXSXHXHXbXbXNXzXzXNXNXkXgXCXNXSXCXxX",
"LXLXHXSXbXNXSXLXNXNXbXNXbXbXjXbXNXzXbXHXbXkXNXSXSXSXbXkXjXbXSXSXJX(.Q.S.D.S._.+X(.#XtX=XtXwXrXuX7X'.#X*X.X^.W.U.E.E.m.-.N.n.*.S.Q.R.L.+.[ -.>.N.g.g.j.c.*.*.C.l.A Y.W.L.E.T.T. X Xu.t.t.r.:.NXbXSXNXNXbXSXSXSXNXNXCXNXNXbXjXbXSXSXNXzXzXkXbXzXSXSXbXbXHXSXNXNXxX",
"JXJXJXzXgXaXSXNXzXgXbXzXbXzXSXSXJXNXbXCXgXjXbXzXSXSXjXzXxXSXCXSXbX(.Q.F.F.Q.+X+X+X-X*X=XtXwXwXiXoXG.*X.XK.W.E.OX/.Y.>.,.N.@.*.S.Q.L.#.>.-.-.,.v.b.g.f.*.@.B.Z.h.H %.W.e.E.T. X X Xt.u.u.:.:.SXAXJXHXSXSXSXHXHXNXNXSXNXgXjXNXjXbXNXzXNXNXkXNXzXSXJXSXzXbXJXCXSXSX",
"bXbXjXfXfXgXHXbXjXbXLXLXSXNXzXJXNXbXCXNXgXgXgXxXJXzXNXzXfXgXNXbXbX(.Q.F.F._.+X+X+X#X+XtXrXuX7X$X#X*X%XG ^.E.T.OXE.Y.>.>.N.c.x.Y.%.Y.Y.-.:.:.,.b.b.l.l.v.Q.Q.h.b.Q.W.G e./.T. X Xi.T. XT.o.:.JXSXzXNXSXNXNXNXHXjXgXNXNXkXJXSXjXgXbXNXbXNXbXbXNXNXJXLXbXbXzXCXSXSX",
"bXbXbXzXbXbXzXCXNXNXJXJXCXzXkXxXbXbXNXNXxXfXNXNXfXgXNXCXNXbXNXbXxX(.Q._.F.+X+X+X+X+X-XtX*XeXoXK.=X%XG L.L.U.I.E.E.M.>.:.N.h.H Q.Y.I.N.-.:.:.v.c.J c.g.Q.+X_.b.Y.z.U.H 2.OX X XT.y.OXOXy.o.;.JXLXHXJXLXJXbXzXjXxXbXzXbXbXSXHXbXkXxXSXJXNXSXCXSXHXSXJXNXbXSXSXNXNX",
"SXJXJXSXCXNXNXSXNXbXSXbXNXSXHXbXNXSXSXNXNXNXSXJXjXzXzXHXJXNXNXNXbX(.^._._.+X+X*X+X+X-X+X/.*X+XK.(.W.H L.W.I.P.U.U.>.X.:.N.J G /.U.I.>.-.:.>.@.F *.h.Y.tX_.b.M.Q.z.L.w.2.[. XT.T. XE.T.r.o.r.NXkXxXNXJXjXbXJXNXCXzXgXNXNXNXSXNXNXJXbXJXJXHXHXHXSXSXJXNXSXNXbXNXbX",
"NXJXJXJXLXLXLXJXSXJXSXSXNXNXHXLXNXJXLXJXJXCXSXHXCXSXbXkXSXJXSXJXmX/.Q._._.+X#XXXK.@X+XOXOX@X^.^.n.V.W.w.q.;.P.U.m.-.:.:.*.C.H U.U.P.[ ..>.N.+.*.g.V.+X_.b.M.U.U.E.L.w.3.e. X8X8XT.y.t.r.r.q.NXbXHXbXbXzXJXSXJXSXNXSXNXCXCXjXzXgXNXSXSXSXJXJXJXJXJXNXSXNXSXCXNXzX",
"bXHXJXJXNXJXJXSXSXSXJXHXCXSXSXNXSXLXSXJXJXbXbXHXzXNXJXzXkXNXNXJXbX/.Q._.+X@X*X.XR.(./.OXOXE.W.Y.z.A n.y.r.[ y.U.>.:.| $.B.A.Y.%.#.&.^ X.>.$.,.b.v./.F.g.P.E.U.H 4.t.;.q.`.}.qX Xu.t.r.q.} 9.SXbXHXSXNXHXJXSXbXNXHXSXSXSXSXjXzXHXNXCXbXbXNXSXSXJXSXSXSXSXHXbXCXNX",
"HXNXNXNXxXNXNXJXSXNXJXSXJXHXCXNXbXSXCXCXSXSXzXzXNXNXNXSXbXNXCXLXzX^._.+X).R.L.%XOXU.U.E.E.E.w.#.,.H F O.y.{ #.M.>.:.{ n.z.H &.H 5.>.X.-.;.F ,.h.b.v.v.M.T.R.W.4.o : u.5.`.[.t.:. Xu.;.| | i.bXbXNXSXbXNXNXNXgXNXSXbXSXbXxXbXNXNXNXNXSXNXbXbXzXxXbXNXSXSXHXNXSXSX",
"HXNXJXSXzXbXSXHXNXCXbXJXHXNXbXJXSXbXNXbXkXSXHXbXbXzXbXNXNXjXNXHXgX^._.%XF L.L.R./.U.E.OXE.I.&.A ;.m.D q :.:.} >.:.| >.x.G H < 3.E...X.-.D $.,.w.z.@.w. X X5.5.4., 5 4.4.'  .q.b r.q.;.r.o.| fXfXxXHXSXNXNXSXNXJXCXNXNXbXkXbXSXbXxXzXNXHXLXJXSXSXJXNXCXHXCXHXHXNX",
"bXNXSXCXNXbXSXSXbXgXxXSXHXNXbXJXSXNXNXLXJXJXHXNXNXNXHXSXHXSXkXaXsX^.^.^.#.R.=Xw.r.U.OXOXT.;.:.>.-.X.>.; a >.[ { { D $ G Y.t.9 5.W.) X.-.D ' #.e.&.&.{. Xt.u. X4.4.7 A D ` =.g 9 | r.r.| | o.JXbXbXHXNXbXSXSXJXbXNXJXSXNXHXSXNXSXbXNXJXHXCXbXJXJXJXbXNXSXSXSXCXCX",
"CXJXJXCXbXbXCXSXSXNXjXNXSXSXfXbXJXHXNXSXHXSXxXCXSXNXLXJXJXJXSXkXfX^.^.#XL.q.w.R.t.t.T.T.:.:.-.-.-.-.o.} q A ,.D f +.G ].n.`.<.f >.) { ' S [ [.T.:. X8Xt.q.T.T.[.5 , b =.h./ 3.9.p g ;.;...} LXJXHXSXNXHXSXSXNXgXSXSXJXLXJXJXCXSXNXJXSXCXxXjXCXSXNXJXSXSXNXbXNXbX",
"NXHXCXSXNXbXNXNXbXbXSXSXSXNXbXxXbXCXNXSXNXxXbXxXkXbXJXNXHXJXLXSXbX^.+Xe.w.^.w.R.P.$.r.O.:.:.>.>.o.|  .O.' . - * [ Y.eX8XT.8Xp.0 s e ' ] { :.[.u.o. X X| u.r. X5.X } D $.| D q.g 9 # p ..' S HXJXNXxXbXJXCXzXSXkXbXzXNXCXbXzXNXCXNXbXNXbXNXSXHXSXjXSXbXSXSXjXzXbX",
"NXSXzXJXSXbXSXxXgXjXNXLXNXNXJXbXbXCXSXJXHXCXSXHXJXzXCXNXzXSXNXSXbX^.^.e.|.^.R.E.t.| y.o.r.o.#.F g | :. .] -.O $ @.#XiXuXqX'.A 9 f ..X.[ { :.u.p.o.[.[.T.:.u.qXF S :.a  .} $.p g | w # f D s SXNXbXjXkXSXSXSXbXkXaXbXSXSXNXkXxXNXSXNXNXSXNXxXbXJXbXkXNXNXHXSXJXJX",
"NXSXJXJXCXSXSXzXzXzXbXSXNXNXSXSXNXJXNXNXJXJXSXbXbXxXjXNXNXNXSXbXkX^.].XX#XR.W.U.P.y.y.I.;.&.} b o.y.o.} { >.=.. G 7X3XJ.6.7.A p ] ..X.D ' :.| u.o.e.{.u.r.[.e.o.O.] f D D p 9 5.F u 9 & q ; NXSXNXSXSXSXSXSXNXzXNXCXSXJXxXNXSXSXCXHXbXNXSXHXbXNXbXxXbXNXSXbXSXSX",
"SXjXbXSXbXfXzXNXSXHXSXbXNXCXSXHXNXzXSXNXCXJXJXkXgXzXbXNXSXSXJXJXJX^.|.XX$X|.W.U.i.0.0.i.u.b m X.>.r.] :.n.,...N 5 1X1X3X2XqXi.p { ] X.[ ' :.n } e.q.u.u.[.q.p. .a.3.w q w 9 p ' f w q : : = zXCXSXSXNXCXbXbXNXNXNXHXCXbXNXkXHXSXLXJXNXgXjXzXgXzXxXSXSXNXbXbXzXSX",
"NXxXCXzXgXgXjXbXCXJXJXLXLXSXNXSXzXaXjXNXNXbXNXNXbXNXJXNXjXfXzXLXNXR.].].XX|.W.T.0.0.n m 0.c | o.O.| O.O.w.$.{ %.G.H.iXwXH.[.i.p ..] ....& D ' 9.e.i.r.[.u.e.9X0.9X2.# w g h } 3.2.a 6 : , - SXSXHXJXJXHXSXJXSXNXSXSXSXSXSXbXCXCXJXHXHXkXfXaXsXbXHXSXCXbXzXbXNXNX",
"kXCXzXSXbXbXNXLXSXjXJXHXJXNXgXgXjXgXjXSXNXbXbXzXbXbXSXSXbXgXbXNXxX|.|.].XX|.W.i.i.o.m m O.0.| q.r.#.] m o.-.:.H h._ H.yX4.; 9.' ..] ~ -.$ # O.q.3.A o. Xs p.3X6Xa.= - q h h A 2.8.$ O @ : < SXSXNXgXzXSXNXSXSXbXJXSXSXNXbXSXSXSXNXbXNXxXgXzXjXbXNXbXSXJXSXSXCXNX",
"zXCXbXbXSXSXbXNXNXgXjXxXHXxXzXxXJXjXzXSXJXSXgXNXxXbXbXzXxXHXNXzXbX|.$X`.].|.u.T.r.m  X X .n r.[.`.L.+.=.&._ -.T _ Z.'.4.#., 1 [ X.] V -.e ; u.9. .p q.6 . 6X2X9.m . = & + - 6 >X2.- $ + $ : NXSXNXaXxXNXCXNXbXbXxXNXSXbXNXNXCXjXzXNXzXbXzXbXzXSXNXNXNXNXJXSXNXSX",
"bXbXgXfXNXSXNXfXzXjXaXjXSXbXbXNXNXSXSXNXNXSXbXCXNXJXzXgXzXNXbXzXzXXX|.].{.[.u.OXo.m  XL. .g 9.}.oXE.g.^.H N ` L Z P.n.B N A F D ..] u W V ; 4.5.c :.e.& 9 7.1Xs.+ @ X 6 d 6.9X>X; 6 2.: q ' kXSXHXNXNXgXjXbXbXbXzXxXSXJXLXJXjXjXzXNXzXNXNXbXzXHXHXJXHXSXgXzXNXNX",
"NXbXNXbXNXSXHXCXzXSXNXSXCXjXNXHXNXSXNXNXCXNXNXbXbXHXbXzXbXSXJXHXbXXX].].{.[.|.W. .o.t.=.' g  .L.7XqX7XqX|.*.&.q.F / ^ f s = S m ] ..~ e S 9 : 3.g i i.| A 8.6.6.q g o . > - 5 - q 7.7.9. .u VXjXSXSXJXzXbXzXgXSXCXzXJXLXJXSXzXbXbXzXbXHXNXzXbXNXbXSXHXJXNXSXNXHX",
"SXJXCXfXzXHXLXLXJXSXSXHXSXNXSXJXJXHXNXNXNXSXbXNXSXJXJXNXzXJXNXSXzXXX|.|.{.{.$XW.r.u.9.W.F h 0.} W.}.6X9X9X{._.8XsX`.t t g p H q p X.X.u q ' : s o X 3.3.s.1.- - 0 h . X . . $ q p $.s a q u bXkXkXkXLXSXSXSXHXLXLXSXzXSXJXCXzXgXzXNXSXzXSXJXSXzXjXzXbXHXgXSXSXJX",
"SXLXLXSXSXLXLXSXJXJXbXzXNXJXJXJXSXSXJXHXNXCXxXNXSXbXNXJXJXHXHXbXNXXX|.].}.6X`.W.$X[.a.`.3.p  .p.,.&.s.s.6XqXQ.*.1X<X7 N 9 h n.C & w z i & r. .@   a 3.<.<.- O 0 g g + . X 6 q.b # r & g o.0.SXNXNXzXbXxXSXLXLXSXLXJXNXNXSXSXbXaXfXkXbXNXbXLXNXNXSXSXNXNXbXSXgXNX",
"NXbXHXSXSXSXHXfXCXJXbXNXbXNXNXNXJXNXHXJXSXHXJXSXJXSXSXSXNXSXLXSXHXXX].].}.6X}.}.[.a.p.e.e.i 3.,X[.t.,X7.,. X[.O   2 <XJ.1 > f ] b e r & O A A   @ q < 2.2.5 9 M 9.g @ @ 2.6.< # w  .9.a. XqXHXNXSXHXCXSXSXbXJXxXNXLXJXJXSXHXSXbXSXJXJXJXSXJXSXkXNXNXSXLXJXNXgXbX",
"SXzXSXCXSXNXzXbXNXNXxXbXbXzXzXbXNXxXbXSXxXNXJXJXHXSXSXSXSXNXxXNXkXXX].].6X`.}.8X9.p.e.e.s.0 3.8.2Xp.3.6Xp.0.,Xo 2 2 <X<X, q 9 z ....{ f X < d o X A } ) O.g h  .n M @ > d 3 , 9 t.p.A 2X4X0XLXxXCXJXbXJXHXjXbXSXNXNXNXSXzXbXSXNXHXLXLXSXzXkXSXCXNXSXjXNXJXJXxXzX",
"NXzXgXNXJXSXzXSXbXzXSXLXLXJXNXSXNXbXSXNXjXgXNXJXHXLXJXHXSXjXkXNXgXXX].].8X7.3.{.p.qXi.s. .c @ o - @ 9 0 <.n b 2.:X<X<X<X- t q V ..' ;.7.o + g 7 3 % X.O.m n 0 } n 0 > - : , : s 0X2XH 7X4X2XzXkXSXSXbXSXSXJXNXNXHXCXSXNXNXNXbXSXzXNXJXSXNXSXCXbXbXNXgXSXJXNXNXzX",
"NXSXzXjXzXJXJXJXJXJXLXLXLXJXNXNXbXNXNXzXCXjXzXbXSXHXHXCXkXgXCXjXkXXX].].6X{.6X[.6Xa.p.p.b M .   . . S c 0  .F - 5 X 2 < & e B A | i q.3.. . 7.6 # @ n v.@. .0 n 9.d.3.3 2.7 <.7.XXp.2X`.e.e.SXSXSXSXbXSXJXHXbXzXHXJXJXHXSXSXbXzXzXxXSXHXJXSXSXNXjXzXSXNXzXbXNXNX",
"JXJXSXSXgXSXNXzXjXNXbXSXSXNXSXSXHXSXzXzXCXNXbXNXNXHXSXjXgXzXjXgXfXXX].].{.H.H.4.7.3.u.s.<.3.O   . . + ) v s a   2 5 4 ; 9 + e S { F } y = X > 9 @ + e Z.A.h.9.s.g s.7.3.8.- 2.qX`.7.2Xp.$.q.HXNXSXbXNXSXSXSXNXNXSXNXJXLXJXJXHXHXNXSXNXSXCXSXNXzXNXNXJXNXgXbXNXSX",
"SXCXNXHXHXkXgXbXfXaXaXkXNXNXSXHXJXJXbXgXbXCXSXSXSXJXJXNXzXNXbXgXNXXX].{.{.{.4.4.2.- e.s.2.7 4.  . q . + q = O . X 5XpX1X< + % s } D ~ i > :   # 1.H 1 ] ` g.[.0X9.9.9X1.h @ 8.p.>X3.p.p.9.q.bXbXzXkXbXkXHXSXNXHXJXNXSXJXNXSXLXLXJXSXJXHXSXCXSXHXJXJXJXJXzXNXbXSX",
"xXxXNXSXJXJXJXSXJXkXbXSXNXSXNXSXSXSXSXkXkXNXSXSXSXJXbXHXHXHXzXNXNX{.].XX{.8X7.[.[.8.5.7.2.4 4 o O v #   . @ . 7 :X:XpXUX7 ; $ S ] ' ' s q s > >  .^.J w v =.1X4X6X7.2X9 > 6 3.2X>X9.] { | u.SXSXzXHXSXbXHXLXSXSXJXzXNXSXgXgXxXSXLXSXJXLXJXJXJXJXJXCXjXjXbXNXSXJX",
"NXgXzXSXHXJXHXbXJXNXSXJXLXJXNXHXbXSXbXbXHXLXJXJXJXSXxXbXxXSXNXNXHX].{.7X{.{.H.7.4.7.e.7.> X 4   A ] q     & & 5 <XUX5X<X7 : $ N  .b ' u = - ; d A 5.I.# # S 7 2X7.8.<.9 s 4.p.p.H.H.9.q.`.L.SXzXNXNXSXJXSXSXNXbXSXbXNXbXbXjXkXzXbXbXHXCXNXSXJXJXCXxXzXSXNXJXSXNX",
"bXCXCXSXHXLXJXSXbXHXSXHXbXkXgXxXbXzXjXzXjXNXJXHXSXNXkXgXjXNXSXSXbX'.}.{.XX{.H.2X3.2XyX6.# - 8 o $ % $ o O q - X 7 <X<X4 X a $ . * : a g + 6 6.A 2.1X9.9   : 6 1X7.: 2.w a 8.8X`.9X0X}.e.w.w.JXNXJXJXJXSXNXbXbXCXzXjXHXbXJXxXjXSXSXLXLXSXNXzXNXJXSXbXNXSXSXJXNXSX",
"NXzXSXSXNXCXHXNXbXLXJXNXzXNXSXSXkXzXzXzXxXjXCXNXSXSXjXgXJXSXzXgXbXoX'.{.{.{.H.3X>X2X6.3.3X1X6 < . .   $ w a 6 , - 4 7 7 4.3.= O A $ d e.3.9X3.9 2.6 2. .# 5 3 1X7 X 5.p f F A 3.6 H.L.$.+.$.bXSXHXNXNXbXbXLXbXzXNXHXHXNXSXNXNXSXNXSXHXNXNXbXNXSXSXNXkXNXHXSXNXNX",
"SXxXNXSXbXbXHXSXLXSXzXzXLXSXJXLXNXjXNXCXSXSXkXNXNXSXNXgXbXSXbXbXSX.X'.7XoX{.3X6.4X6.d H.dXyX1X2.% O + w u S 7.4., 5 4XyX6 3X; : 7.} p.{.`.9Xh d 6.- 6 2.- X 6 ; - < f w ' A ; 3.4.A #.w.e.w.CXJXCXzXbXgXfXxXJXSXSXSXSXSXJXNXNXHXSXNXbXbXNXxXNXbXSXJXbXbXCXbXNXxX",
"SXJXbXbXNXNXSXHXHXbXjXzXLXxXzXfXfXSXJXbXbXSXxXzXzXzXkXNXzXbXJXJXNX.X'.7X7X`.7X3X1X1XpX1X2X4X7 5 - ; a a * r 7.< - 6.aX1X1X0XF 2.2X2X2X}.0X2Xd 8.6.5 6 A 2.o * w + a q - : & 2.`.#.A A A G t.jXjXkXNXNXgXbXgXzXNXSXSXJXJXJXJXNXNXJXSXNXzXzXNXbXJXSXSXJXHXSXkXzXCX",
"CXSXSXNXSXSXzXjXNXbXbXNXbXSXzXgXkXSXJXxXfXbXbXbXNXJXbXSXNXgXjXNXNXK.K.oX.XL.0XpX6.3X3X1X3X6.2.4.6 4.7.4.2.5.5.1 6 pX3XJ.2Xe.p.6X7.7.3X3X4XF F 2X6.H.6 < 2.X & e : g w u = . 4.e.[ S N [ / ,.zXfXgXzXkXkXkXkXNXzXzXkXbXNXNXSXJXbXSXSXbXzXgXzXSXNXHXJXNXNXSXzXjXNX",
"NXSXHXzXbXbXNXNXSXNXNXCXNXNXbXNXSXJXCXNXbXNXSXLXLXLXjXzXbXgXbXzXbXK.K.'.K.L.H.2X5.H.5.6.2X7.6X'.'.3.5.+X5.7.6XG.J.1XA G e i e.5.i 3.7.7.7.u | s.7.1X- - e.4.4.7.; F f 9 ' ; A F N V / / ( ,.JXHXJXHXkXaXzXbXNXSXSXbXbXNXkXgXzXbXCXjXgXkXzXNXHXbXNXLXzXzXzXbXNXSX",
"CXbXjXNXgXxXHXJXLXzXjXJXHXzXNXSXCXNXbXNXNXbXHXJXHXLXzXjXNXNXbXzXkXK.K.'.'.'.oX5.5.oX'.3X0X2X7.L.K.G.z.#.q 3.`.5.G.5.#.$.[ ' $.} D s S 5.3.u | S 4.A 3.A N q.< < F H } 9 ' S r ^ ^ ` / u -.,.VXSXbXNXNXzXxXbXgXjXJXLXLXJXSXgXzXzXbXbXgXNXNXNXSXkXzXSXbXzXbXHXJXJX",
"jXgXaXjXjXJXHXJXSXNXNXSXJXHXSXNXjXkXbXJXSXCXCXNXjXbXNXzXgXNXSXSXSXL.L.'.oXoXoX5.H %XH 4.'.F N L.F H %.C *.l.z.W.z.&.%.#.+.+.$.+.Z u V q.} v u - : x X.u   D @ + ) W s [ ..r B ` / / -.B * +.xXNXjXzXjXjXbXNXkXzXzXbXCXLXLXHXSXNXfXjXjXJXHXxXJXSXNXbXbXxXNXbXNXNX",
"gXaXgXkXNXHXLXHXbXSXjXbXLXNXbXHXsXjXkXSXxXNXSXHXxXzXNXzXCXHXJXSXbXL.L.K.L.&.+.+.+.+.N N *.J e C _ B S l.l.@.c.l.f.f.*.@./ W =.T C B V ! X.z * | x v ..X.+ . q & X.~ u ` W = V ^ / ^ r * e +.SXHXkXbXCXzXJXJXJXNXzXzXbXSXJXLXJXSXjXaXaXgXzXCXJXNXSXHXHXSXHXJXJXJX",
"HXSXSXSXbXzXNXJXJXbXgXNXNXCXjXkXjXSXzXNXSXHXSXSXJXLXHXSXJXSXNXbXNXL.L.w.@.R ! ! { { u _ C N B C C C @.*.+.H @.l.f.@.@.( x / ` _ %.C Z / -.= ; -.-.;.| ) ) = q & u ' ( / & u W V V ^ ^ ` ` +.SXHXNXbXbXxXJXSXJXHXNXbXxXgXzXkXjXNXSXSXbXzXgXNXCXNXJXLXJXJXJXLXLXLX",
"bXbXzXbXbXNXNXLXSXbXNXSXSXSXjXbXHXNXkXjXSXJXbXSXSXSXbXSXHXJXkXNXzXe.&.%.@._ / P u / i W ~ x ^ ^ u ^ / =.-.+._ ` @._ ` ~ z / / / / ' W ] ..^ r r B D ~ i i r O = r +.=.r V X.` ` / ( V r =.=.NXNXCXSXNXkXSXHXbXHXJXxXzXgXgXsXbXSXNXNXNXSXgXNXHXHXJXHXSXHXSXHXJXLX",
"NXbXgXzXNXSXNXLXJXNXSXHXNXJXNXJXNXSXNXjXbXHXNXfXjXzXbXLXLXNXjXxXHX&.+.@._ / L P y P i w % q u ~ i p p p i i W W W W / / W b ' ' b ' W ] z ) ( B u e ! V B / ` W = _ $ r ` ^ = ^ ` ` B * / +.NXbXNXbXNXbXNXNXNXNXSXSXSXbXHXgXkXCXCXNXgXkXNXCXCXbXbXkXbXNXHXJXHXJX",
"SXHXzXSXNXNXNXSXSXSXSXNXxXSXSXSXCXJXSXbXbXSXJXbXgXjXgXgXkXbXjXzXNX&.+._ R ~ Q ! / k w % . . + O . . w p w i p b b b ' ] b z b ] ] ~ ~ ~ ~ ~ / ` X.X./ ( X.( ` / . * r * C C * _ B N ` ` _ +.SXSXNXSXSXSXSXHXHXSXJXJXCXzXNXNXbXNXNXbXzXbXSXSXHXNXbXzXNXNXCXNXCXCX",
"CXzXNXNXCXNXNXCXSXLXJXSXSXSXHXSXNXSXJXzXNXSXSXHXSXNXCXNXbXSXSXNXNX&._ R R U x x x ) q # w + # O . O = q B / ! ~ W W ~ ~ ~ ~ { ~ W x ~ ~ x ~ / / / / ( ( / / ^ `   * /   $ Z h.f.Z Z _ T _ @.JXHXNXNXJXSXCXNXSXSXHXSXNXSXgXNXNXSXNXNXSXSXNXCXNXHXJXJXLXgXaXSXbXSX",
"SXbXHXJXLXJXJXLXJXNXLXHXHXJXHXSXbXjXNXSXSXHXSXSXNXSXSXHXbXbXSXJXJX+.U U Q x k k j z r r E q p z W Q E u W / / / ! ! ! ~ / ( / / ~ ~ ~ ~ ~ ~ ) / ^ ! ! ! ! / / B . * N O = $ B ` ( R T Y Y / AXxXzXgXCXSXNXNXJXHXSXNXSXSXbXSXNXNXHXJXJXbXSXSXgXNXSXNXbXkXSXCXSXHX",
"NXJXHXLXSXNXbXSXSXNXSXNXSXSXJXJXjXkXzXkXSXSXHXNXbXbXNXkXNXNXNXzXNX{ l x Q ! ! L W V P e e e u / ( / / ( / / / ~ U U ( ) ! P Q U / ~ ~ ~ ( W V Q ~ ~ E k y P K + w O O # . # 9 p i Y Y Y Y / mXxXfXfXbXJXNXNXLXJXSXSXbXNXSXSXSXSXbXSXLXSXbXfXaXbXkXzXbXbXbXNXbXSX",
"CXLXHXJXSXxXgXzXJXxXxXSXjXjXzXbXaXjXzXzXzXLXJXzXjXzXNXNXHXHXSXbXzX~ l l I R R R R ( ^ u Z Z B ( ! ! ! / L P E P P y w % O + t L K K E ! / V i ~ ! R L K k k t . . . O + . w k t V L Y Y Y ^ zXNXNXbXbXJXJXHXJXSXJXJXNXSXzXSXJXbXbXzXNXzXfXaXNXNXgXJXSXzXbXHXNXjX",
"SXbXNXNXzXaXbXLXJXCXbXbXkXaXgXgXkXzXSXSXgXCXNXHXxXNXLXLXCXNXCXCXCX] U K I R R Y Y R ` B q V e B / ~ Q ! E y y y t % + . O % r t y k L L K ! / / / U U Q E k U z = r % r u V Y R L L L L L / NXNXJXSXSXLXJXNXzXbXJXLXSXNXCXSXJXNXSXNXNXbXbXHXSXJXNXLXSXzXSXCXJXbX",
"NXxXCXSXzXbXCXSXSXJXSXHXCXzXkXNXJXJXSXSXgXzXSXJXNXzXLXNXzXgXNXbXSX[ I I L Y Y Y Y R _ B e q $ e / ! ! Q I K k k y y t y y y y k K I I K P P K U / Y P E K Q i z ) j % u z U L L Y T Y Y Y ^ SXNXNXkXzXSXSXNXHXJXbXkXNXNXSXNXSXSXSXNXzXHXSXNXNXNXHXNXxXbXNXNXSXNX",
"JXHXSXHXHXHXJXLXLXSXNXHXCXCXzXjXkXSXJXNXSXNXSXSXNXbXHXSXSXNXbXNXSX[ I I L L Y Y Y Y _ _ T V P / E ! ! K K K j k j j l l l I I K P y y y y y j I / T e U I ~ e r U k y t i I K P Z T T T T ^ zXzXNXbXjXzXSXSXzXSXjXzXSXNXCXJXSXNXJXCXgXbXJXJXzXgXzXNXSXNXbXLXJXJX",
"SXSXHXSXbXJXJXSXSXSXCXJXHXSXHXkXgXSXJXJXSXSXNXHXSXHXSXSXSXSXSXNXxX[ I I L L L Y Y T _ _ R R U R U K I I K j k k y k y t t t t r % % r y k j k E K W R U U I Q ! L K U k P L Y Z C T T Y Y ^ zXbXNXbXSXNXCXSXSXSXxXbXSXNXbXNXHXSXNXbXSXSXxXzXkXbXHXJXJXbXNXkXkXxX",
"SXJXSXNXxXbXbXSXSXSXjXbXHXSXSXSXfXzXSXNXbXSXSXCXHXJXJXSXbXSXLXSXNX' I L L L Y Y Y Y T Y L L K j j l l I I j k y y y t r r r % % r t y j x x x E E K I L L K K K K U i K Y T T T Y Y Y Y Y ^ JXNXSXLXJXSXNXgXNXkXbXjXzXbXkXzXHXSXzXNXbXzXbXkXzXNXHXNXzXSXHXSXNXbX",
"zXjXbXjXzXbXjXSXNXSXbXzXSXJXJXJXzXzXbXNXNXHXJXbXSXJXHXSXSXbXNXCXHXD I L L L L L L k j j j l k y y j j j j j k k k y y y t t t y j l x j j j x Q Q I I K k k K K L C ^ C Y T L K K L L Y Y ^ zXkXbXSXSXNXjXkXbXxXNXNXSXzXbXNXJXSXbXzXbXjXjXJXSXJXzXgXNXJXHXHXNXzX",
"gXbXbXNXNXbXNXSXbXHXJXCXHXJXSXSXSXSXbXSXLXJXLXNXaXxXCXSXJXzXbXbXNXD I K P j k j K j j j k k k k y k l k k k k k k k k k k j l l l j j k k j x x l x l l l j j K Y T Z B T L L L Y Y T T T _ gXbXNXSXbXNXNXSXJXCXNXSXNXkXbXbXSXgXjXgXkXNXxXHXJXSXSXHXSXSXNXNXNXbX",
"xXNXSXJXHXHXSXJXHXNXSXJXJXbXSXSXJXJXSXSXSXNXHXNXNXSXSXSXSXxXbXxXgXf l P k j j K Y K j j k y k k i z l x j k j j l x x Q Q Q Q ! E E E E E E E E x x j j j k j j K U T B T L Y Z T Z Z Z T _ VXSXLXHXSXzXbXzXHXJXzXzXNXNXbXzXNXzXgXzXsXNXzXzXCXJXJXHXzXSXSXzXbXNX",
"CXbXxXbXSXSXbXgXSXHXJXLXHXzXNXSXHXSXzXNXSXSXSXbXSXHXSXSXzXxXbXzXxXu U K j j K K L L E E E E K U V i I Q Q I I I I Q Q I Q Q I ! ! W ! ! Q E E x j j j j j j k j K V L P L L Y T C T Z T T *.JXSXHXSXSXCXNXbXNXCXfXfXfXjXNXJXJXJXNXSXSXSXNXSXbXNXSXSXbXNXSXSXJXJX",
"JXSXkXxXNXLXNXbXHXCXHXSXSXNXbXNXHXHXCXHXJXSXSXCXSXSXxXzXSXNXCXSXNXw l k k j P P z j K E E E E R Y t K Q x Q I Q Q j l l j z z z z z z z x j z z j x I I I l x l U B t U L L L Y T T L K P ^ SXSXNXSXNXSXNXSXNXHXNXkXaXzXbXNXCXSXNXSXSXxXSXCXbXfXxXNXNXCXSXSXNXHX",
"JXLXJXSXNXzXNXSXSXNXSXHXSXHXCXSXCXzXbXzXJXxXbXkXjXCXNXbXNXbXbXNXSXA c i z z W z z z i W ' ' ' W ! C V x z W z W W W W W W W ' z z z z z z W W z ' W W ~ W W W ~ E W W ~ z W W W E E E z W [ jXbXbXbXNXJXNXNXzXzXSXNXzXNXfXbXNXzXbXNXjXNXSXSXNXzXjXSXHXHXSXHXHXbX",
"JXJXSXJXHXNXzXzXjXbXHXJXNXNXbXxXSXzXNXaXgXxXNXgXjXHXLXSXNXNXzXSXJXzXNXVXSXkXbXzXNXbXHXJXSXJXJXNXzXSXNXNXkXNXSXSXHXHXSXSXJXNXNXCXSXNXNXkXzXgXzXzXNXHXSXjXzXNXNXNXSXNXNXzXjXbXzXzXHXbXSXbXSXJXzXbXNXSXJXNXbXbXgXzXNXgXjXbXjXSXSXjXzXNXNXNXSXNXNXSXJXLXJXSXSXHXSXNX",
"SXxXHXSXNXNXbXNXbXzXSXSXHXxXgXjXjXjXJXbXfXbXJXJXNXNXJXHXNXSXbXzXSXmXNXbXbXbXNXzXSXSXbXJXNXSXSXNXbXbXxXNXHXSXSXNXgXNXNXNXbXNXbXNXjXgXxXSXNXNXjXzXNXbXNXSXNXjXgXSXJXSXJXJXNXzXzXNXbXbXjXNXSXSXSXbXjXbXSXSXzXgXkXLXJXJXjXkXJXHXJXbXCXJXSXxXNXbXSXSXLXLXJXJXHXSXSXSX",
"kXHXHXNXbXSXSXbXSXSXNXNXSXbXaXSXbXNXbXSXHXJXSXxXSXSXSXSXSXJXNXbXNXbXzXbXNXJXJXxXSXHXHXJXxXNXSXSXNXzXHXJXSXNXJXjXjXNXJXJXSXgXbXbXzXNXmXNXSXHXNXHXHXjXfXNXNXNXbXNXzXJXJXNXSXJXxXNXNXSXgXxXCXJXCXNXgXzXSXNXNXCXSXHXSXJXzXgXjXbXSXCXNXzXNXSXHXbXbXNXHXJXJXHXSXNXzXzX",
"NXJXbXSXbXSXNXHXJXHXNXSXzXNXkXzXLXSXJXNXbXLXJXSXzXNXSXCXCXHXSXbXbXNXzXNXSXHXHXSXJXSXSXNXbXxXLXJXJXJXHXxXzXHXHXNXbXNXbXLXSXkXJXSXSXSXVXLXCXkXNXHXSXNXjXfXgXzXNXCXNXxXNXNXbXxXxXSXbXbXbXbXbXCXNXNXbXSXSXSXzXNXSXNXSXCXbXCXfXsXgXNXNXzXNXHXSXHXNXHXSXSXNXSXNXSXxXfX",
"SXJXjXzXSXkXbXJXJXJXSXNXNXNXbXgXSXbXNXNXNXNXLXLXbXCXSXbXNXJXHXJXLXHXHXNXNXHXJXSXJXJXCXSXSXSXSXJXJXNXNXzXNXJXHXzXzXgXzXbXNXNXHXSXNXzXJXLXSXbXJXJXJXSXSXbXNXjXxXNXJXzXNXHXCXNXSXLXLXJXbXSXHXHXJXSXJXSXSXbXNXJXCXNXSXJXSXNXbXzXfXjXzXzXbXzXSXSXNXSXNXJXNXbXbXNXHXzX",
"bXkXfXNXNXzXNXSXSXNXNXNXCXCXbXNXCXNXCXzXzXxXSXJXNXxXHXNXHXSXbXNXNXSXSXbXbXCXHXNXNXNXzXSXSXHXSXNXSXSXJXjXNXJXSXbXzXjXxXCXSXLXSXxXbXzXNXNXbXzXSXSXSXJXNXNXHXSXSXSXJXNXNXSXNXSXbXNXNXzXSXJXJXJXSXCXJXLXJXSXzXfXkXNXgXxXNXSXSXJXSXbXHXbXbXzXbXbXSXCXSXNXxXNXHXHXzXbX",
"JXNXjXCXjXzXNXSXSXNXbXSXSXJXSXJXJXSXSXNXaXCXLXLXHXNXbXzXSXbXNXNXNXNXNXNXNXSXSXSXSXNXbXSXSXNXbXbXbXNXSXbXfXzXNXSXHXSXJXLXNXzXCXCXNXNXkXzXzXNXHXHXNXSXHXNXSXHXNXSXNXSXJXJXNXHXHXzXfXgXjXNXzXbXNXHXHXJXzXSXJXNXHXNXgXgXzXxXNXJXNXNXSXJXSXNXCXbXbXjXzXbXxXbXbXbXNXNX",
"SXSXJXJXNXJXJXbXzXCXzXNXNXNXCXbXLXLXNXbXgXbXSXSXHXHXbXbXSXSXSXNXbXSXbXSXHXNXbXNXSXSXSXbXJXjXzXSXHXJXSXzXxXzXzXbXCXSXSXJXSXNXbXbXSXSXSXbXjXbXbXSXCXHXbXjXgXbXNXbXbXbXHXJXHXzXgXgXNXbXSXLXJXNXzXzXNXHXNXSXJXSXNXLXLXNXbXNXNXNXNXSXJXHXNXSXNXzXjXbXbXzXSXSXNXSXSXCX",
"kXzXNXJXNXSXNXbXbXzXbXHXSXbXbXzXSXLXJXSXgXzXNXSXSXNXzXNXJXJXCXgXbXJXNXHXSXNXzXHXSXzXJXzXSXNXNXJXSXHXJXgXNXHXJXHXJXSXSXNXxXSXNXSXHXJXJXSXNXzXzXNXNXbXjXjXzXzXbXHXJXSXNXCXzXkXkXbXbXSXSXSXLXJXSXJXLXxXbXgXfXbXgXNXJXCXbXSXHXbXNXbXJXHXSXNXNXNXzXJXNXNXbXbXHXSXSXHX",
"bXxXNXNXbXNXNXjXSXJXjXSXLXJXbXsXfXSXJXSXkXSXHXSXNXzXzXSXSXSXSXkXfXSXbXNXJXHXSXbXJXxXNXjXCXJXSXHXNXzXNXzXjXNXSXJXSXzXJXbXgXNXSXHXHXCXJXSXSXbXbXkXjXgXzXbXJXCXNXLXLXLXJXSXNXNXbXbXbXSXSXSXSXxXJXNXbXzXkXaXjXNXbXzXNXbXgXbXbXbXJXxXNXzXSXxXzXNXSXHXHXNXzXgXSXJXSXNX",
"NXzXzXNXSXJXHXSXSXHXNXjXbXNXSXSXSXSXSXSXbXxXSXCXHXHXJXSXNXbXSXNXbXxXkXxXSXjXSXNXbXzXbXbXjXJXSXCXNXNXNXNXSXxXzXSXzXjXSXzXsXkXNXbXbXjXzXSXSXbXzXNXNXbXSXJXSXCXzXzXNXLXJXzXbXHXgXzXxXSXSXCXxXzXJXgXfXNXNXNXCXNXSXCXNXjXxXNXfXbXHXxXbXSXSXbXNXbXfXjXSXSXNXbXHXHXSXSX",
"zXNXSXHXJXJXbXSXSXbXzXfXbXHXJXJXSXJXHXJXHXSXNXCXNXNXCXSXSXbXbXNXkXbXSXSXJXkXCXHXSXSXSXSXSXSXHXJXCXHXSXzXbXjXbXSXbXgXbXxXHXSXzXxXkXxXzXNXNXNXbXSXSXfXNXSXSXNXzXzXbXCXbXgXkXjXzXJXJXHXCXNXjXzXSXzXzXzXSXJXzXSXSXNXSXSXJXbXbXCXSXSXSXSXSXSXSXaXdXfXbXNXjXNXSXSXNXCX",
"SXJXJXHXLXCXaXzXbXgXaXkXSXSXbXSXbXNXJXJXHXSXHXSXCXCXLXSXJXSXzXNXNXzXCXNXSXSXSXNXSXSXbXbXNXNXJXHXbXjXbXbXgXfXgXgXkXzXbXNXNXNXbXCXNXSXjXNXHXCXNXSXSXjXzXNXNXzXNXNXNXbXzXjXzXbXSXNXCXNXNXzXbXbXNXjXzXSXNXbXbXCXNXNXSXHXLXNXHXJXSXHXNXNXNXNXCXNXgXaXbXSXxXbXNXNXSXNX",
"NXbXNXSXHXgXfXzXNXNXNXfXgXkXNXNXxXzXSXNXSXzXzXxXzXzXNXNXNXNXSXCXSXHXCXNXSXNXNXNXHXCXJXJXjXSXHXHXNXSXjXxXbXgXjXgXbXSXJXNXbXNXSXxXCXbXkXfXfXbXSXSXSXNXxXHXCXbXbXNXSXzXNXSXSXJXNXbXbXNXfXaXjXzXNXNXSXJXbXNXkXNXSXbXNXJXLXJXJXJXJXHXLXSXHXSXNXxXjXCXJXSXCXNXNXSXSXSX",
"bXgXzXNXxXzXSXSXxXbXNXkXbXjXbXzXkXbXHXbXSXbXjXkXgXJXSXzXNXHXCXCXNXzXCXSXSXzXjXNXJXSXHXbXjXJXJXJXSXHXSXbXbXNXzXxXjXNXJXSXNXSXSXSXNXbXbXzXgXNXSXNXNXCXSXSXSXNXjXfXzXbXSXNXNXHXSXHXHXNXbXbXCXNXSXbXzXNXNXNXJXJXCXSXLXJXSXbXNXHXNXbXJXHXJXLXJXSXSXSXSXJXSXCXCXbXNXSX",
"SXNXbXbXNXjXzXkXjXzXSXHXNXbXSXSXNXHXNXNXNXNXbXNXbXJXJXzXNXHXNXbXHXNXfXgXbXzXNXbXNXbXbXjXNXSXSXHXSXJXSXSXSXJXNXxXSXzXbXgXzXNXbXbXbXbXSXxXjXbXbXNXNXSXSXSXSXSXJXbXjXbXNXNXNXHXSXCXHXCXNXbXSXJXHXNXbXzXNXNXJXJXHXSXHXSXxXzXjXzXSXSXNXSXSXJXbXNXLXJXSXNXCXNXSXNXbXSX",
"JXJXLXJXNXzXzXzXbXNXSXNXNXSXSXSXCXNXSXzXbXzXNXxXbXbXSXJXSXHXHXbXjXzXgXfXzXbXHXNXxXNXSXSXSXHXSXSXSXNXzXNXSXLXJXSXNXNXzXzXNXSXbXNXNXbXbXbXJXHXHXSXSXNXNXSXbXzXLXSXJXLXLXJXNXSXNXxXCXNXJXNXNXJXSXbXzXbXHXNXNXSXSXSXHXHXbXzXfXbXbXCXbXfXHXjXgXNXbXzXJXNXNXSXNXSXNXSX",
"SXbXkXbXzXbXaXbXCXbXHXkXxXSXxXNXgXfXNXJXJXJXbXbXjXzXSXSXNXSXJXSXzXjXzXaXkXNXNXNXNXbXbXzXbXCXJXHXSXjXSXbXNXNXHXNXSXNXNXJXSXSXxXxXHXHXxXgXJXLXjXjXHXJXbXNXSXSXHXbXSXJXJXJXSXzXzXbXNXfXCXSXJXJXSXSXSXNXSXbXzXbXbXaXzXJXNXzXgXSXzXSXNXbXNXzXgXbXSXjXHXSXCXNXbXNXbXSX",
"SXbXNXSXHXHXbXJXNXNXSXbXgXbXgXSXbXHXSXHXJXHXSXLXSXbXxXSXbXNXxXNXJXSXNXfXbXCXxXzXSXbXbXzXbXSXHXbXjXkXNXNXNXHXHXbXNXNXbXSXJXJXSXCXNXNXzXzXNXzXjXSXHXNXgXSXHXLXSXSXNXbXNXJXLXJXSXJXNXgXbXzXzXbXNXNXJXSXSXkXSXzXkXkXHXJXSXSXbXSXbXSXHXHXNXSXSXxXSXNXSXSXNXNXxXHXSXNX",
"SXSXHXHXJXSXNXNXbXSXHXHXjXkXjXNXbXbXSXSXNXNXJXJXSXNXSXbXNXJXSXSXJXLXJXCXzXjXgXNXJXCXSXbXbXNXSXHXzXSXSXNXNXzXfXgXgXaXjXCXSXSXNXSXJXJXzXzXNXzXNXHXSXSXJXHXNXCXNXSXHXCXxXkXbXJXHXSXxXbXJXSXHXbXbXHXCXNXJXNXSXbXNXJXJXHXJXJXCXNXbXSXkXNXHXSXzXbXSXJXJXJXHXNXkXHXLXJX",
"NXNXNXzXSXHXzXbXHXJXJXSXNXzXkXzXzXbXbXNXbXgXbXJXJXJXSXNXxXSXLXJXSXNXNXSXNXbXNXNXNXgXzXJXNXNXSXNXbXSXSXNXSXzXxXNXkXjXbXSXSXzXSXSXHXSXNXxXSXNXbXzXzXzXbXSXSXzXNXJXLXSXzXgXjXNXNXNXkXNXNXHXJXNXNXNXkXNXSXbXNXNXSXHXNXSXJXSXSXSXNXNXxXCXxXjXNXJXSXHXLXJXJXNXzXSXHXSX",
"NXNXNXbXSXSXSXSXNXSXJXJXbXaXNXNXSXNXkXbXNXxXxXNXNXSXzXbXNXSXSXJXNXbXHXJXSXkXSXSXjXaXxXHXbXzXSXNXNXSXNXNXzXzXSXJXJXSXSXLXbXjXSXNXjXSXSXNXNXNXbXzXkXNXaXNXJXNXNXSXbXzXSXbXNXzXbXbXzXbXzXxXSXJXNXxXbXNXJXzXCXSXSXNXSXJXNXNXHXNXSXSXSXSXzXjXSXSXJXLXLXJXNXHXCXNXNXbX",
"HXJXNXNXNXzXNXJXSXHXJXSXzXzXHXSXSXNXjXkXgXbXCXHXJXHXJXNXbXbXbXbXbXCXSXJXHXNXfXNXSXNXNXbXNXbXjXzXzXzXSXzXzXbXbXbXCXSXJXJXCXkXNXNXHXbXSXSXbXNXbXHXbXSXHXJXSXNXNXJXzXjXNXNXJXSXSXCXaXbXNXkXkXNXNXSXNXgXNXNXHXLXSXCXNXNXbXSXSXNXbXSXSXSXJXSXbXNXNXCXNXSXNXSXJXSXbXzX",
"NXNXNXNXNXzXNXSXzXzXNXjXjXSXLXJXLXzXzXNXSXJXHXJXJXHXJXNXNXjXbXzXNXzXSXSXNXNXNXxXNXzXNXzXjXzXsXgXjXNXNXSXLXSXbXaXgXSXHXSXHXSXSXSXHXjXzXgXgXgXbXSXJXHXNXNXSXHXJXHXNXNXzXCXNXbXCXSXzXSXxXbXNXJXCXNXHXSXbXNXJXzXjXSXSXSXNXCXSXNXNXSXSXSXJXSXLXSXNXSXNXjXbXCXNXSXzXjX",
"SXHXJXLXNXNXNXNXNXNXbXNXjXLXLXSXHXjXkXNXNXNXSXSXHXJXSXHXLXSXHXCXNXbXxXNXHXNXbXSXJXNXSXzXgXbXNXSXJXJXSXJXLXSXNXNXjXSXbXbXNXNXNXNXNXbXHXSXLXLXSXzXbXNXbXbXNXCXbXbXNXHXbXCXbXNXNXSXSXSXNXbXNXSXHXSXNXHXNXSXJXgXbXNXJXHXHXJXHXNXLXHXSXSXSXCXNXHXSXLXJXNXSXSXCXzXzXkX",
"SXJXHXLXbXgXJXHXSXHXJXNXbXNXbXbXbXCXbXSXNXCXSXNXSXSXSXNXLXHXNXJXNXNXNXNXNXbXbXHXJXJXJXbXkXNXxXfXbXNXjXbXHXHXHXJXzXbXCXzXjXzXzXNXSXkXjXJXJXNXJXxXjXSXSXNXjXgXNXCXSXNXJXSXSXbXbXbXbXbXNXSXHXjXjXNXNXbXNXbXbXNXzXSXbXxXNXNXLXzXNXzXNXxXbXzXfXzXxXHXSXNXHXSXkXzXbXbX",
"SXSXNXSXJXjXNXSXNXSXCXjXjXCXbXNXSXSXSXNXzXjXSXNXzXSXNXzXSXNXNXbXSXSXLXHXHXSXSXNXSXSXSXbXzXNXbXzXNXJXfXgXzXNXCXHXbXkXHXbXbXSXSXNXSXNXzXSXbXkXNXNXNXNXHXJXHXbXSXNXkXNXNXSXHXJXLXHXxXgXNXNXzXSXSXNXSXSXHXHXSXSXbXNXSXNXzXzXSXzXgXSXJXJXNXzXSXNXgXzXbXbXNXxXfXSXSXHX",
"NXSXSXCXbXzXNXCXxXNXzXjXzXzXjXbXSXNXNXNXaXzXHXJXJXCXzXbXzXjXbXzXxXSXSXNXNXNXbXCXJXJXSXSXJXJXLXLXJXSXbXNXbXNXJXSXCXzXSXJXJXJXNXNXNXSXSXCXzXjXbXbXSXjXgXCXJXSXSXSXbXNXbXNXbXSXJXSXNXbXSXNXfXzXxXbXzXkXbXSXSXSXNXSXHXSXxXNXNXNXSXbXzXHXkXJXLXSXkXbXbXNXHXSXzXSXLXLX",
"HXJXLXLXSXJXNXNXJXSXHXjXjXbXNXNXSXNXzXgXjXbXNXNXSXbXNXxXbXNXNXbXNXNXSXxXbXbXNXSXJXHXNXfXjXHXSXSXCXSXNXNXJXJXHXJXSXzXJXSXJXNXHXCXJXHXSXJXHXJXJXJXHXSXaXkXLXSXbXNXNXHXNXSXbXbXbXbXSXSXJXSXNXNXNXSXNXgXNXCXSXNXNXSXJXJXJXHXNXJXSXJXSXNXfXHXHXbXNXLXJXJXJXJXJXHXSXSX",
"NXNXNXSXSXNXSXSXJXLXLXSXSXNXbXNXbXHXJXSXSXSXSXbXCXHXSXNXNXJXJXSXNXkXCXHXSXkXbXNXSXNXHXzXbXSXzXCXSXbXkXNXbXNXNXNXzXzXNXNXbXgXSXbXHXNXSXJXLXJXJXSXJXxXaXSXSXCXgXbXxXSXCXJXbXNXSXzXzXSXHXJXLXJXLXJXLXJXCXJXJXNXSXNXSXHXJXHXJXJXSXSXJXSXjXjXSXNXSXJXJXLXLXJXJXSXSXbX",
"SXNXkXbXbXbXJXzXSXHXbXzXjXSXCXNXNXSXSXSXJXLXJXHXLXLXHXzXNXHXJXLXHXNXbXJXLXJXHXzXCXNXCXSXJXCXSXSXSXCXbXNXSXbXbXzXbXzXNXNXgXzXjXfXbXSXSXxXJXHXNXNXHXNXJXSXSXNXbXgXxXSXNXHXHXSXNXbXzXjXNXbXCXNXNXbXNXNXbXSXSXbXNXNXSXzXzXSXCXSXHXSXJXSXSXbXbXNXSXSXCXJXJXHXHXCXNXSX",
"SXSXzXjXkXNXNXNXNXNXbXSXHXSXSXJXHXJXHXCXSXJXJXHXJXHXzXSXHXNXNXbXNXCXJXJXHXJXSXSXNXSXNXzXSXCXCXHXSXJXJXNXbXbXNXgXxXzXxXNXzXHXsXfXzXNXbXjXjXgXjXkXbXJXSXSXJXSXJXHXNXzXNXbXbXSXCXbXSXSXNXNXNXbXNXSXSXHXHXSXbXzXxXHXSXbXSXNXjXbXJXJXJXLXLXJXzXbXNXHXxXSXSXNXJXCXkXzX",
"HXzXjXbXgXzXSXjXgXCXSXSXJXxXSXCXSXHXJXkXSXJXJXCXSXNXJXJXSXNXNXNXNXNXNXjXjXNXNXSXCXSXCXSXbXNXbXbXNXSXSXNXbXHXHXNXgXgXHXSXbXNXbXxXjXgXzXSXSXxXfXfXgXNXHXSXNXzXCXSXJXSXJXNXJXJXHXJXHXLXHXNXNXbXSXJXJXHXJXHXSXSXSXxXbXNXkXzXNXNXCXCXSXSXSXNXNXNXSXHXSXSXNXbXSXSXNXjX",
"NXJXLXJXJXbXNXNXbXNXJXJXJXSXHXLXJXSXSXSXSXHXJXNXNXJXHXJXJXJXLXJXJXJXSXbXbXNXNXSXxXSXJXJXJXbXNXxXzXNXCXNXbXHXJXLXJXSXHXSXJXJXHXHXbXbXgXbXHXLXJXSXgXNXSXzXgXzXzXSXJXCXNXSXHXNXNXbXCXSXzXgXbXSXNXLXJXHXJXHXSXSXSXjXNXLXNXgXSXJXJXJXJXSXSXNXSXNXCXSXbXSXJXJXJXCXbXNX"
};
