/* XPM */
static char *result[] = {
/* columns rows colors chars-per-pixel */
"128 128 107 2 ",
"   c #090A0D",
".  c #0E0E11",
"X  c #100F12",
"o  c #0F1013",
"O  c #121214",
"+  c #181716",
"@  c #161619",
"#  c #18171B",
"$  c #17181A",
"%  c #1A1A1C",
"&  c #201F1F",
"*  c #22211F",
"=  c #1D1E22",
"-  c #211F23",
";  c #1F2023",
":  c #232325",
">  c #292625",
",  c #262827",
"<  c #2A2926",
"1  c #242529",
"2  c #28272A",
"3  c #27282C",
"4  c #2B2B2C",
"5  c #312E2D",
"6  c #32312E",
"7  c #39332E",
"8  c #2E2E31",
"9  c #302F32",
"0  c #2F3031",
"q  c #333333",
"w  c #393634",
"e  c #373835",
"r  c #3A3936",
"t  c #363638",
"y  c #3A3738",
"u  c #3D3C3A",
"i  c #423D36",
"p  c #413E3C",
"a  c #43413E",
"s  c #49453E",
"d  c #4D483F",
"f  c #464541",
"g  c #494742",
"h  c #4C4A45",
"j  c #4E4D49",
"k  c #504641",
"l  c #524D46",
"z  c #524E49",
"x  c #555047",
"c  c #55524C",
"v  c #5A554D",
"b  c #5D584E",
"n  c #575650",
"m  c #5A5650",
"M  c #5D5952",
"N  c #5E5D59",
"B  c #615A4E",
"V  c #625D54",
"C  c #695F55",
"Z  c #635F58",
"A  c #656056",
"S  c #696156",
"D  c #666159",
"F  c #6B655B",
"G  c #6E695D",
"H  c #71675C",
"J  c #716B5E",
"K  c #6D6761",
"L  c #6F6961",
"P  c #736D62",
"I  c #786F62",
"U  c #767064",
"Y  c #7B7365",
"T  c #777168",
"R  c #7D7669",
"E  c #7E786B",
"W  c #817666",
"Q  c #827867",
"!  c #807769",
"~  c #847B6C",
"^  c #897E6E",
"/  c #857E71",
"(  c #897F71",
")  c #87806F",
"_  c #8B806F",
"`  c #868073",
"'  c #8C8273",
"]  c #918675",
"[  c #928876",
"{  c #918778",
"}  c #958A79",
"|  c #998D7C",
" . c #9C917F",
".. c #9E9281",
"X. c #A29684",
"o. c #A49886",
"O. c #A69C89",
"+. c #A99E8C",
"@. c #ACA18E",
"#. c #AEA291",
"$. c #B3A692",
"%. c #B6A995",
"&. c #B9AB97",
"*. c #BBAE9A",
"=. c #BEB29E",
"-. c #BFB3A0",
";. c #C0B39F",
/* pixels */
"                                                                                                                                                          o .   . .   .     .     .                                                                             ",
"  < u u r r 7 7 7 w w r r r 7 w w 7 6 7 w 7 r i 6   > 7 7 7 7 6 7 5 5 7 7 5 6 7 6 6 6 6 6 7 6 5 6 6 + + * * * * * * * > > * * * > * * > > * * < > > * * * * < * * * * * * * * * * * * * * * * * * * * * + . * < < 5 < < < < < 5 < < < < < < < < < < < < < < &   ",
"  5 g l l j h d g g g s d d d s s s s s s s h j w O 7 l d d d d g g g k s s s d s s s s k s g l d l & + x k l d d a a i r w 7 7 6 7 6 6 6 5 6 7 6 7 6 * 7 7 7 7 6 7 5 5 6 5 < 5 5 * < 6 * < < < < * < < + + d d p p p p i i i i i i i i i i i i a i i i i s 7   ",
"  5 g c v v x x x x j x x x x l h x d l l l c c u + r x l l h h j k k k d k k k d l d l l l l z x b > * v x l l d d d d d d d d d l d d l l x x B B B i C B B v x d d h d d d s s a s s a a a i s a i i * * B d x l x k x d k l l k d d d d d h d d d l d x w   ",
"  8 g c M M v v m c x m b c c c x x x x c c n n p # u v x l l l z z k k k j k k h d h l z z z x v m 4 5 c l x z l l l l l l x c v v b b V V A F P R T x Q Y J F A A M N b b b v v d x x c x x x z z l v 5 < v x c z z z z j j k k l l k l h l k l h l l l x i   ",
"  < g n M V m m M b M m n v v v v v c c c c n M a # u n c c l l z z z z j z z z l l l z l l z c v m 9 w b v v c c c v x v c v v b b N D D F K L P E R n ^ Y U P L G D A A A M b A B b m b b c c v v v m 7 5 M v c c z z k z k k l l k j l l z z l z l c x b p   ",
"  1 f v M N N m n n m m b n n v v m v n n n c M f # u m c z x z c z z c z j z z x c z z c z c v m Z q t M m v v m v v v v M m M B V D D F K L P T / E M ` E Y P L L G D A D D N B M b b M b n m v v m m w 9 M m m z z z z z z z l l z z z z z z z l z c c c a   ",
"  2 h v m M M M n m m m M b b n v m v v n n c Z f # u v c x c c z z c z z z z z x c z c v c c v n N q w M m m v m m m M M M M V A A D F G G P T T / E M ` / T T L K G F D D N D A V V V M M b M v n n m w q N m m z c m c c c z l x z z z z z z z c z z c m p   ",
"  < h z m m B m n M m n b n b b v v n n c n z N f # p n z c z j z z z z z z z z z c c c v z v n n N 9 y M M m m m M M M V V Z N N K K N K K T T E / R n / / T T L L K F D D D N V N V V N M M v m m V m w 8 N n n n z v c c c z z z z z j j j c z c z c c c a   ",
"  < h c n m m m n n n n v v n v v v v c n n n N f # p n c x z z z z n z z z z n c c c c c v v m n Z 9 w V m M M M M M Z N Z Z Z N N N K K K K T E / E n / / E T T L L K K D D D Z V Z N V M M M m B m m t 9 N m n n v n c c c c c c z z z c j c z z z z c n a   ",
"  2 h n c n n n n n n n n n n n v n v v c c j N f @ p n c c c c z n n z n z n z c c c c v c v n m N q t M m m V M M M Z Z N D D K N K K K K K T E / E n ` ` E T L L K K D D D N Z V V Z N M M m V m V m q 9 N m m m z n c c m z c z z n z z c j c j c x c n u   ",
"  4 h z n c n n n n n n n c n n v c c v v c c N f # a n c z c c z z z z z z z z c c c c c n m m m Z q t M M M M M M Z Z Z Z Z D N K N K K T T T E E T N ` ` T T T K K K K N D D D D Z V V V V M m m B m t q Z N m m n n m c c c z c z z n z n c z c c c c n a   ",
"  4 h c n c n c n c n n n n n c v c c c z n c N f # p n c c c z z c z z z z z c c c m c v n n m M Z 0 t M M M M Z M N Z Z D D D K N K K K T K T T ` T N / E T T L L L K D K D K D D N Z V N N V V m m m w 9 Z m m m n v v c m z c n z z c z z z c c z v c m u . ",
"  4 h c j n n c c n j n n j c n c c c c z n c n f # p n n c n c c c c z z c c c c c m c v v v m m Z q y V M m N N Z Z Z Z D D D N K K K K K T T T E T n ` T T T T L L K K D D D D D D D D V M N Z m V M 9 t D M m m v v v c c c c z n z z c z c c c c z c n u   ",
"  5 l z j c c c c c c n n n n c n j c c n z n M a # a n c n c c c c z z z c c c c c c m v n m m M Z q y M M M M V V Z Z D D D D D D K K K T K T T ` T n ` / T T T L L G K D F D Z K D D Z N A M V V m m w q Z M m v v v v c c c c c z n z z c c c c z v c m u   ",
"  5 h z z n c z z c n j n j j c j c n j z j n M p # a m c z n c z n n n z c c c c c c c v b m m V Z 9 w V M V V Z Z D D D F F K K K D K K K T T T ` T n E E T T L U L K K K D K F F D D D D A N M m Z m 9 w Z m m v m v c c c c n c c z c c c c c c n c c m u   ",
"+ e j j n j j n n j n j n x j n c c j c c n n M a $ a n c c c c c c n v z z c c c z n c v n b m M Z 0 r N M V V A D F D F D K D F K G K P P T T T E T n E E T T L L L L L K K G F F D D D D A A V V V M q t D M m v v n v v c v z c z c c c c c c c c c c m y X ",
"o , x j j n j x n n x n j j n n c c c c c x x M a % a n c c c c c c c c c n c n n c v m v v m m M D q r A M M N V D D D D D G G K G G L L P T P T E T n E T T T L T L P L K K F F G F D D D A N V V M M 0 t D M M m m v v n c x n c c c c c m c z c m c c m y . ",
"o 6 x n x n j n j n j n n x x j c j j c x c c M a $ f n v c c c c v v c c c c x z c v v m m m M M D q r M V V V D D D D G F G G G G J K L P L T T T L n E T T T T T K L P G G K G F F F F A A A V M N M 6 t D M M m v v v v c m c n c c c v c m c c c c c m p . ",
"o 6 j j n j n j n j n x j n n x c n x c n x n b a $ a n c m x m m x m v n c c c v v v n m m M m M D 0 r A M N N A F D D G K G G K K J P L L P T T E K c E T T T T L L L G J K K G F G F F D D A V Z V M q q D M M m n v v v v c c z c c c m c c c c c m c m y   ",
"o 6 x x n j n n n n j x c n n x c c c c c x n V a $ a m x c v c c c m c c c c b v c v v n v m M M D 0 r V V V A A F F F G G G G L G G L T P U U U E K c E U U U P P P J G G P K G G G F F F F A Z Z V M q t D M M m m v v v c c c c c c v c m c v c c c c m p   ",
"  6 x x x x j n j x j n n x n x c c x x x n x V a $ a m m v m c n c c c c b c c c v v v m m m Z M D 0 u N A A A D D F G F G G G J G P P U L P U U U G c R U U U U J U P P G J G G G F F F F A F V V Z V 4 e D V M M m v c m c v c m v v c v m c v c m c m m i   ",
"  6 j n n x x n j n x n n n n n n x x n c x n V a $ g m v c m v m m v c v v n c v m v m m m m m V D 8 u A V A A S F F F G G G G J P P G L P U U U U F c T U I U P P P G P G J G G G G G F F A A A V N M 0 e D A N m M m c b m c m c c c v v v c c v v c n m i   ",
"  0 n x x n n n x x x n x n x n c n n c n n b A a $ f m v v v v b v v v v v v v v n m m B B M V Z D 5 u A V A S F F F G G G J J G P P P P P P U T U F c U T U U P U P P L P J P J G G F G F F F D Z V V q e D M M M M M m m b m m c m m v v c m v v v v v m y   ",
"  e c v n v v x d n b x n n v v n b x b x b n A a @ g M v v v m n b n n n v n M M v n M M b V V N D 9 u D A A D F F G G G G J J P J P L U P Y Y P Y F x R P U U U U P J U J J J J G G G G A F G D V A V 8 e D M M M M M b b m m v M v v v M m v n m m m m B u   ",
"  6 x v v c v c b n x n x b v n n b x n b n b A p @ g M m M m M b N b b v v n b b b M M M M M b V D 4 p D A D F F F G G J J J J J P P P J P Y J U Y F c R U P U U P P P J P J J J J J G G F F A D D A A 6 e F V V M M M b b M n M m m v v v m v m m m n m B u   ",
"  6 x v v v v x n v v n x n v b b x b x n b b A a @ d V M M M M b n b b b M n M M v b M M V M A Z D 4 u D A D F F F F J G J J J G P P U P Y U Y U E G c R Y Y Y U U U I U J J J J J G J G F F F D D D A 5 t F Z M V V M M M b b v M m m m m M M m m V V m B u   ",
"  e v v v v v v x b n x b v v v v v b x b n b A a @ d M M M M M b N b M b M M M M M M M V M V A D D < p F D D F F G G J J J J P P P P P Y Y Y Y U ) F x ~ Y Y Y Y Y U P J P P J J J J J G G G F F D D D 6 t D Z N A b b M M M b M M M m M M M M B m m m B V p   ",
"  6 b x n v v v n n b b b b b n b b x b b b b A a @ d A M V b M B b b M M M M M M b M V V V V N D D < a F D D G G G G J J I J I U P U U Y Y Y Y R ) G d ) E Y R Y Y Y Y I P P P U P J P J J G F F A A A 5 w F A N A M V V b M b M M m M b M b M m V M V V V p   ",
"  e v n x b b b b n x b b M b b b n b b b V b G p + j A A b V V V V b M M M A M V V V M V N A A D D 5 a G F F G G G J J J I I I P U Y Y Y Y Y Y U ) G x ) E Y Y Y Y Y Y Y U I J U U U J P J F G G F F A 4 r G D A A A N M V V V M A M M M b m M V m V m V V y   ",
"  e b n x n x b n b n b b b b b b b b b B V B G a + j D V V V M M M M M M V M M M V V V A A A D D G < a J F F G J J U J U Y I I Y Y Y Y Y Y Q Q Y ) F x ) Q Y E Q Y Y Y Y Y Y I P Y I J P J G F G F G S 4 r K D D A A N V M V b V M A M V M b M V V V V Z Z p   ",
"  e b b b b b b b b b b b N N b b b b b B V M G a O j D A V V V V V M A M A A A V M V V A A D D F F < a J F G G J J J J J U Y Y Y Y Y Y Q Q Y E E ) F x _ Y Q Y Y Q Q Y Y Y Y P Y I J J P J J J G F G F 0 r L D A A A A A A V M V V A M V b V V V M V Z V C p   ",
"  e b b b b b b b b M V b b A b B B B B A A B J d + x A B A A B B b A A A A A N N A A A A A G G F G 3 a P G G G J U U J Y J b b d B B d d B C W _ _ H B _ W W W E R Q R R Y Y Y U U U P J J J G G G G F < e P F D D D A A A A N A N A N A b A A A M A A A A a   ",
"  e b b b b b N b b b b V V A A B B A B B A A J i + x A A A A A A A A A A A A A A A A A A G A A G G 3 a P G J J J U U F B x d d B d d B B d H _ Q [ H d _ ) W W Q ~ Q E Y Y Y Y Y Y U U P U U J G G J F 6 e U F D D G A A A A A A A V V A A A b A A A A A A a   ",
"  e b b b b b b N b V V A A A b A A A S A S S U a + x J A G A A A A A A A A A A A A A A A G G G G G < a P J J J U U b d b d d d d B d B B d H _ _ _ H d _ _ Q ) ) Q ) Q Q R W W R Y Y U U U U P J G J J < r U G D G G D D A A A D A A A A A A A A A A A A G a   ",
"  e A A A A A A A V A V A A A A A S S S S G G U a + x J A G A G G A A A A G A A A A G G G G G G U U , s Y J U J M d j x d x B B d x B d B B S _ _ _ H d _ _ ) _ Q ) Q E ) Q W Q ) R Y Y U U U U P P P J 6 r Y G G G G G G A F A D A F A A A A A A A A A A J a   ",
"  e A A A A A A A A A A A A G G S S S S S S S Y a + b J G J G A G G G G A G G G G G G G G U G G P P , d Y I S x j d d v x b d B B B x B B B I _ _ _ H x [ _ _ _ ) _ ) ^ _ ^ Q Q Y Y Q Y Y U Y U U U U J < u E J G P J J G G G D G G G A G A A G A G G G G J i   ",
"  i A A A A F A A G A A A G G G J S G S J J J Q a o x U G G G G G G G G G J G G G G G G U G G U Y Y , d F x x d x x x x d b B d B B B B x B W _ _ _ W B  .[ _ _ _ _ ) _ _ _ ) ^ ) ) ) Y R R R U Y U Y P < u ~ P J J J P G J J G G G J J G J G G G S G G G J a   ",
"  i G A F F G A G G G G G J J J J J J J J I J ) d o b U J J J G G G J J J U J U G U P P U U U U R Y * 7 x x d B n b b x B b b B B d B B B B Q _ [  .I B  .[ [ _ ] _ _ ' ' _ _ _ ) Q ) Y E Q R E E Y E U < u ) U U P U P J P P G J P P J J G G G J J J J J U i   ",
"  i G G G G G G G G G J J U J J I J J J I I J ) a + b E J U U U J U U U U U U U U U U U E U U U J b % 7 x v v x b d x v b B b b B B B B B B Q [ |  .W d  .| } [ [ [ _ ' [ ' _ _ _ ) ) ) ~ ~ ~ E ~ E Q Y < a ) U U U U U U U P U P P P P U P U P J J J U J Y a   ",
"o i J G J J J J G J J J U U J J I J I I I I I _ s o A Q U P U U U U U U U U U U U U U E U E A b v v + 7 b x b v v v b v B B B B B C B B B B ) [  . .Q b  . .} } [ [ _ [ [ [ ] ] ] ^ ^ ( ^ ^ / ~ ) E Q Y , a ] R Y U Y R U U U U U U U P U P U P U U U U U Q a   ",
"o d U J J U U U J U U U U Q Y Y I I I I I W Q _ s o C Q Y Y U U E U U E E E Y U E U U U U n x x b x % 7 b b x b v b b b H B B C B B S B S S ) [  . .Q B @. . .[ [ [ [ [ [ [ ] [ ] ( ] ^ ^ / ~ / ) ) ) Q , a [ E E Y R R R Y R U E U E E E E U Y U U U U U Q s   ",
"o d U U U U U U U U Q Q Y U Q Q W I Y Y W Y W _ d o S ) Y Y Y R E U E U U E E E E E U N b x n x b v + w V b b v v B C Y ] B B B C B S B S S ) [  .@.Y B @. . .|  .| [ [ [ [ ] ] ] ] ] ^ ' ^ / ^ ) ) ) E , a [ E ) E R E E Y R R Y Y Y Y U E Y U Q U Y Y Q Q a   ",
"  d Q U U U U U U Q Q U Q Q Q Q W W W W W Y W _ s . S _ Y Y R R Y E U E E ) E E E E E x x x x n B b + w B b b b B I ' _ } B S B C C S S S B _  . .@.Q A @. . .| | | [  . .[ [ ] [ ] ] ] ' ' ' ^ ` ) ) ~ , a | ~ E E E E E E E E E E E E U E Y E Q U Q Y Y ) a   ",
"  d Q U U E U U U Q Q E Q Q Q Q W W W Q Q Q E [ s o F ) R W Q E Q Q E E E ) E E E E E A b x n b B b + r B v b U ^ _ ' [ ] B A B S S S S B S _  .@.%.Y B &. . . . . . . .| | [ [ [ ] [ ] ] ( ] ( ' ) ` ) , a  .) ) ) ~ ~ E ~ / E E ) E E E E Q Q E Q Y Y Q ) a   ",
"  d E E Y Y E Q E Y Y Q Q Q Q Q ^ Q Q Q ) Q Q [ s o G _ E Q E W E E Q ) E E ) Q ) ) E J b b x b B b % w C G ) ' ) ' ] [ ] C A S S S S S S S [  . .&.) B ;.@.@. . . . . . .| |  .| [ [ ] ] ] ( ( ' ) ' E > s ..` ) E ` ~ ) / E ~ ) E E E E Q E E Q Y ) Q Q ) a   ",
"  d ) Q Q E Q Y E Q Q E ) Q ) Q Q Q ^ ^ Q ) Q [ s   G ] E E Q ~ ) E E ) ) E E E ) ) ) ) A b b b V b + a ) ' _ ] ' ' ] [ } C S S S S S S S J _  . .=.) B &.@. .@. . . . . . . .| | [ } ] ] ] ( ( ' ' ' ) , s ..` ) ) ) ) E / E ~ ~ E ) E ) E Q ) E E ) Q ) _ i   ",
"  d ) Q Q E E Q ) E ) Q ) Q ) ) ^ ^ Q ) ) Q ) [ s . G ] ~ ~ ~ ~ ) E Q ) ) E ) ) E ) ) ) J b b b V V * x | ' ] ] [ [ ] [ } S S S H S H H J J  . .@.&.Q S &.@.$. .@. . . . . . . .| | } ] ] } } } { ' { ) * s ..` ) ` ` ) ) ) ~ ~ ~ ~ ~ ) Q ) Q E ) ) E Q ) ) s   ",
"  d ) Q E E Q ~ Q ~ ~ Q ) ^ Q ) _ ^ ^ _ ^ Q _ [ s   J [ Q ^ ) ^ Q ) E Q ) ) ) E ~ ` ) ` ^ M M A E ` * c [ ' ] ] } } ] } | C S S H J H H G G _  .@.;.E A =.@.O.O.o.X.X.X.X.X.X. .| | | ( ( | | ( ] ] ' ~ : g ..' ' ' ) ` ` ^ ^ ~ ~ ~ ~ ) ~ E ~ ~ ~ / ~ ~ ) ] i   ",
"o d ) Q ~ ) ~ ~ Q Q ^ ^ ) ~ ^ ^ ^ ^ _ _ ^ ^ _ | s   J [ ^ ^ ~ ~ ) E ) Q ) ) ) ) ^ ` ` ^ ` I U ` | ' * v | ' ] [ { } } | | C S F H S J S S J [ @.@.;.) A =.$.@.O.+.o.X.X.X.X.X.X. .| | ..| ..( | [ ' [ ~ : h o.[ ` ' ' ' ^ / ` ^ ~ ) ~ ) ~ ~ ` ~ ~ ~ ~ ~ ) ' s   ",
"  x ' ~ Q Q ) ) ^ ^ ^ ) ) ^ _ _ ^ ^ _ _ ^ _ _ [ a X J ] ^ ~ ^ Q ) ) ) ) E E ) ) ^ / / ^ ' ' ` ' | ` * v | ] ] [ } } | | | S S H H H H H G J [ $.@.=.) F -.#.@.O.o.o.X.X.o.o.X...| | ..| | ( ..( [ ' ] ^ * h X.' ' ' ' ` ` ) / ` ) ) ) E ~ ^ ^ ^ ~ E ^ ~ ^ ] i   ",
"  d [ Q ~ ) Q ) ) Q Q Q ^ ^ _ _ ^ _ _ ^ _ ) _ | s X J ] Q ^ ~ ^ ) ) ) Q ) ) ) ) ^ ' / ' ' ' ' ' | ) * v } ' ' } { } } | | D S S H H H H J J [  .$.=.Q A -.#.@.O.+.o.X.o.X.o.X. .| | | | | ..( ..} ' [ Q * h X.] ' ' ' ' ` / ^ ' ) ) ) ~ ^ ^ ^ ) ` ~ ~ ) ^ ] i   ",
"  x _ Q ) ) ) ) ~ ~ ^ ^ ^ ^ _ ) ) ^ _ ) _ ^ _ | s   J ] ~ ^ ( ~ ) ) ) ) ) ) E ) ( ' ( ` ' ' ' ( | ( & B } ] ] ] ] { ] } ..C F F S H H S J J [ $.#.=.Q F -.#.#.@.o.+.X.X.X.X.X.X...| | | ( | ..( ] ' ] ~ * g X.' ' ' ` ' ' / ' ` ) ~ ` ) ) ) ^ ^ ^ ^ ^ ~ ^ ] i   ",
"  x _ Q Q Q ) Q Q ^ ^ ^ ^ ^ ^ ^ ^ Q ^ ^ ^ ^ _ [ a X I ] ^ ^ ^ ^ ) ) ) ~ ) ) ) ) / ( / ' ' ' ' ] | ( & v } ' ] ] } ] ] } | C C K H S H J J J  .*.#.=.Q S -.#.#.@.+.o.o.X.X.......| | | | ( { ( ..] ' ] ^ * j ..[ ' ' ' ` / ' ' / ` ~ ~ ` ) E ^ ) ^ ^ ^ ^ ^ ] i   ",
"  x _ Q Q Q Q ) ^ ^ ^ ^ Q ^ Q ^ Q ^ Q ^ Q ^ ^ [ a X H ] ~ ^ ^ ~ ) Q ~ ~ ) ) ) E ( ( / ` ' ' ' ] | ( & B } ] ' ] { { ] } | Z C C S H H J J J [  .@.=.E F =.@.@.@.+.+.o.X.X.X...| | | | | | ( | ( ] ' ] ~ * h ..{ { ' ' ` ( / ( / ) ~ ~ / E ~ ) ) ~ ^ ^ ^ ~ ] w   ",
"  x ) W Q Q Q Q Q Q Q Q Q ^ ^ ~ Q ^ ^ ^ ^ ^ _ [ s X H ^ ~ ^ ( ~ ^ Q ~ E E E ~ ) / / / / ' ' ( ] ../ & v } ' ( ' ( ] ] } | C C C S S S S H J [  .@.=.E F =.@.@.O.o.o.X... . .....| | | ( ( | ( ( ( ' ] ! = c O.{ ' ' ` { ( ( ~ ( ) ~ ~ ~ ~ ~ ~ ~ ~ ^ ^ ~ ~ ^ i   ",
"  x ^ W W W W W W W W W ~ ~ ^ ^ Q Q ^ Q Q ~ ^ } p X H _ E Q ^ ~ ~ ~ Q Q ~ ~ E ~ ~ / / / ( ' ( ] | ~ - b } ' ' ' ' { ] { } C C C C C K C C H ( +.@.&.E F *.@.o.o.X.........( ( X.| | } } ] { ( ] ] ( ] ! % l X.] ] ( ( ' ( / ^ ~ / ! / ! ! ~ ! ^ ~ ~ ~ ~ ~ ( i   ",
"  l W W Y W W W W Y Y W Q Q Q Q Q ^ Q Q ~ ~ ~ ] p X H _ Q ! E ~ Q ~ E ~ ~ ~ ! ~ ~ ~ / ~ / ( ( ' } ! = B [ / ( ( ' ' ( ] } C C C D C C F C H ( o.@.*.Y D =.@.o.o.......| ..X.| ..|  .( { ( ] ( ( ( ( ' ~ - l X.' ' ( ( ( ~ / ~ ~ ! / ! ! ~ ! ~ ~ W ~ ! ! ! ~ w   ",
". k W I Y I Y Y Y I I Y W Y Y W W W Q Y Y W Q ] p X H ^ Y ! ! ! E ! E R R R R R ! ! ~ ! ~ / ^ ( } ! % V { ~ ~ / ^ ( ( ( } C C C F S C F C K ( .. .&.Y D *.o. .X.....( ..( ..( X.} } { ( ( ( ( ( ^ ( ( ! & l | ( / ~ / ~ ~ ~ ! ~ ! E W E E R ! ! W ! W W ! ^ 7   ",
"  k W I J I J I J I I I I I Y Y Y Y Y J Y Y R ' i X H ~ Y Y R Y Y R Y Y Y Y Y Y R Y R ! E E Q ~ ] Y & v ( ! ~ ! ! ~ ( { ( B V C C C C C C C ~ }  .$.U D &. . . .....X.| X...X.( | ( } ( ( ( ! ! ! ! / R & h | ^ ~ ~ ! ~ ! R R Y Y T R R I R R R W R R Y Y ~ 7   ",
"  g I J H P J J J J J I I J J Y Y Y J J I I Y ' i X H ! Y I I I I Y I I I I U I I I I Y R R R ! ( T % g ! ! I ! ! / ! ( ( B B B V C C V C C ! ....$.I C %. . . ...( ........( } ( ( ( ( / ^ ! R R ! ! C @ l } Q ! E R R U Y Y U Y P Y I I I Y I I I I W Y W 9   ",
"  g P F F F G H J H G J J J J J J J J J H H I ^ u O S Y J J I I J I P P J P P J P P P P I I U T / I & g R Y R R ! ! ~ / ( m v B B V B C V C W } | +.H C @. .| } ..( | ( ( ( } ( ( ( ( ( / ! ! E R Y R D + j { T T U I P I I I P P P K I P I I I I I I I I W 7   ",
"  g H C C Z D D F D F F F F F F F F S F F F J ~ r O C I J J I J J J J H G G J G G H P L P P P I ! P % g Y I Y W R R ! ~ ! v B B B B B B B B I ] } o.F V o.| [ ] ..( | ( ( ( ( ( ( ( ^ ^ ! ! R R Y Y Y Z + h ' Y I P P P G J J G J J G J L H P H K I P K H W 5   ",
"  p C Z V V V Z C C D S F S D S S S C D S F F W r O V J H F J F F F F G F F F F D F G F G H K J R F % l R P I I T W ! ! ! v x v x v B B B B I ] ] ..S V X.] ] ' ( ( ( ( ( ( ~ ^ ! ! ! Q W R I I I I T Z + h ~ P J G J G G G G F F F F G G G F H H H H H H K 4   ",
"  p Z V m V V V V V V V Z C Z D V V N Z V V C T w X V G D D F F F K C C C C C Z D Z K C F K F K I F % h U K P P P I I Y W x x x x v v v B v H ( (  .C B ..( ( ( ( ( ( ! ~ ! ! ! ! T ! Y I R I P P P P C % g ! H K K K F K Z C C F F F F C F K G D G D D G H 5   ",
"  p V m m m m m M M N N M M V M M V m V M Z Z T w X m G A D D D Z C Z Z Z K C Z Z Z Z C Z F C F P D % l P G G K P I I P I l x l x x l x x v H ~ ^ } V B } ( ~ ^ ! ! ! ! ! ! W W Y I I I I P P H G G L V % f Y G C K Z C C Z Z Z Z C Z Z Z C Z C D D D D D F <   ",
"  i m m m m n v M M M M M M m m M M m m m M M L t X n F C V Z V Z V V Z Z Z V V V V Z Z V Z Z F G V & g P G K K P G J P L k l k l x l x l l F R W ( B v ( ! ! W ! ! W ! T T I I P L K I P H L G G G L V # g P D Z C Z V Z Z V Z V Z Z Z Z Z V Z C Z V Z C C 2   ",
"  p m n n n n n v v m m m m m n n m m m m m m K q O c D M M M M M M N M m m m N m m M m V m m Z F m % f G Z C C F F F G H g g g k k k k l l C I I ! v z ~ Y I T T I K H I H K K H K H K F K F F D D F v + f L Z m V V V Z m m m V m V m m V V Z M V V M Z V >   ",
"  p c z n z n z c n n c n c v c n n v c n n n F 7 O z M m m m m m m v v m m m m n m m m n m m V Z n % f K V V Z Z C C F D s f s s g s g k g V P P R m x E P P P K H K H K K K K C F C F C K C Z C Z C m + f K M m N m m m m n n m n m m m m m m V m m m M m 1   ",
"  7 z z z z z z c z c z c c c c z z c z z c z Z 6 O z M c n v v m n c v n n c c z n v v n n m m Z n & p Z M m V Z Z Z Z C a s p p s s g s s m K G I v z T K K L K K H K C C Z C C C Z V Z Z Z V M Z Z z + f D m m m n m n n n n n v c n n n m m v v n v m m -   ",
"  y z z z z j j j j j z j j n j z z z z j c z Z 9 O h m c c n c v n z z j j c c z c z z n n n n M c & p Z m M m m Z m Z Z p p p p s p s s s v F F P z h P K F F K C C C C K C Z Z Z V Z N Z V V m M Z j # a Z n n n n n n z j c z z c c v z v v c c v v m m :   ",
"  t j h j h h h j h j h j j j j j j j j j j z M 5 X h v c j z n z z z z j j j j j z z z j z j c n z % i Z m m m M V m m M i p i s p p p p s v C Z K l h K Z C C C Z Z N V V Z M Z N m m m m m m m m M h # a m n c z z z z z j j z z z j z l z z c c z l v x -   ",
"  q g g h g g h h h h j f j j f h h j h h j j n 5 O g x j j j j h h j h j j j f j j j j j j j c n j % i M n c n n m m n v i r i u i i i p u j V M F k l F V Z Z V V m V M m M m m m m n m m m n n n n h $ p m x z j j j j j j j f j j j j j j j z z j j j z -   ",
"  q g g f g f f f f f f f f f f j g h h j f f n 0 O s l h j h h j h h h h h f j f j h j j j j j n h % r n c c z n v v v v y u i u y u y i i z V m Z h h Z M V m V M m m m m m m m m n c c m n n z n v f $ a m j j j j h j j h h j j f j h h h j h h j g j j -   ",
"  q f f f f f f f f f f f f f f f g g f f j f n < O a j g g h h h h g h h j f h f h f h f h j j z h % y n z j z c c c c z y w r y w y i y i h m m Z g h V m m m m m c m m c m c c c c c c c n j z z z f $ u n j h j h h j f h f f f f h f h h h f h h j h k -   ",
"  9 p f a a a f f f u a f a a f f f f f f f f j 0 O a h f g f f g g g f f f f f h f f f h f f h h g % y z h z z z z z z z w w w w r y y y y k m m M f f M v m n m c m c m c z c c z c z z c j j z j z a $ u j h g g h g f f f f h f f h f h f f g f g g g a -   ",
"  8 f p a a a u u a a f a a f f a f a f f f f j 5 O p g f f a f f f f f a f f f f f f f f g g g h f + e j h h j j h j h h e 7 e w w w w w w k m c m a a m n n v c c c c c z j j z z j k j j j j h h j u # r j g h f f f f f f f f f f f f f f f f f g f g a =   ",
"  8 u p u a u a a a u a u a u u a a a a f a a h < O p a a a f a a f a f a a a a a a f a f f f f h f % q h f f h g h h g h q 6 e w w 7 w w w a z z m g k n z v z z z z z z j j h h j k j f j f j g g g y $ u h f f f f f f f a a f f a a f f a f f a f a a a =   ",
"  4 u u u p u u u u u u u u u a u a a u a a a j , @ r a a a a a u f a a a a a u a a u f a a f f f a % 9 g f f f f f f g g 6 6 6 6 q 7 q y w f z z c a a c z z z j j j z j k j j g f k g f f f f f f g t $ r h f f a f f a a a f a f u a a f f p a p p p p p #   ",
"  4 u t t u u u u u u u u u u a u t a u u a t f , o r a p u u p a u u a u a a u u u f a a a a a f p = 8 f a a f a f f f g 4 5 6 6 5 q 6 9 9 a z k c a p c j j j j j h f h f g f f f f f f f f a a a f t $ r f f f f u f u a u u u u a u p p p p p p p p p p #   ",
"  4 t e r r r e r r w w r u u u e u e u u p u f 3 O e p p u u u u u a u u u u u u u u a u a u f f u $ 8 f u p a a f u f f 4 4 5 4 6 5 6 0 6 p h j j u f j j j j f f f f f f f f f a f f f a a a a a a e # t f a p p u f a u u u u a u u u u u u p u u u u u @   ",
"  < e e e e e e e r w e r r r r u e e u u u e f ; $ e u r u u u t u u u r u u u r u u u u u p u a u = 4 f p u f a u f u a 0 4 0 4 0 5 6 5 5 u g f j u u j f j f f f f f f f f f f f u u u u a f u p a 6 # t f u p p u u u r u r t u u u u u u u u u r u u r $   ",
"  , q q e e e e e e e e e e e e e e e e u u u a , O q u r r r r u u t u r u r r r r u r t u u u a u % 4 a u u u u u u u a < < 4 4 5 4 6 4 0 u g f j t u f f f f f f f f f f a u a u p p u a u u r u a 0 # e a u u u r r r r r r t u t u u e r u u u e e r r @   ",
"  < e 6 6 e q q q e q e q q e e e e e e e e e a 3 O 0 e r r e e t t t t e r r e e t r r r u u u u r = 4 u u r u u u u u u 4 4 4 4 6 5 4 5 6 r f f f f f j f f f f f a f u f p p p u p u u u u u u u a 4 @ t a u u u r u r r r w u t u t r r r r e e u u r q @   ",
"  > 6 q q e e 6 q q q 7 e q e e e e e q e e e a , o 0 e e e e e t t e e e e e e e e w t r u u r u r = 4 u r r u u u r r u < 4 < < 0 < 0 < < u a f f u u g f f f f f u f f u f u u u u r r u u u r r u 8 $ t u r u t t r t w e e e e e e q e r r e e e e r q @   ",
"  , q 6 q 6 6 0 6 6 q q 5 6 6 q 6 e 6 e q e e a , o 0 e e 7 q e e e e q t e e q q e e e t r r r r r % < u w e r u u r w u < < < 4 < 4 0 4 0 r f f f t u f a f p u u f f u u u t u u r r r r u r e r u 4 # q u r u t r e e e e q 0 e e e q t e r e q q e q q O   ",
"  , 5 6 0 6 0 6 q 6 0 6 6 6 q 6 6 6 6 q q q e e 1 O 0 q q q q q e e q q 0 q q q q q e q e t t e r t % < r w e e u t t e r < 3 < 4 < 4 < < 0 r f f f t u f f f a f a u u u u u u r r w q t r u w t r r < # t r w w e e t e q q q q e q q q q e q q 6 q e 6 0 O   ",
"  , 5 4 6 6 0 5 6 6 6 6 0 0 4 6 0 6 6 6 q q e e ; o 5 6 q 6 6 e q q q q q q q 0 q 6 q 6 7 e t r y t % > t e 7 w t t q t r 1 1 3 4 4 4 < 4 , e a p f u t f p p f a u f u u f u t r r w e t w w q e t w 4 # w y w e e e q 6 q q q 0 q q q q q q q q q q e 6 0 @   ",
"  , 6 6 4 6 6 4 0 4 0 0 6 6 6 6 4 6 6 6 6 6 6 e : O < 6 6 6 6 6 q 6 6 6 6 6 6 0 q q q 0 4 : : > 3 , O % , : : : : > : : > 1 1 > 3 < < 4 4 < 4 4 4 4 2 < 4 < 5 4 3 8 3 3 9 y y y y y 9 q q t e e 7 q t > # q w t q 7 q q 6 q 8 q 6 6 6 6 6 q q 6 6 6 6 q 6 0 o   ",
"  , , , 6 6 4 0 4 6 6 < < 0 0 < 6 6 0 4 0 6 6 e : O 4 6 6 0 0 6 q 0 6 6 q 6 0 0 q 4 q 6 < : > : : : O % : , : : > : : : : > > > , 3 3 < 4 < 4 < 4 4 2 2 4 4 < < 3 3 3 3 9 y t y y w w q q q q 6 q q q , # q e t e q 6 6 5 q q 0 0 0 q 0 6 6 6 6 6 6 0 6 0 < o   ",
"  , < 6 4 4 < < < 6 < 0 6 0 0 < 6 < 0 < 0 4 6 e : o < 0 0 0 0 0 6 0 6 4 0 0 4 0 4 0 4 q < : : : : : O % : : : : : * : : - 1 - : 1 > 3 3 4 < < < 4 4 , 2 4 4 4 < < 4 3 2 4 y w w q w 9 q q q q q q q q : # q q q q q q 0 0 4 6 6 0 0 0 5 0 0 5 0 0 6 6 0 6 < O . ",
"  * 4 < 6 < 0 < 4 4 < 0 < < 0 < 0 4 < 6 4 6 6 e : O , 5 0 5 4 0 0 0 0 4 4 0 5 5 5 0 q 4 4 * : : : : @ % : * & * : : - : : : > : > 1 , , 1 2 < > < 4 : , 4 2 2 > 1 1 2 2 4 t q q t q q 9 8 q q q 4 q q : # 9 w q q q 0 0 4 q 4 0 0 < 0 0 < 0 0 0 0 < 0 0 6 , o   ",
"  * , , 4 < < 4 < 4 , 0 < , < < < 4 0 0 5 0 5 w : O , 4 0 4 < 0 0 4 4 5 0 4 4 5 6 4 4 4 < : : : : : O + * : : = : : * : : > - : : , : 2 > , 2 2 2 < : 1 < 2 2 2 1 1 2 : 4 w q 9 q q 8 8 q q q 4 4 q 0 : # 0 q q q 0 0 6 0 4 0 < < 0 0 4 0 0 4 0 0 0 0 0 0 , +   ",
"  * , < 4 < < , < < < 0 4 6 < 0 4 < < 4 4 < 5 t : o < 4 0 4 4 4 4 5 0 < 4 0 4 4 4 4 9 5 < : : : : : O % : : % * * - : - - 1 : : : : : , : : > 2 1 < > 1 < 1 > 2 > > 1 > 2 q 0 q q 0 q 8 q 4 0 0 6 q 4 : # q t q q q 4 4 0 4 0 0 0 < 0 < 4 4 5 0 < 4 < 0 < , o   ",
"  ; 4 4 4 , , < 4 0 0 < < 0 0 < , 0 < 4 4 4 0 e : O , 4 0 < , 4 4 0 < < 4 4 4 4 4 0 4 4 , : & : : : @ + % : = : % : & - - 1 - - : : , : : > , : 1 < : : 1 > : > > 1 : : < q 8 q 9 4 q q 8 q 4 6 4 q 8 : = 9 0 q q 4 0 4 < 4 8 4 4 < 4 < 4 4 4 < < 4 4 4 < , o   ",
"  ; , , , < < < , , < < , < 4 < 0 , , 4 4 4 4 q * O > 4 4 , 4 4 < 4 4 4 < 4 4 4 4 4 < 4 , & - : : 1 O % % * * * : : = * - - - - - : : : : : : : : 1 1 > 1 > 1 : : - : : 2 q 9 q q 8 8 4 8 4 q 4 8 4 4 = # t t 8 0 0 4 0 4 4 4 8 4 4 4 4 < 4 0 0 < 3 , 0 < > O   ",
"  ; , , , , , < < 4 3 < < 4 4 < 4 4 < 4 4 < 0 q ; o , < 4 3 < < 8 1 8 3 3 8 8 3 8 3 8 2 8 8 8 9 9 t # - 3 8 8 4 8 8 8 8 8 9 9 9 9 t t 9 8 t t t 9 t t t t 9 9 t t 8 8 t t 8 8 t 8 8 8 8 8 8 8 8 8 4 4 = % q q 0 8 8 8 8 2 4 4 4 4 4 4 2 < 4 4 4 3 < < 4 < : o   ",
"  * , , , , , , < < < 3 3 3 , < , , 4 , < 4 4 t ; o 1 < < 3 3 3 1 8 1 3 3 1 3 3 3 8 2 8 8 8 8 9 9 9 = - 8 8 8 4 8 2 8 8 8 8 9 9 9 9 9 9 8 9 9 9 t t 9 t t t 9 t 8 t 8 t 8 8 8 8 8 8 8 8 8 8 8 8 q 4 4 = + t t q 8 8 2 8 4 2 4 4 4 2 3 4 4 4 4 < 3 3 3 4 4 : O   ",
"  ; , * , , , , 3 , < , 3 < 3 , 3 , 3 < < 3 4 t ; o , 3 < < 3 4 8 1 3 3 3 3 3 3 3 8 2 8 8 8 8 9 t t # - 4 4 4 8 8 8 8 3 8 8 8 8 9 9 9 8 9 t t 9 9 t t t t 9 t 9 8 8 8 8 t 8 8 8 8 8 8 8 8 8 8 8 4 4 4 = = 0 8 8 8 8 8 2 4 8 4 4 4 2 4 2 < 3 3 4 3 1 3 4 < : o   ",
"  * , , ; , , , : , , , < , 3 , , , 4 , < 3 3 0 ; O : < 3 1 , 3 3 3 3 3 3 3 3 8 3 3 8 2 2 8 8 8 9 9 # - 2 4 8 8 8 8 8 8 8 8 8 8 8 9 8 8 8 8 9 9 8 t 9 t t 9 9 9 t 8 t 8 8 8 8 8 8 8 8 8 8 1 1 8 8 4 4 = # t q 8 8 8 8 8 4 2 2 4 2 2 2 2 3 3 3 3 < 3 < < < : o   ",
"  * ; , , ; , , : , , , , , , < , 3 3 , 3 < 4 0 & O : 1 3 3 , 2 8 1 1 3 1 3 3 3 2 2 2 2 8 8 2 8 9 9 @ - 4 2 4 4 8 8 3 8 3 8 8 8 8 8 8 8 8 8 8 8 8 9 t 8 t 8 8 9 8 8 8 8 8 8 8 8 8 8 8 8 1 8 8 8 8 2 2 % # q 8 8 8 8 8 2 8 2 8 3 2 2 < 3 3 3 3 4 1 2 1 < 3 : o   ",
"  * ; , , , , ; : 1 , : , , 1 , , , , 3 3 3 4 0 = X : 2 1 3 1 , 1 8 1 1 1 3 3 3 2 2 2 2 2 8 8 8 9 8 # - 2 2 4 8 2 2 8 8 8 8 2 8 8 8 8 8 8 8 8 8 8 t 8 t 8 8 8 8 8 8 8 8 8 8 8 3 8 1 8 8 8 8 3 8 4 2 1 = # 8 0 8 2 8 2 2 2 3 2 3 1 2 3 , 1 , 2 < , , 3 1 1 : o   ",
"  ; , , , < , * : , 1 : : 1 , 2 3 1 , 3 3 , < 0 - O - , , 1 , 1 1 1 3 3 1 3 3 1 8 2 2 3 2 8 8 8 9 8 @ = 2 2 4 4 2 8 8 2 2 8 1 8 8 8 8 2 8 8 8 8 8 9 9 9 8 8 8 2 8 8 8 8 8 8 8 8 1 8 1 8 1 1 8 1 4 2 1 = # t 8 8 8 8 8 2 2 2 3 2 1 3 1 1 1 3 , > 1 > 1 1 : : X   ",
"  ; ; ; , , ; , , : , , 1 , 2 , 1 3 , 1 3 3 3 0 = X : : 1 , 1 : 1 1 1 1 3 1 1 1 3 3 2 8 8 2 8 8 9 8 @ - 1 2 3 4 2 2 8 8 2 8 8 8 2 8 8 2 8 8 8 8 8 8 8 t 8 8 8 8 2 8 8 2 8 8 1 8 8 1 8 8 8 8 1 8 2 1 1 # # 9 9 8 2 8 2 8 3 2 2 3 1 1 3 3 1 3 2 1 1 1 : , , = O   ",
"  ; ; ; , 1 ; : 3 , , 1 , 1 3 3 1 3 1 1 3 3 3 8 : X : 1 2 1 1 1 1 1 1 1 8 1 1 1 1 3 3 1 3 8 8 8 8 8 # = 1 1 3 8 3 3 8 8 2 8 3 8 8 8 8 1 8 2 8 8 8 8 8 8 8 8 8 8 8 8 2 8 8 8 8 2 8 1 8 3 3 3 1 8 2 1 1 % @ 8 8 3 3 3 8 3 3 3 3 2 1 2 1 3 1 1 1 1 , 1 > 2 : - X   ",
"  % ; , 1 1 : : : 3 3 : : 1 3 , 3 3 1 2 2 8 3 8 * X - : 1 : 1 1 1 1 1 3 1 1 1 1 1 3 3 8 3 3 3 3 8 8 @ = 1 1 2 3 3 8 2 2 8 1 8 3 8 2 1 8 8 8 3 8 8 8 8 8 8 8 8 1 8 2 2 8 2 8 8 2 3 8 3 8 1 8 8 8 2 1 1 # = 8 3 8 8 8 3 3 3 3 1 1 1 1 3 3 1 1 1 1 1 1 1 1 1 - X   ",
"  ; , ; : , 1 ; 1 1 , : , 3 1 , : , 1 2 2 3 3 8 = O ; 1 1 1 1 1 1 1 1 1 1 8 1 1 3 1 3 1 3 3 3 8 8 8 @ = 1 1 2 3 3 3 8 2 3 8 3 3 2 8 2 2 3 8 8 3 8 8 8 8 8 2 8 8 2 8 3 2 3 3 2 3 3 3 8 3 8 1 8 1 1 1 1 + @ 8 8 8 8 3 3 3 3 1 3 1 1 1 1 1 1 2 2 1 1 1 1 1 1 % O   ",
"  ; , ; 1 , ; 1 : 1 , 1 1 1 1 1 1 1 1 1 3 3 3 8 ; o = , 1 1 1 1 1 1 1 1 1 1 1 1 1 8 3 1 1 8 8 3 8 8 O = - 1 1 3 3 2 3 3 2 8 3 2 2 8 1 8 2 3 8 3 1 8 8 8 2 8 2 8 8 3 3 2 8 8 3 3 8 3 3 3 1 1 1 8 1 1 1 % = t 3 3 3 8 3 3 3 3 3 1 1 1 2 1 2 1 1 1 1 1 1 1 2 = X   ",
"  % ; , , ; 1 ; : 3 1 3 1 ; 1 3 1 1 1 1 1 2 1 8 - X = 1 1 1 1 1 1 1 1 1 1 1 1 1 1 3 3 8 1 1 8 3 3 8 @ = = - 1 3 2 2 3 3 3 3 3 3 8 1 3 3 2 8 3 3 8 8 8 8 8 3 3 8 8 1 1 8 3 3 3 3 3 8 1 3 1 1 1 1 1 : ; $ $ 0 8 3 3 3 1 3 3 3 1 1 1 1 1 1 1 1 1 ; 1 1 1 1 1 = X   ",
"  % ; , , , ; , : 1 , ; 1 1 ; 1 , 1 3 1 1 2 3 8 = X = 1 1 : 1 : 1 1 1 1 1 3 1 1 1 3 1 1 1 8 3 8 8 8 O @ 1 1 1 3 1 1 8 3 3 3 3 1 1 8 3 3 2 2 3 3 1 8 8 8 1 8 3 3 1 8 3 1 3 8 3 1 1 8 3 8 3 1 3 1 1 : ; @ = 9 3 8 3 3 3 3 3 3 1 1 1 1 1 1 1 1 1 1 : 1 1 1 : % X   ",
"  % ; ; , , ; ; 1 , 1 1 1 1 ; 1 1 3 1 1 2 1 2 8 ; o = 1 2 1 1 1 1 1 1 1 1 3 1 1 1 1 3 3 3 3 1 8 3 8 = = = 1 1 1 1 1 2 3 3 3 3 2 1 8 3 3 3 3 3 3 1 8 8 8 1 8 3 3 1 8 3 3 8 3 3 1 3 3 3 3 3 1 1 1 ; ; 1 # # 9 3 3 8 3 3 3 3 1 3 1 1 1 1 1 1 2 1 - 1 : 1 1 1 % o   ",
"  ; ; , ; 3 3 ; ; 3 1 1 3 1 3 1 1 1 1 1 1 2 1 8 = O = 1 1 1 - 1 1 1 1 1 1 3 1 1 1 3 1 3 3 1 3 3 3 8 O = 1 = 1 1 1 1 3 3 3 3 3 3 1 1 3 3 3 8 3 3 1 8 8 8 2 1 3 1 8 1 3 1 1 3 3 3 3 1 3 3 1 1 1 1 1 ; ; # # 8 3 3 3 1 1 3 1 1 1 1 1 1 1 1 1 1 1 1 1 1 1 1 : = .   ",
"o = 1 1 ; 1 1 ; 1 1 1 1 1 1 1 1 1 1 1 1 1 1 1 8 = o = 1 1 1 1 1 1 1 1 1 1 1 1 1 1 1 1 1 1 3 3 3 8 3 # # = 1 = 1 1 1 3 3 1 1 3 3 3 1 1 3 3 3 3 3 3 8 8 8 1 1 8 1 1 3 3 3 1 3 3 3 1 3 3 3 1 1 1 1 = 1 = # = 8 3 3 3 1 1 1 1 1 1 1 - 1 1 1 1 1 1 1 = 1 1 1 = = o   ",
"o = ; ; 1 1 1 ; ; 1 1 ; 1 1 1 1 1 1 3 1 1 1 1 1 ; o = 1 1 1 1 1 1 1 1 1 1 1 1 1 1 1 1 1 1 1 3 3 1 8 # # 1 = 1 1 1 1 1 3 1 1 1 3 1 1 1 3 1 1 3 3 1 3 8 8 1 1 1 1 1 1 1 1 1 3 1 3 1 1 1 3 1 1 1 1 1 = 1 # = 8 3 3 1 1 1 1 1 1 1 1 1 1 1 1 1 1 1 1 1 1 1 1 1 = o   ",
"o # ; 1 1 1 1 1 1 1 1 1 1 1 1 1 1 ; : 1 1 1 1 8 ; o = ; 1 1 ; 1 1 1 1 1 1 1 1 1 1 1 1 1 1 1 1 1 1 8 # # = 1 1 1 1 1 1 1 1 1 1 3 1 1 1 3 1 1 1 1 3 8 8 8 1 8 8 1 1 1 1 1 1 3 1 1 1 1 1 1 1 1 1 1 = 1 1 # = 3 1 3 3 3 1 1 1 1 1 = 1 1 1 - 1 1 1 1 1 1 1 1 = = o   ",
"o = ; 1 ; 1 1 ; ; 1 1 1 1 1 1 1 1 1 1 1 1 1 1 3 ; o = 1 1 1 1 1 1 1 1 8 1 1 1 1 1 1 1 1 1 1 1 1 1 1 # = 1 = = 1 1 1 3 1 1 1 3 1 3 1 1 1 1 1 1 1 1 1 8 1 1 1 1 1 1 1 1 1 1 3 3 3 1 1 1 1 1 1 1 1 1 = 1 # = 8 3 1 1 1 1 1 1 1 1 1 1 3 1 1 1 1 1 1 1 1 1 ; = = o   ",
"  = = 1 ; 1 1 1 1 1 1 1 1 = 1 1 ; 1 ; 1 1 1 ; 3 = o = 1 1 1 1 1 1 1 1 1 1 1 1 1 1 1 1 1 1 1 1 1 3 3 # = 1 1 1 1 1 1 1 1 1 1 1 1 1 1 1 1 1 1 1 1 1 1 8 1 1 1 1 8 1 1 1 1 1 1 1 3 1 1 1 1 1 1 1 1 1 1 = # = 1 1 1 1 1 3 1 1 1 1 1 3 1 1 1 1 1 1 = 1 3 1 1 = = .   ",
"  = = 1 1 1 1 ; 1 1 1 ; 1 1 1 1 1 1 1 ; 1 1 1 3 = . = = 1 1 1 1 1 1 1 1 1 1 1 1 1 1 1 1 1 1 1 1 3 3 # # = = = 1 1 1 1 1 1 1 1 1 1 1 1 1 1 1 1 1 1 1 8 8 1 1 1 1 1 1 1 1 1 1 3 3 1 1 1 1 1 1 1 1 = = = # = 8 1 1 1 1 1 1 1 1 = 1 3 1 1 8 1 1 1 1 1 1 1 1 ; = .   ",
"  # = 1 1 ; ; 1 1 1 1 1 1 1 1 1 ; 1 ; 1 3 1 ; 8 = o = = 1 1 1 1 1 1 1 1 1 1 1 1 1 1 1 1 1 1 1 1 3 3 # # 1 1 1 1 1 1 1 1 1 1 1 1 1 1 1 1 1 1 1 1 1 8 8 1 1 1 1 1 1 1 1 1 1 1 1 1 1 1 1 1 1 1 1 1 1 = = # = 3 1 1 1 1 1 1 1 1 1 1 1 1 1 3 3 1 1 1 1 1 1 = = = o   ",
"  # 1 1 1 1 1 ; 1 1 ; 1 1 = 1 1 1 1 1 ; 1 ; ; 3 = o = = 1 1 1 1 1 1 1 1 1 1 1 1 1 1 1 1 1 1 1 1 3 1 # # 1 1 1 1 1 1 1 1 1 1 1 1 1 1 1 1 1 1 1 = 1 1 8 8 1 1 1 1 1 1 1 1 1 1 1 1 1 1 1 1 1 1 1 1 1 = = # = 3 1 1 1 1 1 1 1 1 1 1 1 - 1 1 1 1 1 1 1 1 1 = = = o   ",
"  = 1 1 1 = 1 1 1 1 1 = 1 1 = 1 1 1 1 1 1 1 1 3 = o = = 1 1 1 ; 1 1 1 1 1 1 1 1 1 1 1 1 3 1 1 1 3 8 # # = 1 1 1 1 1 1 1 1 1 1 1 1 1 1 1 = 1 1 1 1 1 8 1 1 1 1 1 1 1 = 1 1 1 1 1 1 1 1 1 1 1 1 1 1 = = @ # 8 1 1 1 1 3 1 1 1 1 1 1 1 1 1 1 1 1 1 - 1 1 = - = .   ",
"  = = 1 1 1 1 = 1 = 1 1 1 = 1 1 1 1 1 = 1 1 1 1 = o = = 1 1 1 1 1 1 1 1 1 1 1 1 1 1 1 1 3 3 1 3 8 3 # = 1 = 1 1 1 = 1 1 1 1 1 1 1 = 1 1 1 1 1 1 1 1 8 8 1 1 1 1 1 = 1 1 = 1 1 1 1 1 1 1 1 = 1 1 1 = = o = 3 3 1 1 3 1 1 1 1 1 1 1 1 1 1 1 1 1 1 1 1 1 1 1 = .   ",
"  = = = 1 = 1 = 1 1 1 1 1 = 1 1 1 = 1 1 1 1 1 1 = @ = 1 1 1 1 1 1 1 1 1 1 1 1 1 1 1 1 1 1 1 1 1 1 3 = # = 1 1 = 1 1 1 1 = 1 1 1 = = 1 = = 1 1 = 1 1 8 1 1 1 1 1 = 1 1 = 1 1 1 1 = 1 1 1 1 = = 1 = = = @ = 8 1 1 1 1 1 1 1 1 1 1 1 1 1 1 1 1 1 1 1 1 1 - = = .   ",
"  = 1 1 1 1 1 1 1 1 1 1 1 1 1 1 1 1 1 = 1 1 1 3 ; o # ; 1 1 1 ; 1 1 1 1 1 1 1 1 1 1 1 1 1 3 3 1 1 3 # # = = 1 1 = 1 1 = 1 1 1 1 1 1 = 1 = 1 1 = 1 1 8 8 1 = 1 1 1 = 1 1 = 1 1 1 1 = 1 1 1 = 1 1 1 = = # # 8 1 1 1 1 1 1 1 1 1 1 1 1 1 1 1 1 1 1 1 1 - 1 = = o   ",
"  = 1 ; 1 1 1 = 1 1 1 = 1 1 1 1 1 1 1 1 1 = = 1 = X = 1 ; 1 1 1 1 1 3 3 1 1 1 1 1 1 1 1 1 1 1 3 3 3 # = = 1 1 1 = 1 1 1 = 1 1 1 1 1 1 1 1 = 1 1 1 1 8 8 = = 1 1 1 = 1 1 1 1 1 1 1 = 1 1 1 = 1 1 1 = = # = 8 1 3 1 1 1 1 3 1 1 1 1 1 1 1 3 1 1 1 1 1 1 1 = @ o   ",
"  = 1 1 1 1 1 1 1 1 1 1 = 1 1 1 1 1 = 1 1 1 1 1 = X = = 1 1 1 1 1 3 3 3 1 1 1 1 1 1 1 1 1 3 3 3 8 1 # # = 1 1 1 1 1 1 1 = 1 = 1 = 1 1 = 1 1 1 1 1 1 3 1 1 1 1 1 1 = 1 = = = 1 1 1 = = 1 1 1 1 1 1 1 = # = 3 3 3 3 1 3 3 3 1 1 1 = 1 1 1 3 1 1 1 1 1 1 1 = = X   ",
"  = 1 1 1 1 1 1 1 1 = 1 1 1 1 1 1 1 1 1 1 1 1 3 1 X = 1 1 1 1 1 1 1 3 1 1 1 1 3 1 3 1 1 1 3 3 3 3 3 # # 1 1 1 1 1 = 1 1 1 1 1 1 1 1 1 1 1 1 1 1 1 1 8 1 1 1 1 = 1 1 1 1 1 1 1 1 1 = 1 1 1 = 1 1 1 = = # = 8 3 3 3 3 3 3 3 3 3 1 1 1 1 1 1 1 1 1 1 1 1 ; = = @   ",
"  = 1 1 1 1 1 1 1 1 1 1 = 1 1 1 1 1 1 = 1 1 = 8 = o = = 1 1 1 1 1 1 3 1 1 1 3 1 1 3 3 3 1 8 3 3 8 8 # # 1 1 1 1 1 1 1 1 1 1 1 1 1 1 1 1 1 1 1 1 1 1 3 1 1 1 1 1 1 1 1 1 1 1 1 1 1 1 1 1 1 1 1 1 1 1 1 # = t 3 3 3 3 3 3 3 1 1 1 1 1 1 1 1 1 1 1 1 1 1 1 ; # o   "
};
