/* XPM */
static char *result[] = {
/* columns rows colors chars-per-pixel */
"128 128 104 2 ",
"   c #090A0D",
".  c #0E0E11",
"X  c #100F12",
"o  c #0F1013",
"O  c #121215",
"+  c #181716",
"@  c #161619",
"#  c #18171B",
"$  c #17181A",
"%  c #1A1A1C",
"&  c #201F1F",
"*  c #22211F",
"=  c #1D1E22",
"-  c #211F23",
";  c #1F2023",
":  c #232325",
">  c #282625",
",  c #262827",
"<  c #2A2926",
"1  c #242529",
"2  c #28272B",
"3  c #27282C",
"4  c #2B2B2C",
"5  c #312E2D",
"6  c #32312E",
"7  c #39332E",
"8  c #2E2E31",
"9  c #302F32",
"0  c #2F3031",
"q  c #343333",
"w  c #393634",
"e  c #373835",
"r  c #3A3936",
"t  c #373738",
"y  c #3A3738",
"u  c #3D3C3A",
"i  c #423D36",
"p  c #413E3B",
"a  c #43413E",
"s  c #49453E",
"d  c #4D483F",
"f  c #464541",
"g  c #494642",
"h  c #4C4A44",
"j  c #4E4D49",
"k  c #504641",
"l  c #524D46",
"z  c #524E49",
"x  c #555047",
"c  c #595247",
"v  c #55524C",
"b  c #5A554D",
"n  c #5E584F",
"m  c #575550",
"M  c #5A5650",
"N  c #5D5952",
"B  c #5E5D59",
"V  c #615A4E",
"C  c #625D54",
"Z  c #695F54",
"A  c #635F58",
"S  c #656056",
"D  c #696156",
"F  c #666159",
"G  c #6B655B",
"H  c #6E695D",
"J  c #71675C",
"K  c #716B5E",
"L  c #6E6761",
"P  c #6F6961",
"I  c #736D62",
"U  c #786F62",
"Y  c #767064",
"T  c #7B7365",
"R  c #777168",
"E  c #7D7669",
"W  c #7E786B",
"Q  c #817666",
"!  c #837867",
"~  c #807769",
"^  c #847B6C",
"/  c #897E6E",
"(  c #857E71",
")  c #897F71",
"_  c #87806F",
"`  c #8B806F",
"'  c #868073",
"]  c #8C8273",
"[  c #918675",
"{  c #928876",
"}  c #928778",
"|  c #958A79",
" . c #998E7C",
".. c #9C907E",
"X. c #9E9281",
"o. c #A29684",
"O. c #A49886",
"+. c #A69B89",
"@. c #A99E8C",
"#. c #ACA18F",
"$. c #ADA291",
"%. c #B7A995",
"&. c #B9AA96",
"*. c #BDB29E",
/* pixels */
"                                                                                                                                                                . .   .     . .   .                                                                             ",
"  < u u r r w 7 w w w r i 7 w w w 7 6 7 7 w r i 6   > 7 6 7 6 7 7 9 5 7 7 5 6 7 7 6 6 6 7 5 5 5 5 7 + O * * * * > * * * * > > * * * * > * * * < < < * * * < * < * * * * * * * * * * * * * * * * * * * * + + * * > > < < < < < < < 5 < < < < < < < < < < < < &   ",
"  5 g l l l d d g g g g d s d s s s s s s g h h r O w l h d d d g s g k s s s s s d s s g d g l d l & + z l l d d a a i r 7 7 w 6 7 6 6 5 5 6 7 6 6 5 * 7 7 7 7 5 5 5 5 6 < 6 < < < < 5 < < < < < * < * + & d d k p p p p i i p i i i i i i i i i a i s i s 6   ",
"  5 g v b v v x x x x x x x l l h x d l l l v v i O r c l x k d j k k k k k h k d d l d l l l z c b > * b x x l d d d d d d d d d l d d l l x v V Z V i Z Z V c x x d d d d d s s s a s a a i i a a a i * * V d c k c z l k l k l k d d d d g g k d d d d d i   ",
"  8 g v N N b b m m v b m m x x x v j x x v m m p # u v x z j l k z z k j k j k h h l z l z c z c N 4 5 x x x z z l l l l z x c c b n N C C S G I E R x E T K G F C C C n b b n c c x m x x l l z z z z < < b v z z z k z j k k l k h l l h l l h l l z c x i   ",
"  < g m N N N N m N n b b n n m b v b b b m v B a # p m x x l l z z z z j z k z x l h z l z v v m C 9 q b b b x x x v b x v b v n n B S F G P P I ^ E m _ E T K P G G B S C S V V V n b n b m v c b b M 7 6 N b b v z z z z k z l l h l l l z z z l l v x n p   ",
"  2 g b N B N N m m m m n m m b b b b b m m v C f # p M v v x x z z z z z z z z l v v z x v v v m C 9 y N M M v M b M M N M N N N S S F G P P I R ( W m ' ( T I P H G F F S B B C N N N N N b n b N b N q 8 B b v v v z z z z z l z l l l z z z z z z v z v a   ",
"  > h v M N B m n m n n m n n m b b b m m v m N f # u m z v z v m z z z z z z z x x z v v v v m b C q y N b N N M M M N N N N A S F F G G P I R E ( W N ' W E I R P G H F F F B S N N C N N n n b M b N y q B M b v v v v z z v z z z z l z z z c z z z v m a   ",
"  4 h z M M N M m m N M n m n n b m m v m m v B f # p m z z z z z z z z j z z z z z M z v v b m m B 9 y N N N m M N V N A C A C B L L B L L R R R ( E M ( W W R P P L G F F B F C B C B B N N N N N N N q 9 B m m m b v v v v z z z z z z z z m z z v z z m a   ",
"  > h v m M M M m m m m m b b b b b b b v m z B f # a m v v z z m z z m z z z m v v z z m v b b m A 9 t N M N N N N B C N A B A B B B L L L L R W ( W M ( ( W R R P L G L F F F C A C B N N N b N M b N t 9 B m m m b b M v v z z m z z z j z z z z z j v m p   ",
". > h m v M m m m m m m m b m m M b b b b m z B f # p m v z v v z z z m m z m z v v z M m v b m m B 9 y N M N B N B N C B A A A L B L L L L L R W ( R m ' ( R R R P L L F F F B A A B A C N N N N M N N 9 q A m m M v m v v v z m j m z z m z z v j v v v m p   ",
"  4 h z m v m m m m m m m v m m b v v b v v m m f @ p m v v m j m z z z z z z z v v m v v M M M N A q y N N N N N C C C A A A A B L B L R L R R W ( R B ' ' W R P L L L L B F F S S S S C C B N N N N M t 9 A N M m m b v v M v z v z z z z z j j m v v v M u   ",
"  4 h z m m v m v m m m m m m v v b v v z m z B f # p m v v v z v z z z z v v v v v M v v M M M N A q t N M N N B C A A A A F L L F L L L L R R R ( R m ( ( R R R L L L F L L F F B A B S B B S N N m N 9 q A N M M M v v b M z m m z z j z z m v z z v v v p . ",
"  2 h v z z v m z m j m m m v m v v v v z m m m f # p m v m m v v v v z z z v v v v v M m v b V N A q y C N N N B C A A A A F F L B B L L L R R R ' R m ( R R R P R L L L F F F F L F S B S N N N N N N 9 t A N M M b M v v z m z z v v m z m z v v v m m M u   ",
"  4 l z z v m m m m j m z m v v j m v j z m m m a # a m m v v v v v m z z z v v v v v M b M M M N A q y N N N B C A A A L A G A F G L G L R R R R ' R m ' ' R R I P P L F L G F L F F F S B B C C N N N q q A N M M b v M v v v v v v v z z v v b v z v v M u   ",
"  5 j z v v z j z v m j m j j m v j m v v z m N a # a M z v m v z m z v z m v v v v v v b m M M N A 8 y C N C C C C A A F G L G L G L L L L R R R R R m ( R R R I I P P P G L F G G F F S S S C N N C N 9 q G C M M b M b v b z v v v v z v v b v v m v v M u   ",
"+ 6 j m j m j j m j x j j m m j v j v v j m m N a $ a m v v v v v m v m z v m v v z m v v M b V N A 6 y N C S N S F F F F G P F G L H P I P Y R R W R m W W R R L L P P P G L G G G F G F B S B C C N C 0 q F N N b b M b v v v v v v v v v M v v v v v M M p X ",
"+ , j j m j m m j m m m x x j m v v v v m x x N a % a n v m v v v v v v v v v v v m v N b b N M N S q y C N N S S F F F G F G H G H P P P Y P R R W P m W R R R R R P P P P H P H G G F F F B S N C C N q q L N N M m b b b v b v v z v v b v v v v v v z M p   ",
"o 6 j m j x m j m j j m m m x x v x v v x m x N a % a m v m x v v b b v v v v v v v v b M M N N N S q r C B C B S S F G G P H P P H H H P I R R R E P m W R R R R L P L P H H L G G G G G F S S C C B N 0 t F N N b m b b b v b v v v v v v v v v v v v v M p   ",
"o , x j x m x m m m m j j m m j v m j j m x m N a $ a m b v v m v b b v m z v v b b v N m M M M N F 0 r C C B C S D F F P G H H P P P I R I P R R E P m W W R R L R R L H H P P H H H G D G F S C C N B q q F N N N M b b m b v v v v v M v v M v v v m v m p   ",
"o 6 x x x m x j j x x x m m x m v v v v v m m C a $ a N v b v v v m b b x m m x v b b b M M M N B F 8 y C C C S F G G D H H H P H H P I H I I Y R R H v E T Y Y I I Y H I I P P K G H G G G G S C A N C q q F N N M M M b b m b v m v v b v b v v v v v v M y   ",
"o 6 j x m x x m m j m m x m m x m j x x m x x C a # f b b v b b b v b v b b v m v b v b b N N N N F 0 u S B B S F G D H G H H H K P K H I I I Y Y T G v E Y Y Y Y I I I H H K H H H G H G H S S A C C B 6 t F C N M M b m b v v M v b v v M M v b v b b M M y   ",
"o 6 j x x m x m x m j m v m m m m x x x x m x S a # f b v b b b m m b v v b n m b M b M M M N C C F 0 u S B S S D G H H H H H K K I I P I I R I I R G v R T I Y I I I H H I H K H H H H H S S S C A C B 4 e G N N N N b n b m m v v M v b b M v v M b v M M p   ",
"  6 x m x m m m j j x m x m n m m m m m m x n S p # f N b m b m b m b b b b m n b M M M V N N N C F 4 u S B S F G G D H H H K K I K I I I I I Y R T G j T Y Y Y I Y Y H Y K Y H H H H G H H G G F C C C q t F B N N N N b b b N M v M M v b b b b M M v b M p   ",
"  e x m b x m x x x m m x m m x n x x m m x n S p $ g N b b b N m m m m m n n m m n n n n N N N A F 9 u F C F F G G G H H H H K H I I I I Y Y Y Y T G c T Y Y Y I Y I I I K K K K K H H H G G G F C F C q q G N C N n N m n b b M M b b b M b b M M M M M V u   ",
"  6 x b m b b b m n x n x m n m m m n n n n m S p $ g N N n b N B m n n b m m n N N m N N N C C C F 4 p D S F G G G H H K K H K K I K I K Y Y Y Y T G x E Y Y Y Y I I I I I K K K K K H H G G S F F C C 5 t G C C N N N b N m n N M M b b b N N M M M m M V u   ",
"  6 x b b b b x x m n x n n x n n x n x x n n S p @ g N N N N N n n n n n m n n n N N N N N N C S F 8 u F S F F G H H H H H I H K K K Y Y Y Y Y Y W H m W T T Y T Y I I K K K K K K H K H G G G G F F S 6 q G B N C N N N N n m b N m M M N N b M M V M M C u   ",
"  e b b b b b m c m m m x m n m m n m x n n n S a @ g S N N N N n B n n n n N N N n N N N S C B S F 4 u G S G G G G H K K I K I Y I I Y T T T T T W G x ! E Y T T Y Y Y Y K Y K K I K K H H G G G F F S 5 t G A S C C n C N n N N N N N M N N N M V M C M A p   ",
"  6 n x b x n b m c n n m n m m n n n m n n n S a $ d S N S N N n n n m n N C N N N V S C N S S F F < p G F G G H H K K Y K K Y I I T Y T T T T W _ H d _ W T E T T T T T K K Y I I K K K K H G G G D F 5 q H C S B N N S N N n N N N N n N N N N V C N C C i   ",
"  e n m b b n n m n m c n n C n n x n n n n C H a $ h F N N N C C C N C N N C N C N N N C S S F F G 4 a H H D H G H K K K U U Y I Y Y T T T ! T Y _ H b _ W T ! T E T T T U K U Y I Y K K K H H D D H F 5 y H F S S S S N N C N N C N N N N b C N N N V V A p   ",
"  e n b x n b b n n m n n n n n n n n m n C V H a O h F C C S n C n n C C N N C N C S C S B F F D G 4 a H D H H H K I I Y Y T Y Y Y T T T ! T ! T _ G d _ E T T T T E T T T U Y Y Y Y K K K H H H G D F 4 r P F F S S C C C N S C N C N C N C N C C C C C A p   ",
"  e m n n m n n n n n m C n C n n n C n V C V K a O j F S C C S C n C C C B B C C C C C S S F F G G < a K H H H K K G S V V V V n N S G K T T ! W _ G c _ Q ! E Q ! Q T U U T U T T K Y I K K H H H H H 5 r P F F S S S C C C N C C S N C N N C C N C C C A p   ",
"  e n c n n n n n n C n N S n N V V V V V S V K d + x S S S V S n n S S S S S S S B S S S S H H G G 4 a I H H S n x j d x d c d x x c c c c V J _ ` K d ` Q Q Q W W E W E T T T Y T T I I I I H H H H G < e I G S S S B S S S B S B S B n S n S N S S S S S a o ",
"  e n n m n n n B n N n S n S S V V S S V S S K i + x S S S S S S S S S S S S S S S S S S H H S H H 4 a I V l j d d d j x d x x x c c c c c c c d K J d ` _ Q Q ! ! ! W T T T T T T Y I I Y I H H H H H 6 e Y G H S H F S S S S S S S S S S S N N S S S n S i   ",
"  e S n n S V V C n C n S S S n V D S D S D D Y a + x K S H S S S S S S S S S S S S S S H H H S K H < a n d l d d j j l x x d c x c c c c c c c c V d d ` _ _ _ ! ! ! _ Q Q W W T T T Y I I I I K H K H < e Y G S H H G F S S S S S S S S S S S S S S S S H i   ",
"  e S C n S S S C C S S S S S S S D D D H D H T a + x K S S H H H S S S S S H S S S H H H H H H I K , 6 d d j d x x d x c d n n x c c c c V V c c V d 7 V _ _ ` _ _ W _ ! ! ! ! _ T T T Y Y Y Y I I I K 6 u T H H H H H H S G S G S S S S S S H S H S H S K a   ",
"  e S S S S S S S S S S S H S H D D D D D D D T d o n K S K H S S H H H H H H H H H H H H H I H I C % 6 c h x h x j x x x v c c c n c n c V c V V V d 7 V Z ` ` _ ` ` ! ` _ ! ! ! T T T Y T T Y Y I K Y < u W K K K I H H G G G H G H F F H S F S S H H H K i   ",
"  i S S S S S S S H S S S H H H K D K D K K K Q d o n Y H H K H H H H H H H K K H H H H H I I I S x % 6 x j x x x x c x c b c c n c V V V V V V V Z d i D V Z ` ` ` ` ` ] ` ` ^ _ _ _ ! W W Y E T T T I < u W Y H K H I K H K H H H H H H H H H K H H H H Y a   ",
"  u H S G G H G H H H H H K K K K K K K K K K _ a + n Y K K K H K H K H H K K K H Y Y Y Y Y Y B x x % 6 c x x c x c c c C G Y Y K H S c V V V V Z J d i J V V Z [ ` ` { ` ` ` ` _ ! _ T W ~ W W W T W Y < u _ Y Y Y I I I I I H K K K K H H H K K K K K K Y i   ",
"  i H H H H H H H H H K K Y K K K K U K U U K _ d o n Y Y Y Y K Y Y Y Y Y Y Y Y Y Y Y Y Y Y H j c x + e b c b c v n H ^ _ _ ` ` ` ` { _ J Z V Z Z J d i D Z Z Z T { ` ` { ` ` ` ` _ _ _ ^ ^ ^ ~ ^ ! W T < a _ Y Y Y Y Y Y Y Y I Y Y Y Y Y Y Y K K K K K Y Y a   ",
"o i K K K K K K H K K Y Y Y Y K U U U K U U T ` s o Z ! Y U Y Y Y Y Y Y Y Y Y Y Y Y Y Y W Y m x b c % 7 n c c n G ^ ( / / / ) [ { { { { { ` K Z D J d a D Z Z Z V / ] { { { { [ ] ` ` _ ^ ^ ^ ^ _ W W T , a [ E T Y T E T R Y Y I Y Y Y Y Y Y Y Y Y Y Y Y T i   ",
"o d Y K K Y Y Y K Y Y K Y T T T U U U U U Q T ` d o Z ! T Y T Y W Y Y W W T T W W Y Y W W S x x n c % e n c b U ^ ( ) / [ [ [ { { { { { { { { T D K d d U D D Z Z J { { { { [ [ [ ] ] ] ' ' ] ^ _ _ _ W , a { W W T E E T T T R W Y W T W Y Y Y Y Y Y Y Y _ d   ",
"o d Y Y Y Y Y Y Y Y ! ! T T ! ! Q U T T Q U T ` s o D _ T T T T Y W W T W W W Y W W W W Y m m x n c + 7 V c I _ ] ] / ] [ [ [ [ { { ..{ { ..{ ..T K d i K D D D Z D ! | | { { [ [ [ ] ] ] _ / _ _ _ _ ! , a { W W W E W W E E E Y W W T Y W W T W T T T W ! i   ",
"o d ! Y Y Y Y Y Y ! ! Y ! T ! ! Q Q Q Q Q Q _ ` d . D _ T T E T T W Y W W W ! W W W W W H n x x n n % r C H _ _ ' ] [ ) [ [ { [ { { { ....{ ......_ d s U D D D D Z D |  .{ { [ { [ { ] ] ` ] ( _ _ _ ^ , a | _ W W W W W W W W W W W W Y W T T T T T ! Y _ a   ",
"  d W T W Y T Y Y ! ! ! ! ! ! ! ! ! Q ! ! E ! ] a o D _ W E ! W W T T _ W W _ W W _ _ W x n x n C c + r F ^ ] ] ` ` ] { | [ | | ........{ ........#.d a T K D Z D Z V `  . .| | { { { { ] ] ] ' ] _ ' ^ , a  .' _ _ ^ ^ W ^ W W W _ W W ! W T T W W W T ! _ s   ",
"  d _ T Y Y W W W ! Y W ! ! ! ! ! ! ! ! ! ! _ { d o H ] W ! ! W W _ T _ _ W W W W W _ H x n x n Z b % e W ' ] ] ] ] [ [ [ |  .| ..................&.J d _ K K J J D D _  . . . .| | { { { ] ] ] ] ] ] ^ , d X.] _ _ ' ^ _ ' ^ ^ ^ W ! _ _ ! W _ W ! ! W ! _ s   ",
"  d _ T ! ! ! W W ! ! W _ _ _ ! / ! ! _ _ ! _ [ s . H ] ^ W ~ ^ W ! _ W W _ W _ _ _ _ x n n n n Z b $ a { ] ] ] ] [ [ { [ [  .............%.....#.*.K a U K K J J D D D ...... .| | { { [ ] ] ] ] ] ] ^ , a X.' _ _ _ _ W W ( ^ ! _ W ^ W W W ! ! ! W ! ! { i   ",
"  d _ T ! W W ! W W ! _ ! ! _ _ ` ! ` ! _ _ _ { s . K ] ^ ^ ^ ^ _ _ W _ _ W _ W W _ W x n n n n C b + h | ] [ ] { [ [ { |  . .................&...%._ d Q U K K K K J J ` ........| | { [ { | ] { ' { ' * d X.' _ ' ' _ _ _ _ W W ^ W _ _ _ W W _ _ _ ! _ _ a   ",
"  d _ ! ! W ^ ! ! ! ^ ^ ^ ` ! ` ` / / ` / / / { s   K { ! / _ ^ W _ ! _ _ _ W _ ( ' G b n n V n S N + c { ] { [ X.| }  . . . .X...........#.#...#.*.^ n W I I H K J J J ! o.o. . . . .| { { | [ [ [ [ ^ : h o.] ] ] ' ' ] ^ ' ^ ^ ^ _ _ _ ^ ^ ' ^ ^ ^ ^ _ [ i   ",
"  x _ ! W _ ^ ^ / ^ ^ / ` ! / ^ _ _ / ` / / ` { s . K { / / ^ ^ W _ ! _ _ _ _ _ ^ ] V n n V n n D n % b | ] [ { )  .} .. . ...o...%...%.....#.#.#.*.^ C ^ Y K I K G D J K o.o.o... .|  .| | | [ { ] [ ^ * h o.] ' ] ] ] _ ' ] ^ ^ _ _ ^ ^ ! ^ ^ ^ ^ / ^ ` [ i   ",
"  c ] ! ! ^ _ _ ` ! ! ` ` _ ` / / / ` ` ` ` ` { a . K [ ! ! / ^ _ _ _ ! ! W W _ ) ~ V b n V N N D b % b | [ { | )  .|  . . . .X...%.......#...#.$.*.T d ! Y I I K J J G J ..o.o. . ..... .| } | { ] { ^ * h o.] ] ] ] ' ' ^ ] ^ _ _ W ^ ^ ' ^ ^ ( ^ ^ ^ / [ p   ",
"  d ] _ ^ ! _ _ ^ _ ! ! ` ` ` ` ` / ` ` ` ` `  .s X K [ / / ^ / _ _ _ _ _ _ _ _ / U b V n n n V D n * b | ] ] |  . .)  . . . .X.......%.#...#.#.$.#.n s _ Y I I K J J J J [ o... . . . .| | } | [ [ { ^ * h o.[ ] ] ] ] ' ] ( ] _ _ ^ _ ^ ` ] _ ^ ^ _ ^ / [ p   ",
"  l ` ! _ _ _ _ ^ _ / / / / ` ` ` ` / / ` / `  .s . K [ / ^ / / _ _ _ _ _ W _ _ ) H b b V V V V Z C - V | ) [ { )  .)  .) X.X.X...%...#...$.#.#.) ( c d ^ Y Y K J I J J G ) X.X.X. . .| } } [ } [ ] [ ^ * h o.] ] ' [ ' ) ' ] ( _ _ ' ^ _ _ ` ` / ( / / / [ i   ",
"  c ` ! ! ! _ ! ! / / / ! / _ / ^ ! ! / / / ` { a X K [ / / / ^ _ _ ^ _ _ _ _ _ / C b V N b V V Z J % V | [ [ {  . . . .X.| X.X.......#...#...! U ^ x a ^ Y Y I U J J J J Q X.X. . . .} } | } } [ ] [ / * j o.[ [ ' ] ' ] ( ' ` ' ^ ^ _ _ W ^ / / / / / / [ i   ",
"  c ` ! ! _ _ ! _ ^ ` ` / ! ! / ! / _ / ! / / { a X U ] ^ / / / _ _ ^ W _ ^ W _ / b b V V N b C G I & b | [ [ )  .) ) X.X.X.| X.........#.{ K U I ^ c g ~ T Y K I J J L G L X. . . . .| [ [ } [ [ [ [ ^ & h X.[ } ' ] ' ] ( ) ( _ ^ ^ ' ^ _ _ ` ! / / / / ) w   ",
"  l _ Q Q ! ! T ! ! ! ! ! ` / / / ` ` ! / / ` { p X J [ ! ^ ) ^ ! _ ^ ^ W ^ W _ Q n b b b V V C Z E & V | ) ) [ ) )  .) X.) | X.....#..._ H K K I ~ c g ! K Y K J J J Z Z J X. . . .| | } [ [ ] ) ) } Q ; j +.} ] ] [ ] ) ) ^ ) _ ^ ^ ^ ^ W ^ ^ / ) / ! / / i   ",
"  c ! Q Q Q Q Q Q Q Q Q ! ^ _ ^ ! / ! ! ^ ! / | a X J ` ^ ~ ^ ^ ! ! W ! ^ ^ ^ ^ T b b b V V b V Z T & b | ( ] ] ] [ [ } X.X.| |  . .} P Z J J J I ~ c p ^ J I J J Z F J Z A }  . . . .} [ [ [ ) ) ) [ ~ = l o.[ ] ) ] ' ) ( ) ( ^ ( ( ^ ~ ^ / ^ ^ ^ ^ ^ ^ ) y   ",
"  l ! Q Q Q Q Q Q T T Q ! ! ! ! ! ! ^ ! ! ! / } i O K / ~ Q ^ W ! _ W ^ ~ ~ ^ ~ H b n n b n V V A ^ - V | ] ) ) ] ] ) [ ) | | X. .^ Z G G G J J P ~ z s ^ I J J J J J Z Z Z ) X. . .[ } ) [ ) ) ) ) ] ^ & l o.) ] ) ) ) ^ ) ^ ^ ~ ~ W ^ ( Q ^ ^ Q Q Q Q Q / y   ",
"  l Q U T K T T K Q T T T Q T E Q Q T T T Q ! { i X J / T Q W Q Q W W W W E E E J c c c b b c n A Q & C } ^ ( ^ ^ ) ) [ | X.X.} U Z Z G Z G Z L J ~ l p X.| J G G Z Z A Z L )  .} } } ) ) ) ( ^ ) ( ) Q & l  .) ( ^ ^ ( ^ ~ ^ Q W W Q ~ R Q Q ~ ~ Q Q W Q / w   ",
"  k E U K U K U T K U U U U T T T T T U T T E ] p X J ! T E T T T E T T T T T T D z x z x c c b Z W % c ' ~ ~ Q ~ ( ) ) ) ) ^ Z Z Z Z Z Z Z Z J G U c V &.{ G Z G F Z Z Z A ) | } } } ) ) ) ( ~ ^ ^ ( E & h  .) ^ ^ ^ ~ Q W E T E U T E E R E T ~ E W R Q ! 7   ",
"  k U K K K K K K K U K U U U Y T T U K U U T ] u O G Q U T T U K T T Y T K Y Y b z z l z c x c G T % g Q Q E E ^ ( ^ ) ) U V C C Z C Z C C Z Z Z ) I Z %.} Z Z A Z Z Z Z Z Q | ) ) } / ^ ) ~ ~ W Q Q Z @ z | ~ Q E E E T T T U U U U R U U T U U U U U U ~ 7   ",
"  g K G G J G G J J G K J K J K J J J K K G U _ u O D E K K U U K U K U I K Y K n d l k l k l l A U & g W E T E ~ ~ ( ~ C V V V V C C C A Z Z C ~ +.I Z @.X.Z Z Z Z C V V V R ) ) ) / / ( ~ ~ W T T E A + h ] W T R U U U I U I I I I I I I U U U U U U U ~ 5   ",
"  s G D D A F G D G G G G G G G G G G G D H H W r o Z U K K U K K K J K K H K G x d d g l h h l C I % g T T T T E ~ I V c c V V V V V V V V Z ^  .O.Z C O. .C C V V V V V V U ) ) ^ / / ~ ~ E E T T T A % h ) R I I I I H K K H K K H H J I K P U U I J I U 5   ",
"  s A A C C C A S S F D G D F D D F D D D D H E r O C K J J G G J G G G G G G G z s s g s d d h b J % l T U U U U Z z v c v v c v c V V V Z ) [ ) X.J V X.[ C V V V V V M M I ^ ~ ~ ~ Q ~ E U U U U U A % h ^ U I H H H H H H G G G G H H H J G H J J J J J 5   ",
"  a A M N C B C C C C C A A A A C C C C C A Z R y X V P S G G G G L G A A G G Z k s s s s s s s b G % l R K I J b x z z z z c c c c b b J ) ) ) )  .Z C X.) V V N b b b c v J Q W T E T T T U I I I I A + g Q P L A L L A L A A L G Z L L Z L J G G G G G J 4   ",
"  p A M M M M M N C C C C N C N B C m C N C A R y X M G A F F F A Z Z A Z Z A A h p a a s s s s b D % k U J C g h k k l l l l z z c c J ~ Q ^ ^ ^  .V V } ) b c c c x c c c G T T U U U U I I J H H I C # g R G L F Z Z A Z C A Z A Z A A A Z A Z G G A A G 2   ",
"  p M M M M m b m N N N N N N N N M N N N N C L q O M G C C A C C C C C C A C C g a a a u a a a x S & g H v s g d d g k k h k k l c U E T E E E ~ ) M b ) ~ c z x c z c z z Z U I I I I I J P J G G I C # g U G A A A A A C C C C A C C A A C A A A C A Z Z <   ",
"  p m b b m m m m N v N N v m m m M m M m M m L w O v A N C N N N N B N N m N C a u i u i i a a j N % a z a s g g s s d d g g g V I I P U U U U U ~ M z ( U l z z k l k k k C G H H H G G L G L G F G m % f L C C C V C C N M C C N N B M M C C B N C N A C >   ",
"  i z z v v v v z m m m m m v m v b b v m m m F 7 O l N M M M M N m b b M m M v s r i r i r p a h M % 7 s p i p a s a s g s g C L J J P J I I I J W v x ~ J k l k g k g g g C G G Z A G A G A Z A C G M + a G B B M M M N m m m m M M M M M M V V M M M N B -   ",
"  y z z z z z z z z z z z v z v z v v z v z z A 6 O j N v m b b m m v v v m v m g r r r r r r r u f @ 4 f i p p a p p p p h C Z Z Z A L G G L P L E v z R A g g s k f g s s M Z G Z A C A A A C C N A z % a F M M m M m m m m v b v v b m b m M m M M m m M -   ",
"  y z j z z j j z j z z z z z j z z z j j m z C 5 @ h N v v v b v v v v v j v x a w r r r i r e a w O 4 a p u i p a p p k A A A A A A A Z G G G G U l j U C g g s s s a p s M A A C C C C C C M N N B z # f A M v m m m v v v v v v v v v v v b v v b v b b >   ",
"  y j j h h j h h h j j j j z j j j j j j j z N 5 X h v v j v j z z z z j j j j a w w w 7 e e e r w O 4 i u r u u i i c M C M C C C A A A Z A A C L l h L c s p p s p p s p C C B N N N N B M M b m N h # p N v v v z z z z j j z j j j z z v z z v v z v c -   ",
"  9 h f h j h h j j f j h h j f h h j j h j f m 5 o g x j j j j l z j j j j j j f q e q q q e 7 w e $ < u r r r u p v N N M m M M N N N M C C A N G l l G z p a p i i p p y V M M M M M M m m m m m M h $ a N z z j j j j j j j f j j j j j j j z z j j j z -   ",
"  q f f f f f f f f f f g f f f f j f j h h j m 5 O a x j h j j h h f j j f g f s q q q 7 q e e w 7 O < r w w r g M v v m v b b M M M M M C M V N A h h A g p i p i p i i p M M M M b m m m m v z v b s $ p m j z j j h h j j f j h h j j f j j j j h j j j -   ",
"  7 s f f f f f f a f f f f f f f f j f j f f m 4 O a h g g j f h j f h h h f h g q 6 6 6 q q q q 6 $ < r y w h v v v v v v m b M m M v M M M M M C g g A p u p i r y i y s v m v v m z z m m v j z v a $ u m j j h h h j f j f f f h f f h h h k h h h g k -   ",
"  9 a a a a a a f a a a f a a f f f f f f f f j 0 O a h g g f f f f h f f f f f a q 6 6 6 6 6 6 7 0 O , w r h l j z z j z z v c v v v v m m M m M N f f C r r r w i y w r g z v v z z z z z j j j z z a $ u j h g g h f f f f f f h h f f f g f f f f g g a =   ",
". 8 a a a f u a f a a f a f u a a a f f f f f j 4 O a d f f f f f f f f f f f a s e 6 6 6 0 6 0 6 6 @ , a j h h j h j j j j j z z v z v z v m v b M a a z y y r i w w y t k j j z z z k j j j j j g z u # y j g h f f f f f f f f f f f f f f f f f f f f f =   ",
"  8 u p p p a u u a u u u u f a a a a f p f u j 4 O p a a a a a f f f f a f f a a e 4 6 6 4 6 5 6 5 O 4 g a f h j f g g j g j j k z j j z z z v z m f g g w w w y y w 7 t j z j h h z g j f f h g f g y $ u j f f f f f f f a a f f a f f f f f f a f a f f #   ",
"  4 u u u a t p u u u a u u u a t f a u u a f f , O u a a a a p u a a u a f u a a u 4 6 < 6 5 5 6 4 @ 6 h f f f f f g f f g j f h j j k z z v z z v f a i q w 7 q q 7 q y g h h f h g g f f f f f f f t # r h f f f a f f a a f f u u a a a a a a p a a p p #   ",
"  4 t u t u u t u u t u u u a u u t a t a f u f , @ e a u u u p a u f u u u u u u u 6 4 4 4 4 5 5 4 @ 4 f a a f f f f f f f f f g g g h h g j z k v p i y w 7 w 7 q 9 9 p g h f f f f f f f f f f f f t @ r f a f a f u u a u u u f u u p p p a u a p p p p #   ",
"  3 e e e u e e u r r r r u r u u u e u u u u f 3 O e a p u u u u u f u u p p u y u 6 4 4 4 4 4 4 4 O < a a a f a f a a f a a f f f f f f j j f h j a q t q q q 6 6 6 0 a f f f f f f a a a a a p a a q # e f p a u p p u u p u u u u u u p u u u u p p u u $   ",
"  2 t q e e e e e e r e e r r r e e e u u u u a , O e u r u u u t u u t y u u u u u q , < 4 4 < 4 < O 1 a p u p u u u a a f a u f f f f f f f f g j u 4 q 6 6 6 6 6 6 6 f f a a a a u a a u a f u a a q # t f p a p u u u u u r t a a t u u u u u u r u u e $   ",
"  , q 7 q e q e e e e e e e e e e e e e u u u a , O q u r r r r u u t u r y r r e y r 3 3 < 4 < 4 < O & u u u u a u u u a u u p p f f f f f j f f h q 4 6 6 6 6 4 5 5 r f f a a u f p p u u u u u u a 0 @ t p u u t u y u e r r t u t t y u r u u u e e r e @   ",
"  , e q e 6 e e q e 7 q q q e e e e e e e e e a , O 0 e r e e e u t t t e r r e e e u 5 , , 4 < 4 4 O ; 5 u u u u u u u u a p p p f p f p f f f f f 4 < q 4 4 6 6 4 4 a a f p p p u p u t a u u u u p 4 # e a u u u e u e u r r u t u t e e u r t e e u r q $   ",
"  < 6 6 q e 6 6 6 e 6 e q q e e e e 6 e e e e u , o 0 e e e e e t t e e e r e e q e e 7 < , < , < < @ % 4 6 e u u u u r u p u p u f p f f u f f f r < 4 6 5 4 5 0 3 q a a u a u u u u y r u u y t r u 5 $ q u u u u e e e w e q e t e q e e r e e e e e e q O   ",
"  , 6 0 6 q q 0 q 6 q 6 q 6 6 q e 6 e 6 e e e a , o 5 e e q q e e e q q q e q q e e e e 4 > 2 < , 1 O = < , q r u t y e u u u u u u p f u f p f y 6 3 < 6 5 6 4 3 8 a a u a a t u u r e r r u r e u u 4 # t u r u t e e e e q e 0 e e e e q e r e q e e e 6 @   ",
"  > 5 5 0 6 6 6 6 6 6 0 6 0 6 q e 0 0 q 6 e 0 u 1 O 0 q q q q e q q q q q e q q q q q q 6 , 1 > < 2 O & < , > 6 t t e e e u r u u f f u u f f t 4 6 3 < 4 4 4 5 0 e u a u f t t y u r q e y r r q r e 4 $ t r r r r e t e q q q e e q q q q q q q 6 e e q 4 O   ",
"  1 5 5 0 6 q 6 0 6 0 6 6 5 5 0 6 6 0 6 6 6 e u ; o 4 q 7 q 6 q e q q q q q 6 q q q q 7 q < 1 > > , O % , : : > 0 u 0 t e y e y u t u u u u 9 8 4 4 3 < 6 4 4 4 0 p f u u u u t r r r q t e r w q t e < $ q y r w q q q q q q q 0 q q 0 q q q e 7 q 6 q 6 5 @   ",
"  , < 0 < 0 0 0 6 6 4 6 4 4 6 0 0 < 6 6 6 0 0 e ; O < 0 6 6 6 6 6 0 0 6 6 6 0 0 0 q q q 6 6 , 1 , 1 O % 1 > : > 1 < 4 q q y q y y y u p t 4 < 4 4 5 > < 4 4 5 4 e u u u p u y t y y t 9 q q t q q q q < $ q y t e 7 q q 6 q 0 0 0 6 6 q q q 6 q 6 q 0 6 6 6 O   ",
"  , < 0 6 6 < 6 4 6 6 4 6 6 0 < 6 0 6 0 0 6 6 u , O 4 q 6 0 0 0 q 0 6 0 0 0 5 0 0 5 0 6 q q 5 > : : O % > : : : > : : > 5 9 w 9 t t 8 8 4 < 4 < 4 4 2 2 4 4 < y u p u u u y y t y q q q q q q q q t q 1 % q y q q q 6 6 q 0 0 0 6 6 q 0 6 q 6 6 0 5 6 0 0 4 O   ",
"  , < < 0 < < < < 4 6 6 0 6 6 < < 6 0 6 < 0 0 e ; O < 0 q 6 0 4 0 0 5 5 0 0 4 6 0 5 0 0 5 q q 4 3 : O % : : * : : : : : : : - : 2 2 1 3 < 2 < 4 < 4 2 2 4 > 6 u u u u u y y q q y q q q q q q q q q 6 : # q q q e q 0 0 5 0 0 5 6 4 0 0 4 0 0 6 0 5 6 6 6 < O   ",
"  * 0 < < 0 0 < 4 < < 4 < < < 0 0 4 < < 6 6 < e , o , 0 4 6 4 6 0 6 6 4 6 0 6 5 4 0 5 0 6 q q q 4 : O % & : ; * : : - > : : > : - 1 1 1 2 2 > < < < 1 1 4 q u u t u t t y y q q q q 9 9 8 q q q 6 q q : # q q q q 6 0 0 5 0 4 5 4 0 4 6 4 6 6 0 0 4 4 0 0 , o   ",
"  ; , 0 0 < , < < , , 0 0 , < < 4 4 6 0 5 4 4 u : O , 5 0 4 4 0 0 5 4 4 0 4 4 4 5 4 5 4 4 q q q 8 8 o # ; * : % * : - : : : : : 2 - > > 1 > > > > 4 : 1 q u r y y t t t q t q q q q q 8 8 q q 4 6 q 4 : # 0 q q q 0 0 5 0 4 4 6 4 6 4 6 4 0 6 0 6 4 5 0 6 , O   ",
"  * , , < , < , 0 6 < 0 < 0 6 < < 4 < 4 4 0 5 e * o , 4 0 4 , 4 5 4 4 4 4 5 4 4 0 5 4 5 q 8 8 q t q # # : : * : * ; : % : : > - 2 - : : : 1 > 1 2 2 2 q y y y y t t t q q q 0 q q q 9 9 0 5 q 4 4 4 q : # q t q 0 0 0 5 4 4 6 0 4 4 0 , 4 6 4 4 4 4 4 0 4 , O   ",
"  * , 4 < 4 , < , < < < 4 < 0 , 4 4 , 6 4 4 5 q ; O > 4 6 , < 4 4 6 4 < 4 4 4 4 4 4 4 5 4 8 8 q q q % : 1 * ; * : ; : * 1 - - - - 1 1 1 : : > 1 2 8 t t y t q t t q q q t t 8 q 9 9 9 8 8 4 6 q q 4 8 ; = 9 0 q 0 0 0 4 4 6 4 4 4 4 4 4 4 4 4 4 4 , < 4 < > O   ",
"  * , , < , 4 , 4 < 4 < , 0 < < 4 , , < 4 4 4 e * o > 4 4 < 4 4 < 4 4 4 4 4 3 4 4 4 4 4 8 4 8 q q q % : 4 4 > : & * : = - - 1 - - 1 1 - : : > 8 q t t q y t t q q q q t q 8 8 q 9 9 9 5 8 q 0 4 4 8 8 = # t t 8 0 0 4 0 4 , 4 4 4 4 4 < < 4 4 5 4 , 4 4 4 > o   ",
"  ; , , , < , < 3 4 < 3 < 4 4 < 4 4 , 4 < 3 4 e ; O 1 4 < < < 4 8 3 8 3 3 8 3 8 3 3 2 8 8 8 8 9 9 t @ - 2 8 8 8 2 2 2 1 - - - - 1 1 2 8 8 8 t t 8 t 8 t t 9 8 t t 9 8 t 8 t 8 t 8 8 8 8 8 8 8 8 q 4 4 - # q q q 8 9 8 4 4 4 8 4 2 4 2 3 < 4 4 4 3 < 3 4 < : O   ",
"  ; , , , , , , < < 3 < < 3 4 , , , < < 4 4 4 q ; o : < 4 , 3 3 3 3 1 3 3 3 2 8 8 8 8 2 8 8 8 9 9 9 = - 4 8 4 8 8 8 8 8 8 9 9 9 8 9 9 9 8 t 9 9 t t t t t t 9 t 9 t 9 8 t 8 8 8 8 8 8 8 8 3 8 8 0 4 4 = % q t 0 9 8 4 4 8 2 4 4 4 4 4 4 4 < 4 4 , 3 4 < 4 : o   ",
"  ; , * , , , , , , , , 3 3 , 4 3 , 3 4 4 < 3 q ; o 1 3 4 < 3 3 8 1 1 8 3 3 8 3 8 2 1 8 8 8 8 8 t t = - 4 4 8 4 8 8 8 8 8 8 8 8 8 8 9 9 8 9 t 9 8 t t t t 8 9 t 8 8 8 t 8 8 8 8 8 8 8 3 8 8 8 8 8 4 4 = = 0 8 8 8 2 8 8 2 4 8 4 4 3 2 2 4 3 3 3 < 2 3 4 < : O   ",
"  ; , , , ; , , , , , > , < , , , , 3 , 3 < 4 q ; O 1 < 3 > , , 8 1 1 1 3 3 1 2 2 2 8 2 2 8 8 8 9 9 @ = 2 2 8 8 8 3 8 8 8 8 8 8 8 8 9 8 8 8 9 9 8 t t t 9 8 8 t 8 9 8 8 8 8 8 8 8 8 8 8 8 3 3 8 4 4 4 = # t q 8 8 8 8 8 2 8 2 2 2 3 < 3 3 3 3 4 3 3 , < < : o   ",
"  ; * , , , ; , , , : : , , , , , 3 3 , 3 4 4 0 % O : , 3 2 : 3 8 1 1 1 1 8 1 3 2 2 2 8 8 8 8 8 q 9 + = 4 4 4 8 2 8 8 8 8 2 8 8 8 9 8 8 8 8 8 9 8 t t 8 t 8 8 8 8 8 9 9 8 8 8 8 8 8 8 8 8 3 8 8 4 2 2 = # 0 0 0 8 8 2 2 1 8 3 2 3 2 3 3 3 3 3 < < 1 1 3 2 : o   ",
"  ; ; , , , , ; : 3 , , , : 3 2 , , 1 , , , 3 0 ; X : 3 2 2 1 , 1 8 1 1 1 1 1 3 2 2 2 2 3 3 2 8 8 8 + = > 2 4 4 2 8 2 8 8 8 2 8 8 8 8 8 8 8 8 8 8 9 8 t 8 8 8 8 8 8 8 8 3 8 8 8 8 8 1 8 3 8 3 8 4 2 1 = # 8 q 8 8 8 2 2 2 1 8 2 : 3 3 , , 1 3 < 2 1 < , 1 ; O   ",
"  % ; , , , , * : , 3 : : , < 2 , 1 , 3 3 3 < 0 ; O ; , 1 > 1 , 1 1 3 1 1 3 3 3 8 2 2 8 8 8 8 8 9 8 @ = 2 2 4 4 2 2 8 2 8 2 8 8 8 8 8 8 8 8 8 8 8 8 8 t 8 8 8 2 8 8 8 8 8 8 8 8 8 3 8 8 8 1 1 8 4 2 1 = = 9 8 8 8 2 2 2 2 2 3 2 2 3 , , 2 3 3 > 1 1 1 , 1 ; .   ",
"  ; , ; , , , , : , : : 2 , , 1 1 3 3 3 < 3 3 0 & X & > 1 1 1 1 1 1 1 3 3 1 1 1 2 2 2 2 3 3 8 8 9 8 @ = 1 2 2 8 8 2 2 8 3 8 3 8 8 2 8 2 8 8 8 8 8 8 8 8 8 8 8 8 8 8 2 8 8 8 3 8 3 8 1 8 8 1 8 8 2 1 - = @ 9 8 8 8 2 8 8 1 8 1 3 : 3 2 1 : 3 1 1 1 1 : > 1 = O   ",
"  ; , * : , 1 : 3 , , 1 : 3 3 3 3 1 1 1 2 8 3 8 ; O : 1 1 1 1 : 1 1 1 1 1 1 1 1 1 8 1 8 8 3 8 3 9 8 = = 1 1 3 2 8 8 8 1 8 3 3 8 2 2 2 2 8 8 2 8 8 8 8 8 8 8 8 8 8 2 1 8 2 2 8 8 3 8 3 8 3 1 8 1 2 1 1 # @ 9 8 8 3 8 3 3 3 3 2 1 1 2 1 1 1 1 1 1 1 1 : 2 1 : o   ",
"  % , ; 1 1 ; : : 3 3 : : 2 3 , , 3 1 2 2 3 3 8 % O - : 2 : 2 1 1 1 1 8 8 1 1 1 1 1 1 3 1 8 3 8 8 8 O = 1 1 3 2 2 2 2 8 8 3 3 8 8 8 8 2 8 8 8 2 8 8 8 8 8 8 8 2 8 8 8 3 8 8 8 1 8 3 8 1 1 8 1 8 2 2 2 # = 8 8 3 8 3 3 3 3 3 3 3 1 1 3 2 2 1 1 1 1 > : 1 : = X   ",
"  ; ; , : , , ; 1 1 : , , 3 1 , : 3 1 2 2 3 3 8 ; O % 2 1 1 1 1 1 1 1 1 1 1 1 1 1 1 3 3 1 8 8 3 8 8 @ = 3 1 1 8 3 3 2 8 3 3 3 3 2 8 2 8 8 2 2 8 1 8 8 8 8 8 2 8 2 2 8 8 8 2 3 3 3 8 3 8 8 1 8 8 1 1 1 $ = 3 8 3 8 3 3 3 2 2 1 2 1 1 1 1 1 2 2 1 1 2 : 2 2 % O   ",
"  ; ; ; 1 , ; : : , 1 1 1 1 1 1 3 : 1 1 3 3 3 8 : o : 1 2 1 1 : 1 1 1 1 1 1 1 1 1 8 3 3 3 3 8 3 8 8 O = - 1 1 3 3 3 2 2 8 3 3 2 8 2 2 2 1 8 8 1 8 8 8 8 8 2 2 8 2 8 1 3 2 8 3 2 3 3 3 8 1 1 1 1 1 : 1 # = 8 8 3 3 8 3 3 2 2 2 1 1 2 1 2 1 1 1 1 : 2 1 2 2 = .   ",
"  % , : , , : : : 3 , 1 1 1 1 3 1 1 3 1 1 1 3 8 = O = 1 1 1 1 : 1 1 1 1 1 1 1 1 1 1 8 1 1 1 8 3 3 8 O = = = 3 3 1 1 8 3 3 3 2 3 3 2 2 3 3 3 3 3 8 2 8 8 8 8 1 8 3 3 3 3 2 2 2 2 1 8 1 3 1 1 1 1 1 1 ; $ $ 0 3 8 3 3 3 3 3 3 2 1 1 1 1 1 1 2 1 1 1 1 1 1 : = .   ",
"  % ; ; 1 : ; 1 : 1 1 ; 1 1 ; 1 1 1 1 1 1 2 2 8 ; . = 1 1 1 1 1 1 1 1 1 1 1 1 1 1 1 1 3 8 1 1 8 8 8 o = - 1 - 3 3 1 3 3 3 3 3 2 3 8 2 3 8 1 1 8 2 2 8 8 1 1 1 3 3 8 3 3 2 8 3 1 1 8 8 3 8 1 1 1 1 ; ; @ = 9 3 8 3 8 3 3 3 1 1 1 1 1 1 1 1 1 1 ; ; 1 1 1 1 # o   ",
"  ; ; , : 1 ; : 1 1 1 1 1 1 ; 1 1 , 1 1 1 2 2 8 = o = 1 1 1 : 1 1 1 1 1 1 3 1 1 3 1 3 3 1 1 1 8 3 8 = = 1 ; 3 3 1 1 3 3 3 3 3 2 3 3 3 3 3 2 3 2 1 8 8 8 1 8 8 1 3 8 3 3 1 8 1 2 1 1 1 8 1 1 1 1 : ; 1 @ $ 8 3 3 3 1 3 3 3 1 1 1 1 2 1 1 1 1 1 ; 1 1 1 2 1 = o   ",
"  % , ; , 1 1 ; : , 1 1 1 1 , 1 1 1 1 , 2 1 1 8 ; O = - 1 1 1 1 1 1 1 1 1 1 1 1 1 1 3 3 8 1 1 1 3 8 o = = 1 1 1 1 1 3 3 3 3 2 2 3 3 2 3 3 2 8 2 1 8 8 8 8 1 3 3 3 3 3 3 1 1 8 1 8 1 1 1 1 1 1 1 1 ; ; # = 8 3 3 3 3 3 3 1 1 1 1 1 1 1 1 1 1 1 1 1 1 2 : : # o   ",
"o = ; 1 ; 1 1 1 = 1 1 1 1 1 1 1 1 1 1 1 1 1 1 8 = o = 1 1 1 1 1 1 1 1 1 1 1 1 1 1 1 1 1 1 1 8 8 3 8 # # 1 = 1 1 1 1 3 1 3 1 1 3 3 1 1 3 3 3 1 1 1 8 8 3 3 1 1 8 1 3 1 1 3 8 3 1 1 3 1 3 1 1 1 1 = 1 = # = 8 3 3 1 1 1 1 1 1 1 1 1 1 1 = 1 1 1 1 1 1 1 1 = = o   ",
"o = 1 ; 1 ; 1 = 1 1 1 1 1 1 1 1 1 1 1 1 1 1 1 3 ; o = 1 1 1 ; 1 1 1 1 1 1 1 1 1 1 1 1 1 1 1 1 1 3 3 # # = = 1 = 1 1 1 3 1 1 1 3 3 1 1 3 1 1 1 8 8 1 8 8 1 8 1 1 1 1 1 1 1 1 3 3 1 3 1 3 1 1 1 1 1 = 1 # = 8 3 3 1 1 1 1 1 1 1 1 1 1 1 1 1 1 1 1 = 1 1 1 1 = o   ",
"  = ; 1 1 1 1 1 1 1 1 1 1 1 1 1 1 ; 1 1 1 1 1 3 ; @ = ; 1 1 1 1 1 1 1 1 1 1 1 1 1 1 1 1 1 1 1 1 3 3 # = 1 = 1 1 1 1 1 1 1 1 1 3 3 1 1 1 1 1 1 1 1 8 8 8 1 8 1 1 1 1 1 1 1 3 3 1 1 1 1 1 1 1 1 1 = 1 1 # = 3 3 1 3 3 1 1 1 1 1 = 1 1 1 1 1 1 = 1 1 1 1 1 = = o   ",
"  = 1 ; 1 1 1 = 1 1 1 1 1 1 1 1 1 1 1 1 1 1 1 3 ; o = ; 1 1 1 1 1 1 1 8 1 1 1 1 1 1 1 1 1 1 1 1 3 8 = = = 1 1 = 1 1 1 1 1 1 3 3 1 1 1 1 1 1 1 1 1 1 8 1 1 1 1 1 1 1 1 1 1 3 3 1 1 1 1 1 1 1 1 1 1 = 1 # = 8 3 1 3 3 1 1 1 1 1 1 1 1 1 1 1 1 1 1 1 1 1 1 = = o   ",
"  = = 1 1 1 1 1 = 1 1 1 = 1 1 1 ; 1 ; 1 3 1 1 1 = . = 1 1 1 1 1 1 1 1 1 1 1 1 1 1 1 1 1 1 1 1 1 1 3 # = 1 = 1 1 1 1 1 1 1 1 1 3 1 1 1 1 1 1 1 1 1 1 8 8 1 1 1 8 1 1 1 1 1 1 1 1 1 1 1 1 1 1 1 1 = 1 = # = 1 1 1 1 1 1 1 1 = 1 1 1 1 1 3 3 1 1 1 - 3 3 - = = .   ",
"  = = 1 = 1 1 = 1 1 1 1 1 1 1 1 1 1 1 ; 1 1 1 3 = . = = 1 1 1 1 1 1 1 1 1 1 1 1 1 1 1 1 1 1 1 1 1 3 # = = 1 1 1 1 1 1 1 1 1 1 1 1 1 1 1 1 1 1 1 1 1 8 3 1 1 1 1 1 1 1 1 1 1 1 8 1 1 1 1 1 1 1 1 1 = = # = 8 1 1 1 1 1 1 1 1 1 1 3 1 1 3 1 1 = 1 1 3 3 1 - = .   ",
"  = = 1 1 1 1 1 1 1 1 1 1 1 1 1 ; 1 ; 1 3 ; ; 3 = o = = 1 1 1 1 1 1 1 1 1 1 1 1 1 1 1 1 1 1 1 1 3 3 # # 1 = 1 1 1 1 1 1 1 1 1 1 1 1 1 1 1 1 1 1 1 8 8 1 1 1 1 1 1 1 1 1 1 1 8 1 1 1 1 1 1 1 1 1 1 = = # = 1 1 1 1 1 1 1 1 1 1 1 1 1 1 1 3 1 1 1 1 1 1 = = = o   ",
"  = = 1 1 1 = = 1 1 1 = 1 = 1 1 1 1 1 ; ; 3 1 3 = o = = 1 1 1 1 1 1 1 1 1 1 1 1 1 1 1 1 1 1 1 1 3 1 # # 1 1 1 1 1 1 1 1 1 1 1 1 1 1 1 1 1 1 = 1 1 1 8 8 1 1 1 1 1 1 1 1 1 1 1 1 1 1 1 1 1 1 1 1 1 = = # = 3 1 1 1 1 1 1 1 1 1 1 1 ; 1 3 1 1 1 1 1 1 1 = = = o   ",
"  = 1 1 1 = 1 1 1 1 1 1 1 = 1 1 1 1 1 = 1 1 1 3 = o # 1 1 1 1 1 1 1 1 1 1 1 1 1 1 1 1 1 3 1 1 1 3 3 # # = 1 1 1 = 1 1 1 1 1 1 1 1 1 1 1 = 1 1 = 1 1 8 3 1 1 1 1 1 1 1 1 = 1 1 1 1 1 1 1 1 = 1 1 = 1 = o = 8 1 1 1 1 3 1 1 1 1 1 1 1 1 1 1 1 1 1 1 1 1 = - = .   ",
"  = = 1 1 1 1 = 1 1 = 1 1 1 1 1 1 1 1 1 1 1 1 1 ; o = 1 = 1 1 1 1 1 1 1 1 1 1 1 1 1 1 1 3 3 1 1 3 8 # # 1 = 1 1 1 1 1 1 1 1 1 1 = 1 = 1 1 1 1 1 1 1 8 3 1 1 1 1 1 = = 1 1 1 1 1 1 1 1 1 1 1 = 1 1 = = o # 8 3 1 1 3 1 1 1 1 1 1 1 1 1 1 1 = 1 1 1 1 1 1 1 = .   ",
"  = = ; 1 1 = 1 1 = 1 1 1 1 = 1 1 = 1 1 1 1 1 1 = X = ; 1 1 1 1 1 1 1 1 1 1 1 1 1 1 1 1 1 1 1 1 3 8 # # = 1 1 = = 1 1 1 1 1 1 1 1 = 1 = = 1 1 1 1 1 8 3 1 1 1 1 = 1 1 = 1 = 1 1 = 1 1 1 1 1 1 1 = = = # = 3 1 1 1 1 1 1 1 1 1 1 1 1 1 1 1 1 1 1 1 1 1 ; = = o   ",
"  = ; 1 1 1 1 = 1 1 1 = = 1 1 1 1 1 = 1 1 1 1 3 1 X = = 1 1 1 = 1 1 1 1 1 1 1 1 1 1 1 1 1 1 1 1 3 3 # # = = 1 1 1 = 1 1 1 1 1 1 1 1 1 = = 1 1 = 1 1 8 3 1 1 1 1 1 = 1 1 = 1 1 1 1 = 1 1 1 = = 1 1 = = # = 8 1 1 1 3 1 1 1 1 1 1 = 1 1 1 1 1 1 1 1 1 - 1 = = o   ",
"  = 1 1 1 1 1 1 1 1 1 1 1 1 1 1 1 1 1 1 1 = 1 1 = o # 1 1 1 1 1 1 1 1 1 1 1 1 1 1 1 1 1 1 1 1 8 3 3 # = = 1 1 1 = 1 1 = = 1 1 1 = 1 1 = 1 = 1 1 1 1 8 3 1 1 1 1 1 = 1 1 = 1 1 1 1 = 1 1 1 = 1 1 1 = = # = 8 1 3 1 3 1 3 3 1 1 1 1 1 1 1 3 3 1 1 1 1 1 ; = @ .   ",
"  = = 1 1 1 1 = 1 1 1 1 = 1 1 1 1 1 = 1 1 1 = 1 = o = 1 = 1 1 1 1 1 3 3 1 1 1 1 1 1 1 1 1 1 3 3 8 1 # # 1 = 1 1 1 1 1 1 1 = 1 1 1 1 1 1 1 1 1 1 1 1 8 3 1 = 1 = 1 = 1 = 1 1 1 1 1 = 1 1 1 1 1 1 1 1 = # = 1 3 3 1 1 1 1 3 1 1 1 1 1 1 1 3 3 1 1 1 1 1 1 = = X   ",
"  = 1 1 1 1 1 1 1 = 1 1 1 1 1 1 1 1 1 1 1 1 1 3 1 X = ; 1 1 1 1 1 1 3 1 1 1 1 1 1 3 3 3 1 3 3 3 3 8 # # 1 1 1 1 1 1 = 1 1 1 1 1 1 = 1 1 1 1 1 1 1 1 3 3 1 1 1 = = 1 1 1 1 = 1 = 1 = 1 1 = 1 1 1 = 1 = # = 8 3 3 3 3 3 3 1 1 3 3 1 1 1 1 3 1 1 1 1 1 1 1 = # @   ",
"  = 1 1 3 1 1 1 1 1 1 1 = 1 1 1 1 1 1 = 1 1 = 3 1 X = ; 1 1 1 1 3 1 3 3 3 3 1 3 1 3 3 3 1 3 8 3 3 8 # # 1 1 1 1 1 1 1 1 1 1 1 1 1 1 1 1 1 1 1 1 1 1 3 1 1 1 1 1 1 1 1 1 1 1 1 1 1 1 1 1 1 1 1 1 1 1 1 # = 8 8 3 3 3 3 3 3 1 3 1 1 1 3 1 1 1 1 1 1 1 1 1 = = o   "
};
