/* XPM */
static char *_fdd8488988542db9c792ee2b6461a2dXTTJpqKKgvNTrP45[] = {
/* columns rows colors chars-per-pixel */
"128 128 256 2 ",
"   c #020A3A",
".  c #06133B",
"X  c #0F1032",
"o  c #2D1531",
"O  c #332537",
"+  c #1B1925",
"@  c #510E31",
"#  c #472E39",
"$  c #671F3B",
"%  c #080A45",
"&  c #081847",
"*  c #16174A",
"=  c #0C1659",
"-  c #181956",
";  c #0E0C4F",
":  c #231749",
">  c #361848",
",  c #251C57",
"<  c #351C58",
"1  c #15234C",
"2  c #1A264A",
"3  c #1C2A54",
"4  c #192757",
"5  c #12285B",
"6  c #282648",
"7  c #272858",
"8  c #362A58",
"9  c #26335A",
"0  c #383459",
"q  c #342D49",
"w  c #161866",
"e  c #14176B",
"r  c #281E66",
"t  c #2D1D6F",
"y  c #1A2466",
"u  c #1C3466",
"i  c #122869",
"p  c #272768",
"a  c #352768",
"s  c #2A3568",
"d  c #343364",
"f  c #34346C",
"g  c #3A356B",
"h  c #39386A",
"j  c #292776",
"k  c #342473",
"l  c #332A7D",
"z  c #3C2B7B",
"x  c #382777",
"c  c #2A3675",
"v  c #3B3B72",
"b  c #363977",
"n  c #4F174E",
"m  c #68184D",
"M  c #4E2D54",
"N  c #6B2F54",
"B  c #4F1C66",
"V  c #472867",
"C  c #483868",
"Z  c #593969",
"A  c #452A7C",
"S  c #443A78",
"D  c #563A76",
"F  c #58276F",
"G  c #673669",
"H  c #673777",
"J  c #783577",
"K  c #6F2C6B",
"L  c #394179",
"P  c #304870",
"I  c #1F4878",
"U  c #574456",
"Y  c #704A52",
"T  c #42417C",
"R  c #484577",
"E  c #554779",
"W  c #514F6E",
"Q  c #674669",
"!  c #674778",
"~  c #77587A",
"^  c #724F71",
"/  c #746277",
"(  c #5C617D",
")  c #764D3A",
"_  c #97162D",
"`  c #B56B30",
"'  c #A15B2E",
"]  c #C2712B",
"[  c #8A3473",
"{  c #9B285D",
"}  c #875053",
"|  c #94664F",
" . c #B37353",
".. c #8A5072",
"X. c #906B70",
"o. c #AF7674",
"O. c #A9485D",
"+. c #C35F6A",
"@. c #D73D7A",
"#. c #BB846B",
"$. c #CA8642",
"%. c #2C2B83",
"&. c #3B2D83",
"*. c #362C85",
"=. c #283988",
"-. c #393888",
";. c #3C3793",
":. c #313992",
">. c #452D86",
",. c #473489",
"<. c #563689",
"1. c #493995",
"2. c #573C97",
"3. c #542E88",
"4. c #663989",
"5. c #673C95",
"6. c #77388B",
"7. c #503BA3",
"8. c #5D2E92",
"9. c #384687",
"0. c #3B4895",
"q. c #33518F",
"w. c #3769A8",
"e. c #335B99",
"r. c #434384",
"t. c #484789",
"y. c #564889",
"u. c #5A5488",
"i. c #494995",
"p. c #584897",
"a. c #475399",
"s. c #585597",
"d. c #48548B",
"f. c #684586",
"g. c #784887",
"h. c #675689",
"j. c #775887",
"k. c #664998",
"l. c #76479A",
"z. c #675898",
"x. c #765997",
"c. c #4F6691",
"v. c #6A6598",
"b. c #786899",
"n. c #71678B",
"m. c #5848A6",
"M. c #4958A7",
"N. c #5858A4",
"B. c #564EB1",
"V. c #664AA6",
"C. c #6857A7",
"Z. c #7958A8",
"A. c #6659B5",
"S. c #765AB5",
"D. c #714BA9",
"F. c #506BB0",
"G. c #6964A9",
"H. c #7665AB",
"J. c #7867B6",
"K. c #716FB2",
"L. c #786AC5",
"P. c #6567C3",
"I. c #8F3888",
"U. c #AF3E86",
"Y. c #C4388D",
"T. c #89588A",
"R. c #8E5090",
"E. c #AD538E",
"W. c #896899",
"Q. c #976999",
"!. c #887797",
"~. c #977799",
"^. c #8F6C89",
"/. c #AE7096",
"(. c #8758A9",
"). c #8F55AC",
"_. c #AA5AA8",
"`. c #8768A8",
"'. c #9666A9",
"]. c #8478A6",
"[. c #9879A8",
"{. c #8668B6",
"}. c #8F71B7",
"|. c #AB71B0",
" X c #C86F96",
".X c #C86FAD",
"XX c #D95EA1",
"oX c #866AC5",
"OX c #8876C6",
"+X c #9675C9",
"@X c #AF75C6",
"#X c #8E5DC9",
"$X c #D276C6",
"%X c #958698",
"&X c #AF8F95",
"*X c #9788A6",
"=X c #9289AD",
"-X c #A79AA9",
";X c #AF8DB0",
":X c #B9BCBC",
">X c #B4A8AE",
",X c #A7A3A4",
"<X c #CA91B5",
"1X c #CBAEB3",
"2X c #DB8BA8",
"3X c #D5C8BB",
"4X c #EAD9B7",
"5X c #9587C9",
"6X c #908ACC",
"7X c #A686CA",
"8X c #AF91D0",
"9X c #B3A7D1",
"0X c #AC91E3",
"qX c #BDA5E0",
"wX c #CB97CD",
"eX c #CEAFD1",
"rX c #D1B1E6",
"tX c #DFB1DC",
"yX c #BEC2C2",
"uX c #C2C5C5",
"iX c #C6C9C9",
"pX c #C6CACA",
"aX c #CACDCD",
"sX c #CCCFCF",
"dX c #CBCECE",
"fX c #CFD2D2",
"gX c #CED1D1",
"hX c #CED2D2",
"jX c #D1D4D4",
"kX c #D2D5D5",
"lX c #D3D7D7",
"zX c #D4D7D7",
"xX c #D2D6D6",
"cX c #D5D8D8",
"vX c #D6D9D9",
"bX c #D7DADA",
"nX c #D6D9D9",
"mX c #D8DBDB",
"MX c #D9DCDC",
"NX c #D9DDDD",
"BX c #DADDDD",
"VX c #DBDFDF",
"CX c #DADDDE",
"ZX c #DCDFDF",
"AX c #D9DDDD",
"SX c #D0C5CF",
"DX c #E9D5CE",
"FX c #D9CAE4",
"GX c #EED3EE",
"HX c #DDE0E0",
"JX c #DFE2E2",
"KX c #DDE1E1",
"LX c #E1E4E4",
"PX c #FCEBF9",
"IX c #F6E7C9",
"UX c #6F81BF",
/* pixels */
"vXvXMXsXsXsXfXMXvXvXMXJXZXvXdXsXlXzXlXMXvXvXMXMXMXMXvXMXMXmXmXvXvXlXMXvXMXvXvXvXMXMXMXJXMXdXsXJXlXvXvXlXfXlXlXmXJXvXlXfXfXfXmXMXMXMXlX:XdXuXvXvXlXlXJXLXMXfXiXvXMXmXlXlXmXvXvXvXzXfXlXvXsXfXMXvXsXzXJXJXmXvXvXvXmXMXMXMXvXMXMXmXlXMXJXJXJXzXvXJXvXvXvXmXvXvXMXvX",
"lXfXlXdXsXfXMXMXlXlXvXmXMXlXdXyXdXMXMXMXvXLXJXJXlXvXvXvXMXlXsXfXzXJXJXMXMXvXlXlXdXlXvXlXMXMXdXvXsXsXdXlXvXdXfXmXJXlXdXlXMXMXMXfXdXvXvXfXlXMXfXdXsXvXmXMXZXmXvXMXMXmXMXzXlXfXsXlXlXiXdXlXdXiXlXlXfXvXlXvXfXmXZXMXmXvXmXvXdXlXMXvXvXvXvXvXfXdXmXMXMXvXfXmXMXMXMXlX",
"lXdXmXmXdXmXMXMXZXMXzXfXmXfXmXyXiXvXmXMXMXMXMXvXMXMXMXfXvXlXlXzXvXMXJXMXMXMXdXuXdXsXvXZXJXzXdXfXdXlXfXsXiXsXvXdXlXvXlXvXvXzXmXlXvXMXdXiXJXJXvXMXMXvXMXvXZXMXMXmXMXvXlXzXsXMXmXvXuXsXlXlXlXlXzXsXvXmXmXiXfXlXsXMXfXfXfXlXdXlXMXvXMXlXlXMXJXJXMXMXMXJXMXMXvXlXlXlX",
"sXvXLXLXMXmXvXJXMXlXfXuXlXlXvXMXlXlXlXmXMXvXfXfXmXMXvXJXMXMXvXvXvXlXvXMXMXlXlXzXzXJXLXJXMXvXfXlXmXfXiXvXiXlXdXdXfXMXfXiXdXlXlXlXmXJXlXzXvXvXvXdXfXvXMXfXfXvXMXmXzXlXvXfXvXMXvXmXmXMXlXvXvXvXlXfXvXvXvXlXlXdXiXlXlXvXlXMXMXzXvXzXlXMXmXMXJXZXvXvXvXMXvXmXMXvXvXMX",
"lXMXMXMXmXMXvXlXMXlXuXfXsXlXvXJXMXmXvXlXdXdXuXfXlXzXlXlXMXvXlXfXlXvXMXvXMXMXvXzXvXMXMXfXsXvXdXyXiXfXsXvXlXlXvXMXlXfXvXuXuXiXlXvXlXMXmXlXlXMXZXlXfXvXMXvXvXmXZXMXvXlXlXfXzXvXvXsXsXmXlXvXvXvXlXlXvXlXfXlXvXsXMXzXiXdXlXmXlXfXvXMXlXvXvXMXMXmXMXMXmXlXmXvXJXvXfXlX",
"MXMXMXMXvXlXlXlXsXMXmXfXzXzXMXMXMXMXJXvXlXlXfXfXfXiXuXiXfXlXvXfXlXvXlXMXvXlXmXvXlXfXvXlXvXmXvXzXlXlXzXdXlXdXvXMXlXfXlXuXMXvXsXMXlXlXlXMXvXMXMXMXvXvXsXvXmXMXMXfXvXvXvXvXvXvXvXlXmXlXsXMXMXvXvXMXMXvXfXvXsXvXvXvXfXlXMXZXMXMXMXiXlXvXvXlXMXMXmXJXJXMXZXJXMXmXlXdX",
"MXMXmXmXvXZXmXmXsXvXMXlXdXMXMXvXMXMXMXvXlXdXlXfXuXlXlXdXmXvXMXlXlXdXfXvXmXMXlXlXvXlXvXvXvXvXMXMXvXzXmXlXmXvXMXvXlXvXfXsXsXMXlXvXfXuXlXMXlXmXMXJXvXfXvXvXfXlXvXmXJXlXdXfXvXuXiXuXfXmXlXMXvXmXMXLXJXMXvXfXfXfXdXvXmXmXZXJXLXJXlXuXfXsXlXmXMXdXlXJXJXMXlXMXvXfXvXdX",
"mXvXvXJXMXmXmXvXvXvXlXvXlXvXMXMXJXJXMXZXvXfXfXdXsXMXJXJXMXlXMXvXvXuXiXsXvXMXMXlXvXvXmXlXMXMXMXmXlXfXvXmXMXMXMXMXZXMXvXdXlXvXlXlXfXiXvXvXzXvXMXvXlXlXMXMXJXfXsXvXlXlXiXyXdXMXMXvXuXfXvXmXmXvXfXlXfXmXMXmXMXlXlXMXfXfXvXzXvXvXvXiXiXiXiXlXmXlXlXMXMXlXfXMXfXvXvXMX",
"lXiXmXJXmXmXMXMXMXMXfXsXlXfXvXmXvXvXvXfXfXlXlXZXzXfXlXMXZXlXiXMXMXlXsXmXlXJXJXmXdXfXvXMXMXMXJXJXMXvXfXvXlXJXZXJXMXdXfXfXiXvXJXJXvXfXMXMXvXvXmXzXlXvXMXzXvXzXmXvXvXlXvXvXMXvXfXlXmXMXfXlXvXfXsXlXlXvXfXzXMXMXvXMXvXvXzXlXvXzXJXdXvXzXJXJXJXJXMXMXMXlXdXlXlXfXvXMX",
"zXmXMXlXlXJXMXfXsXvXmXfXdXfXvXvXdXmXvXfXuXdXMXMXvXvXfXlXvXlXfXvXmXMXJXMXlXlXZXvXlXMXJXLXJXJXJXJXMXvXvXvXmXMXmXvXvXMXJXZXvXMXZXfXvXzXvXMXMXZXJXLXMXZXlXlXMXmXvXmXvXdXMXLXJXMXMXJXJXvXvXvXfXuX:XzXZXJXJXJXLXvXsXfXvXvXlXfXMXMXMXlXvXfXMXMXZXMXvXMXZXmXvXJXlXfXJXJX",
"zXvXfXfXlXvXfXlXlXMXfXfXiXfXfXvXdXfXmXvXvXfXmXMXvXvXmXlXdXlXMXMXMXMXmXmXfXMXJXMXmXlXvXlXlXJXMXMXMXMXfXvXMXMXzXsXMXZXMXMXmXlXlXfXuXsXvXvXmXJXMXJXMXMXvXfXfXlXmXfXvXdXvXvXJXJXMXLXlXvXMXJXJXvXMXJXMXMXZXMXvXmXvXfXlXvXvXsXMXmXlXlXMXfXzXlXlXMXmXzXvXJXvXfXsXlXsXMX",
"JXZXlXlXMXZXMXJXJXvXvXmXmXvXMXMXMXvXmXMXMXlXfXMXJXMXmXvXzXMXJXJXlXdXfXMXMXvXmXzXlXzXvXsXlXmXlXvXMXvXvXfXMXMXlXvXlXMXfXuXdXuXfXJXMXiXsXvXlXvXvXmXZXvXlXfXsXlXvXdXuXlXzXfXvXvXMXMXJXZXLXMXvXJXMXvXvXfXlXMXlXvXvXlXlXfXfXdXlXdXvXmXlXvXmXMXmXMXmXfXlXlXlXvXmXvXsXzX",
"vXMXMXzXlXlXvXMXvXlXfXlXMXMXJXJXMXvXvXvXvXMXfXMXLXdXmXZXfXlXvXmXvXMXvXvXmXZXvXvXJXJXvXvXlXdXlXlXvXmXlXlXmXMXdX:XlXsXfXdXfXfXuXvXJXLXJXlXlXiX:X:XuXvXlXvXvXzXlXMXlXlXsXdXiXdXlXMXMXMXMXMXvXMXvXfXzXvXvXMXZXMXlXMXMXlXvXzXdXdXvXuXiXMXJXJXLXLXZXvXlXfXlXmXmXMXvXfX",
"lXmXLXvXMXvXJXmXlXvXfXlXiXuXlXMXJXJXMXMXJXMXMXJXmXfXvXlXfXlXfXvXvXMXlXvXMXJXvXfXMXMXJXJXMXMXMXvXvXlXZXMXvXvXdXsXJXJXMXvXlXdXdXfXMXzXZXJXMXMXfXyXdXiXsXfXsXiXvXMXMXMXuXfXvXfXfXMXvXvXMXvXmXMXMXMXmXvXlXvXmXvXlXlXJXvXvXzXdXlXsXdXzXvXvXvXMXJXvXlXJXMXfXvXvXmXzXzX",
"vXMXvXlXlXMXmXMXJXvXZXMXMXfXfXsXiXsXZXLXMXlXJXMXvXMXvXdXMXMXZXLXJXMXsXiXMXMXMXlXvXvXMXMXvXmXvXiXiXdXdXvXlXfXvXJXZXJXJXZXMXvXlXvXvXlXMXMXfXvXMXJXMXMXvXlXvXiXlXlXlXlXdXlXMXMXlXmXMXmXzXlXMXvXsXsXvXfXfXlXzXfXsXvXvXvXvXzXMXJXMXMXMXvXzXlXzXlXvXfXvXvXJXJXlXvXvXvX",
"ZXMXvXfXlXzXfXfXMXvXlXfXvXLXfXsXlXvXmXlXvXzXMXdXzXvXvXfXlXZXJXvXvXJXfXvXZXMXvXmXmXvXMXMXzXzXvXiXiXlXlXlXzXlXfXlXvXvXmXMXmXMXlXlXlXmXJXMXiXsXvXlXlXMXJXzXvXsXlXMXMXlXvXfXvXvXvXvXMXvXMXJXZXfXuXsXdXvXvXvXlXdXlXlXvXZXmXlXvXzXvXJXMXlXzXlXfXlXiXdXfXlXvXMXMXlXfXlX",
"vXMXlXmXsXlXmXvXmXMXvXlXmXlXlXlXMXMXdXiXfXMXmXvXMXlXZXJXvXvXZXlXlXiXfXvXJXMXJXJXlXvXMXZXsXiXlXlXmXMXmXlXvXmXvXlXvXvXMXMXMXvXMXJXMXMXMXvXvXuXiXvXlXlXvXMXvXvXsXfXmXMXvXlXlXlXvXMXvXLXJXLXvXsXfXiXyXfXMXMXmXfXMXZXMXvXMXvXzXfXlXMXMXlXzXzXvXmXuXuXdXdXzXvXvXdXfXlX",
"fXlXfXuXvXMXJXiXmXmXMXMXJXmXvXfXvXMXMXvXyXdXfXvXvXmXvXvXlXlXvXvXMXlXsXZXMXmXMXMXvXvXmXvXvXHXlXlXlXvXMXlXlXMXvXmXMXlXJXMXMXvXMXzXdXvXJXMXMXfXfXMXlXvXlXlXMXmXmXlXvXMXlXlXdXdXdXJXdXvXvXMXJXJXMXfXiXvXJXJXZXvXvXvXzXvXvXdXvXfXdXlXzXMXlXvXfXfXMXmXvXiXfXmXmXfXlXJX",
"lXlXZXfXLXJXZXMXJXlXvXMXfXdXfXsXzXlXZXsXuXlXMXlXlXvXzXlXfXsXdXfXlXMXMXvXMXmXMXvXfXfXMXMXJXlXfXvXMXvXvXMXMXZXZXJXlXlXJXvXvXmXvXsXdXvXlXvXvXvXMXmXvXlXlXdXdXlXlXvXvXlXmXMXmXvXsXzXlXlXuXfXlXlXvXvXfXvXMXvXvXvXvXfXfXyXuXlXvXvXvXvXvXvXlXsXyXfXvXJXMXvXmXJXJXMXMXMX",
"JXMXmXvXMXMXdXdXMXMXmXMXdXsXvXzXzXuXuXfXvXmXMXJXMXlXmXfXvXvXlXfXMXMXMXmXZXMXMXvXfXdXMXMXlXiXfXlXvXvXsXsXcXzXvXvXvXMXMXMXJXmXvXfXdXjXvXzXlXmXvXdXiXfXdXiXsXmXfXiXvXmXvXmXvXmXMXvXMXlXfXuXyXfXlXfXsXsXvXvXfXvXMXvXZXuXiXvXMXMXMXMXvXvXmXfXlXdXlXMXMXlXvXlXvXvXlXvX",
"ZXMXvXvXlXlXiXsXvXlXmXsXMXvXvXMXMXvXyXlXvXmXmXJXJXmXvXvXLXLX& & & 1 & . . - - i 5 1 & & & . 1 4 2 2 1 4 p j c 3 7 7 p p p p p p p d f f d d p s p p p 7 9 s s c f 7 6 7 7 7 p d p f f p p p p f c b p vXlXmXJXJXJXfXfXMXMXmXvXlXlXvXmXvXMXlXlXlXfXsXiXiXvXvXMXzX",
"MXMXvXLXMXlXiXlXvXfXdXuXzXJXMXfXJXJXvXlXMXvXlXvXvXJXMXZXJXMXu 5 4 4 3 2 3 7 u 4 3 3 3 2 2 2 9 9 7 9 s s c =.s 7 7 7 d d f f d d d f f f d d f f d f d d f h v g 8 8 8 d d h v f f c f f h v b L 9.t.p fXsXlXvXMXlXvXJXlXvXmXvXvXlXlXMXMXMXJXMXvXfXmXMXvXsXlXdXsX",
"vXvXMXmXvXJXLXJXmXvXmXMXMXlXvXlXMXJXsXvXmXfXsXvXfXlXvXvXvXlXi 1 4 3 1 3 y 7 3 3 3 3 2 3 3 9 9 7 9 s s s c c 7 7 7 7 9 d f f f f f f h d d 0 d d d f d d h h g d 8 0 d d v b v v v b h v v b L 9.t.L j fXfXfXiXdXdXzXvXmXlXmXvXZXlXvXMXMXMXLXMXmXJXMXMXvXdXvXiXfX",
"JXvXvXlXlXvXlXJXJXvXmXmXzXMXvXsXvXfXfXMXZXvXmXMXLXHXMXJXlXvX5 1 4 1 3 4 3 3 3 3 2 3 3 3 9 s 9 9 s s s f f 7 7 8 8 d d f f b b b v g h d d 0 d h g d h h v g g h d g g v T v v v R s.s.t.s.].s.9.9.b b lXmXlXlXdXlXfXlXvXfXdXvXfXlXiXlXlXvXvXlXsXMXvXfXlXiXfXiXfX",
"mXMXvXMXlXiXdXvXMXvXZXMXlXJXvXvXdXiXsXMXJXJXMXvXMXmXLXMXiXlX& 1 1 1 3 3 3 3 3 3 3 2 3 3 9 s s s s f s f d 7 8 d d f f f b b b b v v h h d h h g g h h S S g v h g h v T T v L b L K.OXL.K.6Xs.9.9.9.9.vXzXlXvXMXdXiXvXvXlXsXfXuXiXfXlXvXMXJXMXuXfXfXlXfXuXdXzXfX",
"sXmXvXvXiXyXfXdXfXvXfXlXvXzXMXmXfXuXlXMXMXMXlXMXfXsXMXmXdXmX& 1 1 4 4 3 3 9 2 2 3 3 9 9 s s s d f h f d d d d f f b b b b b v v v v T T h h h h h h S S R S S v v S T r.T L L L L v.5X6X6XK.s.9.9.0.9.lXvXmXvXlXvXvXJXvXfXsXsXvXvXMXLXLXMXMXMXlXlXvXdXfXdXdXMXlX",
"uXfXMXZXsXdXMXMXdXfXMXvXmXvXzXzXvXiXmXMXvXJXMXmXvXlXsXuXdXMX& 1 1 3 3 3 7 7 2 3 3 7 9 s s s s h f f f f f f f b b b 9.L L L L b 9.N.s.N.y.v h h h S S S R S S v S T t.r.T T L v L d.K.5X5XJ.a.0.d.T c ZXJXJXlXfXvXvXlXuXiXlXlXLXJXMXMXmXMXlXlXMXzXmXlXfXdXfXzXMX",
"mXfXJXMXlXJXvXvXlXlXMXmXMXMXvXmXvXiXdXMXvXJXJXMXMXMXMXlXfXMX& 1 1 3 3 3 3 2 2 2 2 9 9 s s s f f b f f f b b f b L 9.9.9.9.9.9.9.0.F.N.N.v.y.v v v v v T t.T T S T t.i.r.T L T S r.r.z.5X5XJ.a.0.d.E f fXdXsXdXuXyXuXdXdXdXuXlXJXzXsXlXlXMXMXzXfXfXvXvXlXJXLXlXzX",
"LXLXLXLXJXMXMXlXzXlXMXmXMXsXMXMXmXvXvXmXvXJXJXZXJXJXMXmXJXvX& 1 1 3 3 3 2 2 2 2 3 s L 9.f s f f b c b b r.S d.L 9.9.9.9.9.9.9.9.0.N.N.s.b.b.t.L v v R y.E T r.r.r.t.t.t.r.T T t.r.r.s.OXOXC.a.0.d.E g :XlXuXfXMXlXiXvXiXuXdXlXfXvXzXfXlXvXMXlXmXlXfXzXzXmXfXlXvX",
"MXJXvXMXMXMXvXdXuXsXMXmXMXlXvXMXmXvXmXMXvXJXMXmXMXMXZXMXLXMX& 1 1 3 3 3 2 2 2 3 s G.G.t.S s s f b L r.r.T s.s.L 9.9.9.9.9.9.9.9.0.G.N.z.z.H.s.T T T t.E D r.r.r.t.z.=Xy.T T E t.i.t.K.OXJ.s.a.0.d.R h :XJXlXdXlXdXiXiXiXZXvXdXdXMXMXmXMXMXMXlXfXvXlXzXzXvXiXsXvX",
"vXMXlXvXvXvXlXuXlXmXMXmXZXlXmXfXlXlXvXvXMXlXvXvXvXMXMXMXmXMX. 1 1 2 3 3 2 2 2 u P 6XK.s.t.b s b b r.t.t.y.y.9.9.9.i.9.9.9.9.9.q.a.G.G.C.G.H.s.t.r.T t.E D T -.r.-X-X!.u.S S h.u.t.y.=XJ.C.a.a.q.9.T b jXMXvXlXvXvXfXiXMXJXJXvXJXMXvXlXzXMXmXvXfXvXHXfXMXmXzXvXMX",
"mXmXvXlXlXfXlXvXLXLXJXvXvXiXmXzXlXMXmXvXfXsXfXvXJXMXlXMXMXvX. 1 1 2 4 1 2 2 3 u s K.L.s.y.L b L P t.y.y.s.C L 9.9.p.9.L O O 0 i.M.G.C.k.H.H.s.t.9.t.f.D D T r.*X>Xb.!.R u.S t.n.t.v.}.C.N.a.a.d.r.9.-.lXfXzXlXmXmXzXfXvXMXMXJXMXMXMXfXlXfXvXvXiXfXJXvXvXMXlXlXvX",
"JXMXvXfXfXJXMXMXMXmXiXlXdXdXlXJXmXvXmXvXvXMXJXlXsXdXlXMXvXvX. 1 1 4 3 1 2 2 u u 3 K.L.s.y.R L L L y.p.p.y.g L I 9.9.9.8 q C ,.s.M.G.f.y.G.C.i.u...Q Q G D v v.3X3X*X%Xn.S ( y.n.h.G.N.s.s.N.N.t.T r.-.sXuXfXMXfXMXvXMXlXlXvXvXfXlXiXfXlXlXiXiXlXlXlXvXMXmXlXsXMX",
"mXZXvXvXiXvXMXmXMXmXvXvXMXzXuXsXMXJXMXmXMXJXJXlXfXZXfXlXlXfX& 1 1 4 1 1 2 3 u u u N.J.s.t.R R W R p.y.k.t.v b b r.9.b O 0 k.y.C.A.g.N E N.M.a.t.N N N N R t.%X>X&XW.!.&X0 C h.h.b.p.s.s.C.G.N.r.T y.b zXvXuXfXfXfXfXvXlXvXvXvXMXMXmXMXMXJXyXiXvXdXmXzXdXiXvXMXlX",
"vXMXMXvXdXvXJXMXMXmXvXMXMXMXJXJXJXJXdXlXvXvXMXvXfXmXlXsXiX:X& 1 1 4 1 1 1 3 u 4 u d.G.s.r.W U Q E H.s.t.t.v b b 9.9.8 O E Z.<.A.C.N M C M.e.0.a.Z _ N E i.v.:X4X] h.b.-X# 6 S -X:X-Xz.z.H.G.y.E t.K.9.LXJXfXlXMXvXuXfXfXvXMXJXvXvXJXJXMXfXiXdXvXsXiXiXuXvXvXvXfX",
"mXlXvXfXfXmXvXMXfXlXMXMXzXsXsXvXdXvXvXmXMXvXMXmXdXmXvXvXpXlX& 1 4 1 1 2 R 3 u s c 9.N.i.L Q Y ^ u.].y.S t.-.b b 9.-.C h.(.Z.y.S.A.M M T w.e.M.M.i.E y.i.s.v.=X&X .`.*X>XQ O !.=X4XIX;XZ.H.h.D C H.7Xr.MXMXmXMXJXmXmXMXvXfXlXvXMXMXMXlXlXvXfXsXvXvXdXuXvXvXmXvXfX",
"JXJXMXmXlXvXMXJXvXvXlXzXlXfXdXfXvXfXlXMXlXsXvXmXMXMXlXsXdXfX& 1 4 1 1 2 n.L u u u s d.r.b W | ^.=XE C S i.r.b -.=.t.Z.k.{.k.p.L.F.w.P d.F.w.M.M.i.0.9.s.=X*Xb.~ &X'.[.-X^.~ !.*X4XIXSXZ.h.Z Z E 7X5Xt.lXmXmXmXlXvXvXvXlXlXdXfXvXvXvXsXfXdXlXsXmXvXlXlXMXvXlXzXfX",
"JXMXJXsXiXyXMXlXfXiXfXfXlXfXvXmXJXzXlXvXuXdXlXfXMXMXdXfXfXvX& * 1 * 1 1 R s u s p 9 s s s b ( E b.! C S i.t.r.-.-.V.Z.D S.p.V.A.F.w.P e.F.F.F.M.i.t.d.b.>X,X/ t.W.;X[.].!.b.n.3X4X3X3X].G m D C.}.C.i.MXMXMXMXlXlXvXlXuXdXvXdXlXzXfXlXvXsXlXsXmXJXMXsXlXJXvXMXMX",
"lXlXdXuXuXiXMXlXdXlXLXJXMXvXfXMXvXlXvXvXiXiXiXfXMXfXvXfXuXiX. - * * & 4 R s c s 2 2 9 s c r.9.b M M M S s.y.r.9.-.{.k.<.Z.p.V.M.w.P I w.F.F.F.0.9.s.].b.=XX.U j.;XFX;X!.%Xn.Q -XDXK.=X].h.G D J.J.G.t.lXvXvXMXdXiXlXlXdXZXMXdXiXlXlXlXvXfXlXlXvXZXJXlXlXfXvXMXmX",
"fXlXlXfXlXlXfXvXvXvXJXMXvXfXsXfXfXfXlXvXfXuXvXzXuXiXvXvXzXlX. * & 9 =X7 R 9.c 2 2 2 3 p b s.i.i.M 8 C r.s.i.r.-.p.J.,.p.V.p.p.t.q.9 P w.F.UXM.0.r.v.=X=X[.j.T.2X.X<XW.n.!.j.^.Q ~.=X;Xb.v.G.G.7XL.H.i.JXlXfXdXfXlXfXlXlXMXMXlXsXfXvXMXvXvXvXvXMXmXJXvXlXvXMXlXvX",
"MXMXJXvXvXvXvXvXzXlXmXlXvXvXMXlXvXMXmXvXvXzXmXZXiXfXsXMXMXlX. * 7 d b.f d.c.P 2 2 2 7 p b s.G.E M 8 S t.N.i.0.0.z.~ W p.V.y.M g I I q.e.F.K.s.9.v.=X-X1X.XT.Q ..R.Q.~ n.W.!.3X>Xj.W.*X!.h.G.6X8XOXG.i.dXlXJXcXvXfXiXlXvXvXvXvXvXJXlXMXJXMXMXMXvXvXMXlXmXvXlXvXlX",
"vXJXJXJXJXLXLXJXMXJXMXmXvXlXMXJXvXJXLXJXJXvXvXMXvXmXlXsXMXMX  6 b.<.g b d.n.W X 2 2 p j f -.f.n > 8 ,.t.a.i.i.;.! ' } h.C.C o h u q.w.w.d.n.b.v.>X:X1X2X.X<X^ U ^ ^.U ^ [.%X^.1X>X! ^.~.x.G.6X8X7XC.i.fXVXmXJXMXvXmXzXvXvXdXfXiXlXvXmXmXZXJXJXZXJXvXmXvXmXvXlXsX",
"lXMXZXMXzXMXJXMXmXMXMXMXvXmXvXvXMXJXMXZXZXlXlXMXsXlXJXsXdXvX. o ~ y.d b L W W q * , j p 7 p V @ n S -.s c 9.b b C | / h.m.s.L 9 9 e.w.F.F.9.b.>X4X4X<X.X.X.XQ./...^ ^ Y &X^...<X1X~ ..~.].K.6XrX8XC.i.MXZXvXlXzXMXMXMXmXmXdXfXMXlXvXlXlXvXMXMXZXMXmXvXvXMXlXvXlX",
"MXvXvXlXfXzXzXMXmXvXJXMXJXMXvXvXlXMXvXvXMXMXfXfXzXvXvXMXlXvXX o M ! d p h U W 0 7 p j 4 p p c n $ b p u c c f a q Y ^ p.m.F.9.+ u e.w.F.0.-.s.-X3X&XE.^ E.E.Q./...Q ..Y 1X&X~.-X&X~.^.~.H.J.7XrX7XC.i.vXzXvXiXvXMXlXvXlXfXlXvXvXvXvXvXvXlXlXfXfXlXvXmXmXMXvXMXmX",
"MXvXMXvXfXlXMXMXvXvXlXJXMXlXlXZXMXlXzXlXdXMXMXlXfXsXfXvXvXdXX o , R a 4 6 q W 0 C p j c c j =.l p j 4 u c 7 a 7 7 U W p.B.a.2 + I w.w.q.i.v.=X:X>XQ. X} G T.^ ..T.E./.1X1X>X/.! o./.X.o...H.8XwX+XN.1.vXvXmXvXMXvXvXzXlXdXlXMXlXfXsXvXMXLXJXmXMXJXlXvXMXvXMXMXvX",
"lXvXmXvXvXlXmXmXfXiXfXMXMXzXlXJXMXvXvXJXZXZXMXzXvXvXMXvXMXmXX : , 7 7 1 6 q R R 7 v p f b -.0.-.b b s P d 8 g g S E u.C.A.R O q e.F.c.u.!.[.].-X%X/. X+...T...N [ @.2XDX1X&X&X^ o. .' ] ` ~.qX7X+XN.;.lXmXmXMXfXvXMXMXzXMXmXvXMXlXvXMXMXvXlXJXMXZXlXvXMXMXmXvXvX",
"vXJXMXvXlXlXvXMXMXlXdXvXMXMXuXlXZXMXvXMXMXMXfXvXMXvXJXJXJXJXX : : , 7 f 0 q T h.- S R C R T t.b L P P 0 0 U / E v T i.A.F.9 + 9 e.w.q.!.*X].*X~.} o./.|.H Z /. XO./.3XDX&X..~ | ` &XQ } ' ;XrX+X}.N.,.MXMXmXvXiXmXMXJXJXMXJXvXmXlXJXmXvXfXdXvXmXvXJXMXMXvXlXvXfX",
"vXMXvXmXvXlXvXvXlXlXmXmXmXvXlXfXlXvXvXvXzXfXfXfXdXfXZXzXMXJX% : 7 C 8 h 7 d d.-XE n.! p f T b c u 5 1 X 6 q U U g l -.B.0.+ + 9 e.q.i.*X-Xh.J { _ O.~ ~ E.E./.XX/.1X-X X+.X.' ] $.#./ o.} 7XeX+X{.s.t.MXvXfXMXdXfXfXlXvXfXfXlXvXlXlXzXlXlXmXMXmXdXvXlXmXmXdXsXfX",
"vXMXfXJXvXfXMXfXiXdXvXJXvXvXJXlXlXvXmXMXMXvXmXMXJXsXvXvXsXmX% : 8 C 8 f 7 R 5X9X!.%X! A S l c L P P 0 O 6 7 , 8 g l -.;.0.O + c.q.9.t.n.b.f.N _ _ } o M # U G /.;X X&X X+. .] `  .o.~ X.} '.@X7X{.C.i.mXMXvXlXsXyXfXMXMXvXdXfXvXMXvXzXMXvXfXfXJXlXdXvXlXMXMXJXJX",
"zXMXZXJXvXMXvXsXsXfXlXmXzXzXMXMXvXMXlXvXJXMXmXlXlXfXdXvXzXvX% - 8 C 8 f 3 R 9XqX>X,Xn.s.u.S s 9 9 6 q q 0 h d a a l ;.-.0.7 P c.d.b.v.R j.^ m ..Q.M W.|.N N M %X>X XE./. .] ` ` ` /...g...|.|.7X{.H.i.mXmXvXlXfXzXvXMXMXfXvXmXmXvXMXlXvXMXMXlXzXlXfXlXvXmXfXmXmX",
"mXdXlXMXlXuXfXzXMXMXMXlXvXvXvXMXvXfXMXvXvXJXMXdXiXfXlXvXmXmX% - 0 C p c 7 b.5XrX;Xh.E SX9Xp 9 9 9 6 q O : 7 d S R t.t.-.-.9 d.q.b.;Xu.u.C.<.K T.Q.M 8XGX2X2X<X;X>X;X/.o.&X` ] ` | ..! ! g._.|.qX+XJ.p.vXlXlXzXvXvXMXvXlXlXsXMXmXJXJXvXiXdXfXiXfXfXvXMXvXlXlXfXMX",
"vXfXvXfXuXiXdXlXvXJXJXLXLXvXvXmXfXyXdXzXvXlXzXlXlXvXJXvXdXuX% - 0 C p c : =X9XKX8XH.b.FXPX_.C 9 2 6 O 6 8 8 d f l -.i.s.d.W c.d.R %Xn.s.p.<.N j.^.M |.wX<X<XtXeX1X-X/.&X1XX.` } Z Q Z W.g.6.|.wX7X{.p.MXvXJXMXvXmXvXMXMXmXfXvXvXJXMXMXdXuXyX:XlXMXMXvXlXsXlXvXvX",
"dXvXsXMXlXlXvXJXmXdXJXMXJXzXiXiXiXiXdXMXvXlXlXsXlXfXvXvXlXiX% - 8 C p j X =XqXSX8X|.|.eXGX$Xg.8 7 7 X * , f.H.u.r.1.z.b.s P c.h.h.n.b.p.C.H N j.Q U wXE.wXwX<XeX1XeX<XeXY Y | X.Z V Z g.! 4.'.8X8X}.k.MXmXMXmXfXZXMXMXzXlXmXMXvXlXfXvXfXiXfXdXlXvXlXmXJXvXvXvXlX",
"sXvXlXlXvXmXlXvXvXuXdXfXMXfXfXfXJXiXfXMXJXMXiXlXfXlXfXfXfXMX% - 8 0 p p % =XFX9X9X'.Q.eXrXrX9Xy.V 7 : 7 8 Z.5Xm.-.i.].*XW 6XK.d g r.!.z.x...N T.;XtXeX<X<X<X<X<X1X<X<X/.} ' ' } ^ V f.`.! 4.l.@X@X{.p.zXmXzXlXlXfXvXmXlXzXvXvXdXfXvXdXlXfXfXfXMXzXvXvXvXJXmXlXvX",
"lXlXiXuXlXMXvXuXfXiXyXiXMXfXlXlXvXvXvXvXvXvXfXvXzXJXfXiXsXzX% * q 0 p p * %XeXFX;Xj.T.j.T.7XeX8Xx.E 7 < < A C.i.;.;.v.h.( 9Xb.R t.*.h.z.j...J T.;XeX1XeX<X<X/.o.<XeXQ...X.' Y ..N > g.}.~.H 3.(.'.Z.p.uXdXlXlXfXfXfXmXJXLXJXdXdXfXzXfXvXlXlXsXMXMXMXMXMXiXfXvXlX",
"zXlXvXlXvXvXMXvXfXmXlXmXvXdXvXMXvXmXvXvXvXzXvXlXlXMXfXfXlXvX% * 6 7 y - ; n.9X9X9X;XJ o G |./.~.5X=X! > < a &.s.p.p.*X%X%X~.h.h.b.v.p.k.&X&X'.|.^ ^  X X/./.^.X...~.W.~ Y ) # / Q M C 4.[.! <.(.'.H.p.fXfXfXiXvXvXfXMXLXJXvXfXlXlXsXlXMXvXfXlXvXlXmXMXJXvXmXvXMX",
"mXJXvXuXfXMXJXLXJXMXvXMXMXvXmXJXJXMXvXvXvXmXlXvXMXJXMXlXfXZX% * 6 6 - - h n.eX8X8X|.J m m [ E.G ! g.g.N n O h.{.x.x./.*X>X[.*XT.%X].l.[./.&X~.[.~./././.|.T.W.T.M Y H C ^ N O U # Z Z D W.~ 3.l.).C.m.mXmXmXMXLXLXvXfXMXZXvXsXiXfXvXvXfXMXJXvXsXdXsXlXMXiXmXmXZX",
"mXJXLXmXMXLXJXmXMXZXlXsXvXZXJXZXMXvXJXMXlXvXfXvXMXlXvXVXZXMX% * * * - - E >X8XtXtX;X[ [ [ { [ I.[ K m { N m ^.[.[.z.~.~.!.j.^.R.%X[.I./. .&X>X%X&XE.E.E./.T.~ 4.M Z I.S ~ N O O O N Z D x.Z D 5.l.C.C.fXmXJXJXMXLXJXvXzXMXmXfXyXuXsXlXlXlXJXvXvXvXmXvXvXlXmXiXvX",
"lXlXMXvXMXMXMXuXvXJXlXlXfXzXzXvXMXvXMXJXmXMXMXMXZXmXMXmXcXvX; * * - - ; b.ZXeXeXtX_.[ [ _.I.I.E.[ [ N { T.Q.~ [.*X&X1X!.h.h.!.^.~.;X.X;X#.&X>X<X X..[ ../.E.J G C C ....S Z M O # # M D l.f.4.5.D.C.m.mXMXlXJXfXvXJXMXJXvXMXMXjXmXZXMXMXMXJXMXdXzXlXmXJXJXvXiXfX",
"MXfXmXvXvXvXfXfXvXvXfXlXlXfXfXlXlXfXlXmXfXzXMXJXMXMXMXvXvXlX; * - * * a ].eXFXGXeXR.[ R.I.I.I._.).R...N $ ..f.g.R.&X1X%Xj.%X*X*X;X<X.X<Xo.&X;X|.E.R.R.R./.N M Z f.Q U ! k.! q O # O / W.}.8Xx.4.Z.V.p.JXMXdXlXMXvXvXvXMXfXlXmXvXMXLXJXMXsXsXvXvXvXmXdXvXJXJXfXfX",
"vXfXiXvXZXMXfXMXlXsXMXJXLXJXvXMXvXlXMXlXdXiXvXZXMXJXJXMXvXdX% * * * - n.>XeXFXPXeXR.[ _.I.I.|.$X).6.@ N $ ..T.j.j.Q.&X-X~.>X*X;XwX$XXX<Xo.&XeX<XY.E.E.|.|.> + C f.'.].H.u.u.V O M / -X7X7X-Xx.3.5.p.<.MXmXJXvXvXMXvXmXvXvXlXlXvXfXvXZXmXvXMXvXfXlXvXiXmXZXvXvXfX",
"vXMXfXdXfXZXJXJXMXMXJXJXJXMXvXvXlXvXvXfXvXdXsXlXMXMXMXvXdXuX% * * * w D  XeX9XtXwXwXU.K J I.$X_.E.[ $ @ ^ R.R.R.f.k.u.:X>X-X[.eXtX$XY.{ &X1XeXtXXXE.XX$X@X'.C j.U.|.+X0X+XOXN.a.p.n.aX9X[.!.<.3.2.p.<.MXMXMXlXsXMXJXJXMXMXmXlXsXfXfXmXMXMXMXMXvXdXsXmXvXfXfXlXvX",
"MXZXmXMXiXMXvXfXdXlXlXmXvXzXmXmXMXMXfXsXvXlXlXlXvXMXmXdXuXsX% ; * - - f.Y.R.Q.<X;X|./.^.Q.|._.6.H T.m @ ^ R.J J |.[.f.>X=X!.|.rXwX.XXX{ #.1X>XtXXXY.O._.@XwX+X}.@X@X@X#X0XOX,.V.p.E jXeX=X].>.3.2.m.2.mXMXvXlXvXvXvXJXLXJXMXMXMXvXMXvXMXvXMXvXfXvXzXJXvXiXlXzXmX",
"mXvXlXMXMXsXiXlXuXyX:XsXvXvXMXMXJXMXlXuXlXvXMXMXMXZXMXvXfXvX% * ; p p k..XI.R.E.R.[ T.E.I._._.R.6.|.I.[ K J n N W.R.4.!.W.W.8XFX/._ Y.O.&X1X>XE.{ $ N @X|.T.'.f.f.l._._.#XL.C.V >.k.:XSX].k.3.3.<.2.2.sXMXMXvXMXJXlXmXJXvXMXJXLXJXmXMXMXMXvXMXMXZXJXZXMXfXvXlXmX",
"fXfXvXMXMXMXJXvXMXsXlXmXvXvXlXMXMXmXmXdXdXvXMXMXMXJXlXMXMXMX% * 0 W !.v.;XI.R.|.[ n G Q o N E.J M [ [ _.'.^ Q Z o ~ @X(.x.}.rXtX_ _ O...>X1X,X-XE.K Q.wX[ > > > > > V f.<.oX{.D 2.oX8X5X2.2.<.3.A 5.D.jXMXJXMXMXJXfXcXmXuXuXfXMXJXMXJXJXMXJXJXJXJXvXdXdXlXzXvXZX",
"vXiXsXMXMXJXMXlXMXlXMXZXLXMXvXMXlXvXlXfXMXJXZXZXZXMXfXlXfXMX% % ( E ,X%X>X|.R...T.M > > + + M M Z ^ [ _.T.Q [.|.Q Q ;XW.(.wXGXtX_ _ O.I.~ &X>X-Xn.Q.^.Q O + ! 4.o o 8 V <.2.2.2.2.oX+X}.p.3.3.<.Z.+X+XZXvXMXvXlXvXlXvXlXlXiXsXfXlXlXMXvXzXMXJXJXvXfXfXMXvXJXvXlX",
"fXvXvXMXMXJXJXvXlXMXMXMXlXsXiXfXfXsXdXsXdXzXJXMXmXzXsXiXdXlX  - u.u.%X~.,X^.R.R./...W.j.M Q ! B B G G ! ! G '.(.|.n M g.7XwXGXtX<X{ [ D f.! n./ > o o o o o o M O O < V ,.1.1.1.,.2.k.k.<.<.Z.+X7X@X).MXcXjXjXmXsXiXMXlXJXfXiXmXMXJXJXmXzXfXlXZXMXlXlXMXMXJXvXmX",
"zXfXmXMXvXvXMXzXlXJXJXvXfXvXmXvXdXfXsXfXfXiXvXvXMXvXdXuXJXmX7 -.t.b.%X^.-XX.G T.T.R.R.'.).[.Q.6.6.J J K T.! 5.4.F M E {.8X^ |.wXtX).6.%X-X*Xn.C a a a a < < < < < < > > < a A >.>.<.V.V.Z.oXoXJ.{.{.).lXjXJXlXsXvXMXMXvXMXvXlXmXvXmXMXvXvXlXvXvXmXlXsXvXMXmXvXvX",
"vXfXvXmXlXlXMXvXLXMXsXfXLXmXJXJXzXdXvXvXMXMXsXlXvXMXvXiXlXvXv.i.A G ..H ^.&XG n ! (.8XeX|.7XeX[.g.g.).wXPX9XF V !.FX! Z.x.> B H 4.B 8 8 a 3.<.>.x k k k a a < < < < a a a < < a A V.OXOXOXJ.A.A.S.(.l.uXuXfXJXMXmXMXMXmXZXvXlXMXmXvXlXlXlXfXzXlXvXZXlXlXvXlXvXfX",
"vXMXlXlXvXlXvXMXMXlXdXfXLXfXfXuXuXvXJXlXlXMXfXfXsXfXdXvXfXlXK.s.B m K F Z ~ M H f.'.wXeX@XeXPXrX(.|.eXGXGXGXeX}.FXrX}.`.k.4.A < < x 3.2.V.V.2.a : : : : : : : : : 7 k z z &.z z >.m.L.L.A.A.V.V.V.l.6.uXlXiXfXlXMXmXMXMXJXJXvXvXZXMXlXsXfXlXlXZXMXmXZXMXvXdXfXvX",
"vXmXvXvXMXmXfXdXvXlXfXvXlXvXsXiXsXMXJXfXuXlXfXlXzXJXlXvXzXiXG.t.p.l.H G F F H l.6.R.'.).|.8XW.T.eXGXPXPXPXGXeXrXGXwX8X(.k.,.a X 4 j :.i.i.,.k , : : , , a k x z z >.,.1.1.i.p.2.2.2.2.2.2.2.7.V.A.S.Z.sXsXsXvXfXsXdXlXlXvXMXJXlXMXmXlXsXuXfXMXvXMXMXvXvXmXfXiXzX",
"vXmXMXfXlXlXvXvXmXvXlXvXvXvXlXvXMXMXvXlXfXzXMXLXLXLXdXfXlXiXG.s.C.C.k.F F g.(.(.R.).6.3.l.l.B < ;XFXtXrXGXGXeXrX}.(.V.*.j , + 2 %.=.%.;.;.l t r a x >.1.m.S.S.m.m.m.1.1.p.C.OX8X7XH.1.1.2.2.m.S.L.oXoXyXsXlXvXMXvXlXlXvXdXiXsXlXvXiXiXsXfXvXMXfXvXLXsXfXfXlXvXmX",
"vXlXdXvXiXfXMXJXLXfXiXJXMXfXvXMXvXzXlXvXzXlXMXMXMXJXfXdXlXzXC.k.k.Z.l.H 6.(.).).'.l.F B D (.(.l.l.k.p.1.H.9X5XS.i.;.%.j r , , p p , r x x a a x A 2.A.S.OX0X+X7.S.0XoXC.G.K.}.H.y.g &.7.B.B.A.L.L.L.S.sXfXlXiXdXJXLXLXJXMXuXsXsXlXlXiXzXvXlXMXsXfXMXlXfXlXMXJXZX",
"dXiXyXdXdXJXMXZXMXvXvXMXMXMXmXvXdXsXlXZXmXvXvXvXdXlXzXsXuXvXC.D.Z.{.H.g.l.(.Z.Z.D.5.<.4.5.5.p.m.i.:.=.:.0.0.:.:.=.=.=.l < < < , : : , a z ,.1.p.m.A.L.+X+X+XS.1.V.8XrX`.k k r t t l 1.B.A.A.A.L.A.A.m.dXlXlXdXsXfXlXvXJXLXMXMXvXuXdXdXZXMXfXJXMXvXlXlXfXvXlXvXvX",
"iXyXuXsXvXMXJXMXfXMXdXlXJXvXlXMX:XdXsXMXfXvXMXMXfXfXvXsXvXMXC.H.}.].`.`.H.Z.C.V.V.N.m.i.i.i.0.0.9.=.=.=.:.c c =.=.=.*.V V < < < a a S ,.,.,.1.1.;.;.1.m.7.7.7.7.m.1.A x k k k k A 7.A.A.B.B.B.B.A.A.B.sXMXJXJXvXfXfXfXMXJXLXJXMXdXyXyXiXfXvXJXlXvXMXMXmXMXJXJXMX",
"MXMXMXmXlXfXvXJXJXlXuXlXvXvXdXdXdXMXsXlXmXMXMXMXJXJXMXMXJXmXH.].=X}.}.J.H.G.N.M.M.F.G.N.M.M.M.M.M.0.=.=.=.%.=.i.%.%.&.&.>.z z z z z x x x k k x x k x &.,.,.,.2.,.>.,.<.2.p.2.1.1.1.1.1.1.m.A.B.A.L.A.fXHXmXVXMXvXlXfXuXfXdXdXvXMXMXlXfXiXvXvXvXJXLXJXJXMXLXLXLX",
"fXlXsXlXlXzXlXJXmXlXlXmXmXMXdXlXMXzXsXdXmXMXlXMXMXmXlXmXMXMXH.}.J.C.C.S.J.C.C.C.C.J.5X5X}.`.Z.Z.Z.p.c d z z , 8 < a z l &.l l *.&.&.>.A z z z z A >.,.A k a V V V B H 5.D.V.5.5.2.k.C.C.m.m.C.2.D M D dXmXMXfXMXMXfXsXiXuX:XlXMXvXzXvXMXuXzXMXMXMXMXmXMXMXMXJXJX",
"vXlXiXfXvXMXlXJXZXvXmXMXvXMXvXZXvXmXzXdXfXMXlXuXaXsXlXJXLXvXl.k.2.2.2.V.S.J.{.(.D.l.(.+X).l.l.l.f.k.z.h.{.(.V a a a k &.k.{.{.+X{.S.S.V.p.<.A x k x &.>.A V n > > n B K 6.Z.}.7XqXrXtX'.B B n n @ @ @ jXvXzXvXzXmXvXMXlXMXuXsXvXvXlXiXsXvXvXvXlXlXdXlXvXMXMXMXMX",
"MXMXsXmXvXvXvXmXMXMXmXvXfXMXMXmXvXMXMXlXlXMXMXlXuXdXuXuXsXlXa z &.,.k l &.,.2.V.5.5.5.6.H H H f.C.S.J.oXoXl.,.1.:.-.C.2.1.D.@X8X#XD.2.>.x k r r a a a >.,.V.Z.x.x.W.'.|.@X7X@X|.'.R.6.K n n n n n n @ MXMXMXMXMXJXZXvXfXlXvXlXvXvXlXfXlXvXmXMXvXjXsXzXvXvXvXvXvX",
"vXfXlXlXvXvXvXvXmXJXZXMXmXMXMXmXvXmXMXsXlXvXMXMXMXzXvXvXlXvX  = - r - - y y j *.&.A < n B F <.2.m.m.C.C.D.3.x l j y ,.2.1.,.3.<.3.,.>.,.>.k p p r a a A ,.V.OX0XqXqX8X7X+X(.l.4.4.H F B n n n n n n n vXvXlXMXMXMXvXvXMXiXzXvXvXlXvXMXvXvXvXzXMXJXJXLXiXyXmXlXmX",
"mXlXMXZXJXJXJXLXJXvXLXMXMXJXMXMXlXdXvXMXMXMXvXmXvXmXmXMXlXlX% w - y 5 5 5 5 i i i y p k A A >.>.>.>.,.1.H.}.<.l j 4 , >.,.,.,.,.,.,.1.1.m.p.1.z x z A z &.&.&.>.,.<.<.<.k.l.Z.Z.(.(.Z.l.4.F F B F F B mXlXlXJXMXvXvXMXvXlXvXvXvXMXZXJXlXMXvXiXzXMXzXlXsXvXvXmXMX",
"zXMXMXJXvXvXlXvXMXvXMXvXmXMXJXMXdXsXsXdXmXMXMXvXlXlXvXsXvXvX& = = 5 5 5 5 5 5 5 i i y y j l l l x x x &.1.k.p.2.1.>.x &.>.&.>.>.,.1.7.m.B.m.7.1.,.z x z z x k k x V V A 3.4.4.<.3.3.<.2.p.k.f.A <.2.2.VXcXcXLXZXmXmXlXvXvXMXmXmXlXMXLXmXlXuXyXlXsXfXfXlXlXzXlXMX",
"vXJXMXJXMXfXuXfXJXfXfXmXdXdXfXlXyXdXfXsXfXJXZXsXdXfXvXvXMXMX% & & & & & & & & = 5 5 w w p p j j k j l *.;.&.&.&.&.l l l z &.&.;.1.1.1.m.m.1.,.,.>.>.A A A z k a a A >.<.2.<.<.3.A A <.A A k.1.2.m.m.m.JXZXMXZXmXMXZXvXmXfXMXJXfXlXfXvXfXuXyXvXvXiXZXmXsXfXMXvXdX",
"mXlXzXvXsX:XfXJXZXvXfXlXdXyXiXuXdXfXmXvXuXvXzXMXfXvXJXLXvXlX% & . & & * * X X X X - y p p p r r j j j j p p r r p p p l -.;.1.7.1.1.1.,.;.;.,.,.&.&.l x k k k a x >.>.>.z x h.<.x A x.y.y.G.m.m.m.i.;.JXZXvXsXlXZXJXmXvXvXMXJXvXmXvXvXlXlXMXvXMXvXJXvXsXMXvXMXlX",
"lXfXvXMXsXlXvXMXMXJXMXMXvXfXsXlXJXJXMXvXuXsXMXJXlXsXJXcXfXiX  & & = y j j p p : X * - , r - , r y y w - w r , r p p j %.:.;.;.:.*.l j l &.&.&.&.&.&.l k k k k k l &.&.*.*.*.b.b.u.l y.=X].].=XC.i.-.%.MXmXvXMXJXlXdXvXvXvXvXmXmXmXlXfXMXmXvXvXvXMXvXfXlXvXlXmXvX",
"MXMXmXMXMXMXJXJXLXMXzXMXvXvXfXdXsXvXJXvXvXvXMXmXzXjXMXMXvXlX  & & = = y p p p p p p p 7 , - - - - - - w j &.l &.&.l j %.*.*.%.l j *.&.*.&.l j j k l l l *.*.*.*.*.*.*.*.*.*.i.v.s.i.s.-.-.s.i.%.%.j e sXMXvXfXMXdXfXMXvXvXMXvXvXZXvXiXlXJXJXfXuXfXvXMXzXlXLXZXJX",
"MXMXMXMXlXJXMXmXMXMXvXMXMXMXMXdXiXmXJXJXMXMXvXMXMXMXvXMXMXMX  & % .   & - 7 7 7 4 - - y y 4 - - y y w y p p j l l k l j j j p p p k z x z l k k j j j l %.*.;.*.l l l *.l %.%.%.%.-.%.j -.s.j j j p = lXvXvXvXMXfXlXMXvXlXvXMXvXlXfXvXMXfXsXdXlXMXMXJXlXvXdXdXfX",
"mXMXmXvXfXlXfXvXMXMXdXfXMXmXMXmXuXfXmXvXlXvXvXvXMXJXHXMXfXMX          . p b f p 4 = & c y 5 y y y y y y y y y w w p p y w - - - , , r r j j j j j j l %.*.&.*.*.l t t j t t j j j j j j j l j j j y = MXvXiXzXsXlXdXsXlXdXfXMXmXfXvXfXfXlXdXfXlXMXvXfXmXMXvXlXlX",
"fXdXlXdXsXlXdXmXvXMXlXsXmXMXMXJXsXsXlXvXvXMXZXlXMXMXMXmXMXlX            c.s.5 %       &     % & & = = = = = = = = = = = w e e e w w e e e e e e e t t j j j j t e e e e w = = = = w w w w e e w w = % zXdXdXlXfXlXvXMXsXlXvXJXmXlXsXlXiXdXMXMXJXsXiXvXZXMXMXvXsX",
"iXlXfXvXlXlXvXMXlXMXJXvXMXZXMXmXMXvXlXmXJXJXJXvXyXfXvXmXZXfXfXlXvXvXlXmXlXdXlXvXvXlXMXvXdXvXMXlXcXMXdXfXlXlXmXlXdXlXMXfXvXMXMXmXMXvXvXvXdXsXiXvXvXfXMXMXZXvXlXvXZXvXMXMXvXsXvXvXdXdXjXlXlXvXiXlXvXmXlXvXlXmXJXvXlXMXvXdXlXfXvXuXdXuXsXvXfXMXMXMXmXMXmXmXvXzXvXlX",
"fXvXmXJXMXMXvXJXMXvXMXZXMXlXvXvXZXJXMXMXvXvXMXvXzXvXMXmXmXfXfXfXiXvXvXmXvXmXmXMXsXdXMXMXmXMXvXZXmXMXfXvXvXlXdXMXvXvXfXfXiXlXMXMXdXlXMXMXMXfXvXlXmXfXsXzXzXyXsXfXvXMXMXmXvXmXLXzXlXJXiXdXvXJXvXmXJXMXmXfXfXfXMXVXsXfXlXvXlXsXvXfXiXsX:XzXfXfXvXZXMXMXsXmXmXfXlXvX",
"vXlXfXlXMXMXlXuXvXMXZXJXMXfXzXvXMXMXsXvXmXmXMXlXmXMXMXMXfXfXlXfXfXvXlXMXMXmXvXzXmXMXvXzXlXmXZXvXvXMXfXpXMXvXuXdXMXMXvXMXlXMXmXvXuXdXfXMXJXfXsXlXfXlXvXMXdXuXlXuXiXfXZXMXfXMXvXfXMXlXfXuXvXdXMXMXMXMXMXvXvXjXlXvXuXuXuXdXvXJXMXZXvXmXmXvXvXvXlXzXvXmXlXvXMXMXJXJX",
"ZXMXdXfXzXJXvXfXMXvXMXMXmXlXlXvXMXMXvXMXJXMXMXvXmXMXfXsXmXcXcXmXvXfXdXlXvXMXMXvXvXlXlXlXfXzXfXmXMXZXmXzXvXcXdXaXmXZXMXJXMXMXvXsXMXmXiXvXMXMXuXiXlXMXMXMXJXvXJXzXsXjXMXZXvXvXfXfXiXvXMXfXfXsXMXMXvXmXlXvXvXMXvXMXvXdXyXfXfXvXvXvXvXMXmXfXMXvXfXuXfXlXlXvXMXmXvXMX",
"MXJXJXmXlXfXvXmXMXvXMXMXMXMXvXmXvXsXlXfXJXfXlXsXdXvXvXlXvXjXlXvXMXdXuXlXfXfXJXJXMXvXzXvXvXJXlXfXlXmXJXJXMXMXvXlXvXvXvXMXmXlXlXvXMXvXfXsXiXvXlXiXsXmXMXvXfXvXZXJXfXfXvXfXfXmXMXfXfXvXJXzXlXlXdXlXlXlXvXJXvXvXfXfXvXvXfXvXuXlXvXsXlXlXdXvXMXvXvXsXiXmXMXMXmXMXMXlX",
"JXJXMXJXMXvXfXfXdXlXMXZXzXlXlXfXMXfXvXyXuXfXzXiXdXMXLXmXvXlXfXmXZXsXvXvXmXdXlXfXvXlXMXZXMXZXMXzXfXmXvXzXsXzXmXmXMXMXvXmXJXvXlXvXmXvXlXdXsXuXsXfXlXMXvXdXfXzXzXzXMXzXvXfXiXfXfXfXMXlXvXlXmXJXsXlXvXvXMXvXlXlXiXfXlXiXdXfXiXmXMXdXfXvXzXlXMXlXvXmXMXJXJXMXMXMXmXvX",
"vXfXMXmXvXvXlXzXlXfXmXmXMXfXiXdXdXdXZXlXuXlXZXJXvXlXJXMXcXvXfXfXMXlXlXlXlXlXvXfXMXMXlXJXlXvXmXzXlXlXfXlXMXmXvXvXiXlXlXvXlXlXlXvXdXiXfXvXzXvXdXfXvXfXlXMXlXdXiXMXJXMXJXJXlXsXfXzXfXlXdXvXMXMXMXlXdXlXMXMXfXiXsXLXZXMXiXdXZXMXJXlXvXZXmXfXvXlXMXmXLXLXJXZXMXMXvXMX",
"dXMXMXvXjXvXmXfXvXMXvXvXMXlXyXvXlXlXlXMXMXMXvXfXMXMXMXMXvXZXvXlXzXlXfXlXvXJXJXfXvXMXMXMXfXzXMXvXvXdXMXJXMXlXZXdXdXlXJXZXvXuXlXlXsXlXlXlXvXMXvXMXMXdXuXzXvXlXlXzXsXMXZXvXmXMXfXlXvXvXiXfXvXJXvXlXiXfXMXvXvXvXmXMXMXJXsXiXiXlXmXvXvXsXvXmXMXfXlXvXMXMXZXMXMXvXsXfX",
"vXJXlXMXlXMXvXMXMXMXvXMXfXvXdXfXJXmXMXlXlXLXJXMXfXvXMXvXvXMXMXfXlXlXfXlXMXMXMXMXZXMXMXvXlXfXJXMXJXJXMXfXsXMXMXvXfXlXfXLXvXdXZXMXMXmXvXLXvXdXvXMXmXvXdXuXiXfXvXvXvXfXzXlXlXfXfXmXlXlXlXlXlXvXvXvXfXMXmXMXfXvXMXvXvXvXfXvXuX:XiXvXzXfXvXMXmXMXvXMXmXmXvXMXvXmXfXuX",
"MXJXdXsXvXdXfXJXJXZXmXlXlXvXfXiXMXlXvXvXzXzXJXLXfXvXMXlXvXJXMXJXJXMXMXvXvXMXJXmXZXJXvXMXmXMXMXZXZXvXvXfXzXJXMXsXfXuXsXlXvXvXMXmXzXsXJXJXMXfXZXJXZXmXmXfXvXdXfXvXJXsXvXMXvXvXMXLXLXMXlXvXMXMXMXMXJXmXMXlXvXJXvXvXMXJXmXvXlXsXuXdXfXfXlXfXvXmXzXMXvXMXvXlXlXvXMXfX",
"lXsXuXvXlXfXvXMXmXvXvXvXvXvXlXvXvXvXvXfXfXfXmXJXvXfXMXvXMXmXlXlXvXmXMXlXlXvXMXvXvXvXfXvXmXMXmXzXMXMXJXdXzXJXMXlXfXiXfXvXmXJXMXfXlXsXvXlXfXfXmXMXMXJXvXvXMXMXMXvXJXvXvXMXvXMXlXvXzXfXmXZXJXMXvXvXMXJXJXMXfXuXsXvXuXfXvXmXmXJXmXlXMXlXlXfXlXlXvXvXMXvXfXvXMXMXfXlX",
"ZXlXdXvXdXfXlXMXMXvXlXMXMXJXvXMXJXMXvXzXyXvXJXJXMXvXfXfXMXlXzXvXlXvXvXvXvXmXmXvXmXzXlXvXMXvXlXlXlXvXMXlXuXfXvXvXMXMXJXJXvXfXvXvXvXvXdXsXfXlXMXMXvXMXMXvXMXMXvXmXvXvXMXZXvXMXMXsXuXuXdXvXfXlXlXMXMXJXfXmXJXvXMXvXiXuXfXfXvXJXvXvXMXMXmXzXvXlXfXdXsXlXfXlXlXlXlXvX",
"mXvXZXZXvXJXJXlXfXvXsXlXzXvXvXlXLXLXvXlXiXlXMXvXMXMXlXlXMXMXMXlXlXmXlXmXMXvXlXzXvXMXmXlXMXdXsXMXMXJXMXfXfXsXfXlXvXvXmXMXmXvXlXlXMXmXMXlXdXlXlXmXvXMXfXiXuXlXvXlXlXlXMXJXMXsXuXiXvXlXvXJXMXzXfXfXvXMXlXmXJXMXzXJXJXvXlXlXvXlXzXmXJXMXvXvXlXfXdXfXfXfXMXvXvXvXvXvX",
"dXsXzXZXvXmXvXlXlXfXlXMXMXfXlXfXMXLXJXmXiXfXzXmXmXlXfXvXMXJXvXiXlXJXvXMXMXvXfXMXMXfXMXfXvXvXvXZXMXMXMXuXvXMXJXMXJXmXMXvXfXvXvXMXMXMXJXmXlXsXfXvXvXlXdXdXfXfXlXMXZXmXlXvXfXdXsXlXlXMXvXMXLXJXMXJXJXfXlXuXuXlXuXlXJXvXlXmXMXlXlXlXJXMXmXlXlXlXfXJXvXlXlXfXMXmXMXMX",
"lXfXvXlXlXvXvXdXmXMXdXvXLXJXlX:XuXMXMXvXdXMXMXMXvXsXsXvXMXMXMXdXuXMXfXlXJXMXMXlXMXfXzXdXvXJXMXMXvXfXzXfXdXvXMXJXMXfXZXlXuXvXmXMXMXvXMXMXMXlXlXdXdXiXsXlXMXvXzXJXLXJXMXMXlXzXlXlXfXvXmXMXmXfXZXzXlXsXsXyXdXlXlXsXvXlXiXlXlXlXJXfXvXfXvXfXsXvXvXMXMXlXfXuXMXJXMXzX",
"vXsXfXvXmXZXMXMXvXMXlXdXfXzXMXMXvXMXMXmXlXfXmXvXMXMXMXmXvXlXMXlXlXfXdXfXMXdXvXvXlXsXlXlXdXMXMXvXlXlXlXvXvXfXfXmXfXdXMXsX:XdXvXlXlXdXsXvXmXlXfXzXvXlXvXJXmXvXfXfXvXLXJXsXlXMXiXfXfXmXMXvXfXfXJXuXuXvXlXzXvXvXMXvXzXdXfXlXuXlXMXfXlXmXmXlXvXlXuXdXmXvXvXlXMXMXMXmX",
"fXzXmXMXMXJXlXmXMXlXsXuXlXMXMXMXMXMXMXZXMXmXvXvXvXvXvXMXmXlXfXlXsXlXmXmXMXdXvXMXmXMXMXmXmXMXMXZXvXMXmXsXlXiXlXMXlXuXlXfXMXmXsXfXdXfXsXvXzXzXlXMXMXuXlXmXmXvXfXsXfXvXlXuXsXdXsXJXJXMXvXvXdXsXmXfXfXfXmXJXfXmXmXvXMXMXMXlXfXvXMXMXMXMXmXMXmX:X:XuXlXvXdXlXvXvXzXvX",
"vXJXMXMXJXvX:XfXfXiXyXsXvXvXlXmXlXlXMXJXMXMXMXmXvXvXLXMXJXMXfXlXzXsXvXvXmXMXMXvXmXmXlXlXlXvXMXMXlXdXlXlXuXuXiXuXdXfXfXvXvXvXlXvXzXMXdXvXMXvXvXMXMXdXfXvXvXfXvXvXvXlXsXdXfXlXMXvXvXvXvXsXfXlXvXdXfXvXzXlXfXvXvXzXMXMXJXvXMXMXMXMXvXlXlXvXvXlXuXyXlXMXfXlXlXvXmXvX",
"vXlXlXmXMXiXuXsXvXzXvXuXiXdXvXzXfXsXMXzXvXfXsXfXsXfXlXzXvXvXmXvXMXMXvXvXmXvXlXzXMXvXMXJXiXmXMXMXvXMXdXfXlXiXdXiXlXmXMXvXlXvXMXfXvXlXsXuXuXlXMXmXvXvXfXMXvXlXlXvXvXfXvXvXmXZXvXlXlXvXuXyXdXfXlXzXMXJXlXlXsXvXmXlXvXMXJXMXJXJXMXMXJXMXMXMXvXfXdXvXMXMXvXzXvXmXmXMX",
"lXiXfXzXfXfXMXvXfXlXvXsXfXdXlXfXdXfXMXlXmXlXdXsXiXJXmXfXvXMXvXvXvXsXvXmXmXfXdXvXJXMXMXlXdXJXJXJXMXMXMXfXlXvXsXfXdXzXJXMXvXMXMXvXvXlXlXfXuXzXMXzXlXvXMXmXMXvXdXuXsXlXmXvXvXMXMXMXMXvXlXlXvXvXmXfXfXvXvXvXMXZXvXmXLXJXmXlXlXMXvXlXZXMXJXLXMXvXMXMXMXZXvXvXvXlXvXMX",
"mXvXlXlXvXdXfXsXdXfXvXMXvXlXMXMXlXMXvXvXvXzXlXvXlXJXJXfXvXMXvXlXMXzXuXuXlXfXvXlXvXlXlXiXzXmXmXMXmXJXmXvXMXZXvXfXMXfXlXiXsXzXlXfXlXfXMXfXdXlXlXvXvXvXMXMXvXvXMXlXdXlXvXvXlXMXMXvXMXvXlXlXmXZXMXlXlXfXzXvXMXJXMXMXMXvXfXsXdXfXMXvXvXMXmXJXlXlXJXZXvXvXvXvXMXvXlXvX",
"JXMXJXZXvXsXfXfXlXlXmXlXvXMXmXMXvXzXMXfXjXfXlXfXlXlXmXJXmXMXMXfXdXfXuXuXfXlXMXvXfXzXMXMXmXMXmXmXvXlXfXvXmXJXJXmXvXzXfXfXvXvXlXlXzXlXlXfXJXMXMXMXMXlXvXmXlXsXJXMXZXJXJXMXvXvXvXfXvXvXZXlXlXJXMXlXfXlXMXvXlXMXMXvXMXMXlXsXuXlXlXvXfXuXMXiXuXvXfXfXJXvXvXMXvXmXlXvX",
"MXfXdXlXfXlXyXlXvXlXMXdXfXMXfXlXuXuXvXJXJXZXlXfXdXfXMXmXzXmXJXmXfXdXsXyXsXvXzXlXzXlXlXfXlXvXZXMXmXdXmXlXvXvXMXvXvXvXlXMXMXMXfXfXMXMXfXuXJXLXdXdXMXJXfXlXvXmXMXfXmXJXJXJXMXsXsXlXvXuXvXmXJXJXmXmXmXvXvXfXsXlXlX:XsXMXvXfXiXmXsXvXvXlXvXsXiXlXmXdXMXMXvXlXlXzXlXmX",
"vXlXvXmXMXMXlXJXlXvXmXlXiXlXuXmXlXMXmXMXJXMXMXJXvXlXfXvXfXlXfXzXJXvXzXuXlXvXfXfXMXlXlXfXlXMXMXlXdXsXvXlXvXMXMXlXzXvXfXMXJXJXmXvXvXvXfXfXlXsXdXMXMXvXiXmXMXLXvXMXzXlXzXMXJXZXMXJXvXiXlXsXfXlXvXvXMXmXmXdXMXfXdXsXMXJXmXvXlXvXlXMXMXMXlXmXMXfXvXvXMXMXzXvXfXMXMXvX",
"MXMXMXMXMXmXzXvXlXMXMXMXdXsXdXvXfXlXMXMXvXvXZXZXMXvXvXlXlXZXMXMXJXJXMXvXfXiXuXvXJXvXMXlXlXvXmXMXfXvXmXzXlXfXuXiXiX:XdXvXMXMXvXvXZXJXsXfXvXfXvXMXmXmXJXMXvXvXvXvXMXvXfXdXlXJXMXMXfXlXJXMXMXlXlXMXvXvXJXvXmXlXvXJXMXMXMXZXvXvXlXMXdXvXMXmXfXlXMXMXJXJXMXzXdXMXJXJX",
"zXvXzXfXMXMXfXlXMXJXMXMXvXsXsXfXfXlXlXvXlXuXfXMXJXJXmXzXfXMXJXJXMXzXvXmXlXfXvXvXvXiXsXZXzXzXvXvXlXMXmXvXmXfXfXlXsXiXlXMXmXsXMXMXMXMXvXfXMXvXlXfXfXfXlXmXmXfXvXZXLXvXsXuXdXlXvXlXsXvXvXMXMXlXzXlXsXvXMXlXvXzXmXMXvXmXMXmXMXmXvXvXfXvXfXdXvXZXMXMXJXJXJXvXfXmXMXmX",
"vXvXzXlXvXMXMXMXlXvXJXJXlX:XzXvXvXvXsXfXvXfXfXvXvXMXfXfXvXmXMXJXvXlXMXJXMXsXvXmXdXyXfXMXfXsXvXlXlXmXvXvXsXfXvXZXJXvXMXJXlXdXmXvXdXmXmXvXvXzXfXfXsXlXyXvXMXvXvXMXlXfXmXlXzXsXlXlXfXfXfXfXmXZXvXfXlXzXJXsXvXmXmXvXmXJXvXvXMXvXmXmXMXmXsXdXmXMXJXJXLXJXvXMXvXvXlXlX",
"MXJXvXzXvXsXvXZXmXMXJXMXsXfXMXmXMXvXdXsXiXlXvXMXZXMXJXvXfXlXlXfXlXvXMXJXMXlXuXvXvXvXvXlXlXlXdXsXfXfXvXsXfXlXlXlXvXmXZXJXvXsXvXzXMXlXvXvXlXlXfXMXlXMXMXZXMXzXzXJXfXdXvXzXMXmXMXvX:XlXzXdXsXlXvXvXvXuXvXvXMXJXMXvXvXvXlXmXmXvXlXMXMXMXMXmXfXlXvXvXvXvXvXvXMXmXlXfX",
"vXlXvXvXvXsXzXvXfXfXzXdXdXvXJXJXLXfXfXvXMXMXMXJXZXMXJXvXlXdXlXfXvXfXmXMXvXzXlXfXvXsXlXfXdXsX:XiXdXvXlXmXLXMXlX:XiXMXMXmXMXmXMXvXMXdXsXiXiXiXlXMXJXMXvXzXMXMXJXMXzXvXfXvXlXlXvXmXsXmXfXlXvXJXvXzXMXmXlXvXJXsXiXMXMXvXvXvXmXvXlXmXmXMXJXMXLXvXzXmXvXdXlXvXvXvXsXdX",
"vXMXJXJXvXzXlXlXvXvXlXlXdXJXJXMXMXiXdXvXlXvXvXMXMXMXMXMXJXmXMXvXlXlXfXlXMXlXlXMXZXzXMXfXuXlXvXmXZXJXMXJXJXMXvXvXdXvXlXlXvXzXvXvXzXlXMXMXJXLXMXfXfXlXlXlXlXvXfXfXvXMXlXvXlXvXzXMXMXMXzXlXlXMXMXvXvXMXzXmXJXiXlXvXMXMXMXJXMXvXJXMXmXmXMXvXvXMXMXLXJXzXMXmXvXfXsXdX",
"MXJXMXJXlXiXJXMXmXMXJXzXfXvXfXfXlXvXlXmXlXvXvXvXvXMXMXzXJXMXvXZXvXvXvXvXvXlXlXMXJXJXZXlXdXlXfXuXlXvXdXlXMXMXMXJXsXlXvXsXiXsXsXvXMXdXdXMXZXvXJXfXdXvXMXzXiXuXzXvXmXvXMXMXMXlXlXlXfXfXvXMXMXdXdXvXvXfXvXlXlXvXfXMXlXfXvXlXJXfXvXfXlXfXlXfXuXfXfXMXMXvXMXmXdXfXlXlX",
"mXmXvXMXJXdXlXMXvXvXvXdXdXvXlXvXvXmXmXzXfXdXmXvXfXvXzXfXmXlXvXlXmXvXLXMXMXvXvXzXMXmXMXlXsXzXlXsXlXMXuXuXfXvXvXMXlXsXMXlXfXMXmXvXmXzXsXvXlXsXvXlXvXvXMXMXMXlXMXvXsXvXvXMXMXJXJXMXfXiXlXzXfXMXMXvXvXvXMXMXMXMXlXvXvXzXfXfXMXsXuXMXZXJXvXfXMXzXiXfXlXlXvXfXuXMXMXMX",
"vXMXmXvXlXfXlXvXfXlXfXdXfXsXdXlXMXvXlXzXyXfXMXJXZXvXfXlXfXdXlXsXfXMXmXvXvXvXfXvXZXZXvXvXZXJXLXLXJXMXlXzXlXzXZXMXvXfXMXMXJXZXvXlXlXMXMXvXsXdXlXlXMXdXiXvXMXMXMXvXlXzXlXvXlXmXJXvXlXlXMXzXuXfXfXlXsXsXlXMXvXMXzXmXMXmXfXzXvXvXMXfXsXMXdXMXLXMXdXlXlXlXMXMXfXmXLXJX",
"MXJXJXJXmXJXvXzXJXvXMXdXdXfXlXvXmXvXfXiXdXlXvXvXvXlXvXfXlXvXvXlXlXlXvXfXlXlXlXmXMXMXvXuXdXMXMXvXvXmXlXlXJXJXMXMXmXfXZXMXJXvXMXvXZXMXmXMXMXZXJXJXMXMXyXsXJXMXfXlXzXMXvXmXlXlXlXlXmXMXZXMXvXvXvXvXzXiXvXvXmXlXzXMXMXJXJXMXvXMXmXZXmXvXuXMXMXlXlXJXMXJXMXJXZXMXMXmX",
"lXvXvXMXmXvXMXmXZXJXJXMXmXzXlXvXlXMXJXvXMXMXmXlXvXMXmXzXvXJXHXMXvXdXvXMXMXdXlXvXMXvXMXfXlXMXfXvXmXlXsXzXlXvXvXlXfXfXvXvXfXiXvXlXMXvXMXJXJXJXJXMXMXfXyXvXMXvXiXlXfXmXvXZXlXvXmXfXsXMXMXJXLXMXJXMXLXMXvXJXZXzXmXlXMXMXMXMXJXMXMXmXMXmXdXdXmXlXvXMXJXLXLXZXJXMXMXlX",
"MXlXsXlXfXlXJXsXvXMXlXfXdXmXvXvXvXMXmXMXMXLXJXMXLXLXMXsXvXMXMXJXMXvXlXJXLXZXMXfXvXlXvXMXJXvXvXmXMXvXlXvXvXlXfXfXlXfXvXvXiXfXdXuXlXMXvXfXMXMXvXvXMXvXMXMXmXvXlXiXfXmXvXMXMXMXlXfXsXdXvXlXvXvXvXlXzXvXlXMXMXlXlXvXmXfXfXvXvXmXMXvXJXmXMXlXlXvXmXmXvXJXJXMXMXvXlXmX",
"MXvXfXdXsXvXvXlXvXvXfXMXMXMXvXJXMXJXMXvXMXZXJXMXMXMXfXMXMXvXlXlXzXvXJXJXMXJXmXMXvXmXvXfXMXvXvXMXMXMXZXzXlXlXlXiXfXfXfXvXfXMX:XuXfXlXlXdXdXiXdXdXlXMXMXMXJXmXMXMXlXfXvXlXlXvXvXlXmXvXzXlXzXlXlXmXmXMXMXmXlXsXfXMXmXlXmXvXdXlXJXMXJXJXJXZXfXlXzXMXfXmXvXlXMXvXsXfX",
"MXfXdXlXiXfXMXdXiXvXMXmXZXfXmXvXvXMXZXsXvXZXMXvXMXvXZXMXvXlXvXzXvXvXvXdXdXzXzXMXvXMXvXmXfXvXlXlXvXMXMXvXlXMXMXvXuXuXMXMXlXvXlXfXdXiXfXvXvXfXuXuXuXzXMXMXzXsXvXMXJXmXJXvXMXJXMXJXMXJXMXvXvXfXmXJXZXMXMXMXMXmXMXfXlXvXsXsXvXzXvXvXvXMXmXlXvXzXMXMXMXmXvXlXMXMXzXdX",
"vXJXJXJXJXlXlXzXlXvXZXJXZXMXMXJXZXMXMXmXMXMXZXlXvXMXMXMXMXMXJXJXJXJXMXfXlXvXlXmXfXmXJXJXMXlXlXfXfXvXvXvXlXMXJXJXJXmXMXMXZXMXMXMXlXlXiXlXMXJXJXvXuXzXMXfXiXfXsXvXJXvXvXvXMXlXvXlXvXmXsXiXlXmXvXJXJXMXJXMXMXMXMXdXvXJXlXiXMXJXJXJXJXmXmXvXMXvXvXvXlXMXJXJXMXvXlXvX"
};
