/* XPM */
static char *_19d9935fea546bfed4fea2465855a2eeb29eAcNnd9ThaXD[] = {
/* columns rows colors chars-per-pixel */
"128 128 256 2 ",
"   c #010202",
".  c #060909",
"X  c #16080A",
"o  c #071617",
"O  c #191618",
"+  c #0E1010",
"@  c #280406",
"#  c #28171A",
"$  c #381619",
"%  c #32090D",
"&  c #1B1D21",
"*  c #0C1F21",
"=  c #261D22",
"-  c #381C23",
";  c #290C22",
":  c #1A2426",
">  c #132C2F",
",  c #272328",
"<  c #382329",
"1  c #392B36",
"2  c #3A333A",
"3  c #2B2D33",
"4  c #30241F",
"5  c #46161B",
"6  c #58161B",
"7  c #4E090F",
"8  c #66040B",
"9  c #68161B",
"0  c #77151C",
"q  c #700B13",
"w  c #481D24",
"e  c #581C24",
"r  c #411E34",
"t  c #6B1C23",
"y  c #661C25",
"u  c #781C25",
"i  c #482429",
"p  c #57242B",
"a  c #472C36",
"s  c #572935",
"d  c #48343C",
"f  c #56343A",
"g  c #50372C",
"h  c #69232B",
"j  c #78232B",
"k  c #662934",
"l  c #782935",
"z  c #673638",
"x  c #77363B",
"c  c #57251E",
"v  c #69453C",
"b  c #353744",
"n  c #493A46",
"m  c #573947",
"M  c #673947",
"N  c #75394D",
"B  c #364C51",
"V  c #574349",
"C  c #564957",
"Z  c #4C4C52",
"A  c #664756",
"S  c #764A5B",
"D  c #6D4E51",
"F  c #545865",
"G  c #695767",
"H  c #755568",
"J  c #706772",
"K  c #54666D",
"L  c #34413E",
"P  c #86161E",
"I  c #96151C",
"U  c #8C040B",
"Y  c #A7131D",
"T  c #B6111D",
"R  c #BA121E",
"E  c #BA181E",
"W  c #B30714",
"Q  c #881C25",
"!  c #991B26",
"~  c #881F33",
"^  c #AB1524",
"/  c #A41A25",
"(  c #AB1B25",
")  c #A41D2A",
"_  c #AB1D2B",
"`  c #A51522",
"'  c #BB1523",
"]  c #B41C2B",
"[  c #BB1D2B",
"{  c #B71825",
"}  c #BB1E32",
"|  c #A6182F",
" . c #89222C",
".. c #97222C",
"X. c #872835",
"o. c #972835",
"O. c #92333B",
"+. c #A8222D",
"@. c #BB212D",
"#. c #B4212D",
"$. c #AC2332",
"%. c #A62837",
"&. c #B32333",
"*. c #BB2333",
"=. c #B72A3A",
"-. c #B3333E",
";. c #8D361D",
":. c #C90617",
">. c #D60318",
",. c #C70910",
"<. c #D90C24",
"1. c #C31424",
"2. c #C41C24",
"3. c #CB162A",
"4. c #C51C2B",
"5. c #CB1D2C",
"6. c #C81827",
"7. c #D21C2C",
"8. c #D6162B",
"9. c #C41D32",
"0. c #CC1D32",
"q. c #D31C33",
"w. c #DB1C34",
"e. c #DA1E39",
"r. c #C80E21",
"t. c #E61D38",
"y. c #EE1530",
"u. c #CC212D",
"i. c #C4242D",
"p. c #D1202E",
"a. c #DB212E",
"s. c #C32334",
"d. c #CC2234",
"f. c #C32832",
"g. c #CC253A",
"h. c #C32A3C",
"j. c #CC2A3D",
"k. c #C72738",
"l. c #D32233",
"z. c #D4253A",
"x. c #DB223C",
"c. c #D22A3D",
"v. c #DA2537",
"b. c #C3313E",
"n. c #E5233A",
"m. c #F5233A",
"M. c #E5212E",
"N. c #E9091F",
"B. c #9E4B37",
"V. c #E37234",
"C. c #973748",
"Z. c #8D364A",
"A. c #B72B43",
"S. c #A73547",
"D. c #B83447",
"F. c #AF3753",
"G. c #CC2C42",
"H. c #C52C44",
"J. c #D32C42",
"K. c #DB2943",
"L. c #CB3244",
"P. c #C73648",
"I. c #D53347",
"U. c #D73B55",
"Y. c #C83A54",
"T. c #E52743",
"R. c #F62944",
"E. c #E53349",
"W. c #F03853",
"Q. c #D13B64",
"!. c #974656",
"~. c #8C4B53",
"^. c #B84558",
"/. c #AD4855",
"(. c #90556B",
"). c #A74964",
"_. c #B1536D",
"`. c #8D6874",
"'. c #AB6A78",
"]. c #A2684E",
"[. c #CE4759",
"{. c #CE526C",
"}. c #E8506B",
"|. c #CE6977",
" X c #E36667",
".X c #FD842F",
"XX c #E28763",
"oX c #828077",
"OX c #797488",
"+X c #917489",
"@X c #AF718C",
"#X c #B56E92",
"$X c #CF748C",
"%X c #EE7490",
"&X c #DF6793",
"*X c #728692",
"=X c #978999",
"-X c #8F8993",
";X c #AE8B96",
":X c #9394A8",
">X c #AF93A9",
",X c #9CA7B0",
"<X c #AAA9B6",
"1X c #B3AAB1",
"2X c #CE8794",
"3X c #CF93AD",
"4X c #ED94AF",
"5X c #CDACB6",
"6X c #E59FA8",
"7X c #B0B4C7",
"8X c #9EBBCE",
"9X c #D1B1CA",
"0X c #E6B4CB",
"qX c #EDBBE0",
"wX c #B7C8D1",
"eX c #BACEE0",
"rX c #DBDDDD",
"tX c #D6D8D9",
"yX c #CBCAD1",
"uX c #EACCD4",
"iX c #D3D7E5",
"pX c #F0D7ED",
"aX c #DEE1E1",
"sX c #DFE9E3",
"dX c #D9E0F0",
"fX c #E2E5E5",
"gX c #E6EAEA",
"hX c #E6EAEA",
"jX c #E9EBEB",
"kX c #EBEEEE",
"lX c #EAECEC",
"zX c #ECEFEF",
"xX c #EAEDED",
"cX c #E8E5E6",
"vX c #EFF2F2",
"bX c #EDF1F1",
"nX c #EEF2F2",
"mX c #EBFEFD",
"MX c #F1F4F4",
"NX c #F2F5F5",
"BX c #F3F6F7",
"VX c #F4F7F7",
"CX c #F2F6F6",
"ZX c #F5F8F8",
"AX c #F4F8F8",
"SX c #F6F9F9",
"DX c #F7FAFA",
"FX c #F6F9F9",
"GX c #F8FAFA",
"HX c #F9FCFC",
"JX c #FAFEFE",
"KX c #FDFFFF",
"LX c #F9FCFC",
"PX c #FEF6F9",
"IX c #F4EBF6",
"UX c #D3C6BC",
/* pixels */
"VXAXAXlXjXjXbXGXVXMXHXHXHXVXhXlXbXMXMXAXMXAXGXGXGXGXMXAXHXAXAXMXVXbXGXMXGXMXMXAXAXGXGXHXAXhXlXHXMXVXMXbXzXMXMXAXHXMXbXlXzXlXAXAXAXGXbXrXhXfXAXMXbXMXHXKXGXlXhXMXAXAXMXMXAXMXMXMXMXlXbXAXjXlXGXMXjXMXHXKXAXMXAXMXAXAXAXAXVXAXGXAXbXGXHXKXHXMXMXHXMXMXAXAXMXMXAXVX",
"MXbXbXhXlXbXGXGXbXbXMXAXGXbXhXrXhXAXGXAXAXKXKXKXMXMXVXMXAXbXjXbXMXHXHXAXHXAXbXbXhXbXMXbXAXAXjXMXlXlXhXMXVXhXlXAXHXMXhXbXHXAXAXlXhXMXVXbXbXAXbXhXlXMXAXAXHXAXVXGXAXAXAXMXbXbXjXbXMXfXjXbXhXhXMXbXbXVXMXMXzXAXHXGXAXVXAXMXhXbXGXAXVXMXMXMXlXhXAXAXAXAXbXAXHXHXGXbX",
"bXhXAXAXjXAXGXAXHXAXMXlXAXzXAXrXfXMXAXAXAXGXHXMXGXAXHXlXMXMXbXMXVXGXHXAXAXAXhXaXhXlXMXHXKXMXhXlXhXbXzXlXfXlXMXhXbXVXbXMXMXMXAXbXAXGXhXfXHXHXVXGXHXMXAXMXHXGXAXAXAXMXbXMXlXGXAXMXfXlXbXbXbXbXMXjXAXAXAXfXlXMXlXAXzXbXzXbXjXbXGXVXGXbXMXAXHXHXAXGXGXKXHXGXMXMXbXMX",
"jXAXKXKXGXAXMXHXAXbXbXaXbXbXVXGXbXbXbXAXGXMXzXlXAXAXVXHXAXAXMXMXMXbXMXGXHXMXbXMXMXHXKXHXGXAXzXMXAXlXfXAXfXbXhXjXlXAXbXfXhXvXbXbXAXHXbXMXMXMXMXjXlXMXAXbXlXMXGXAXMXbXMXbXAXAXAXAXAXAXbXMXMXMXbXbXMXMXVXbXbXjXfXbXbXMXMXHXHXMXVXMXMXAXAXAXHXHXMXMXMXAXMXAXAXMXAXAX",
"bXAXAXAXAXGXMXbXHXMXaXzXjXbXMXHXHXAXMXMXhXhXaXzXMXMXbXbXAXMXbXlXbXMXGXMXAXAXMXMXMXAXGXzXjXMXjXrXfXlXlXMXbXbXMXAXbXbXMXaXaXfXbXMXbXAXAXbXbXAXHXbXzXMXAXMXMXAXHXAXMXbXbXbXMXVXMXjXlXAXbXMXAXMXbXbXMXbXlXbXVXjXAXMXfXhXbXAXMXbXVXAXMXMXAXGXAXAXGXHXAXbXAXMXHXMXlXbX",
"GXHXAXAXMXbXbXMXlXAXAXzXMXMXAXAXGXGXKXMXMXbXlXlXlXfXaXfXbXbXMXzXMXMXbXAXMXbXAXAXbXlXAXbXMXAXMXMXbXbXMXhXbXjXAXAXbXbXbXfXAXMXlXGXMXbXbXAXMXAXAXGXVXMXlXAXAXGXAXbXAXMXVXMXVXMXMXbXAXMXlXGXAXMXMXAXGXMXbXMXlXMXMXAXbXbXAXHXAXAXAXfXbXAXMXMXGXAXAXKXHXGXHXHXHXAXbXhX",
"HXAXAXAXAXHXAXAXjXMXGXMXjXAXGXAXHXAXAXAXbXhXbXlXfXbXMXhXAXAXHXbXbXlXlXMXAXAXMXbXMXbXVXMXAXVXGXHXVXMXAXbXAXMXAXAXbXMXbXlXjXAXbXMXbXaXbXGXMXAXHXHXVXbXMXAXzXbXMXAXHXMXhXlXMXfXhXaXlXAXbXAXMXAXGXKXHXHXMXbXbXlXhXMXAXAXHXHXKXHXbXfXzXlXbXAXAXhXbXKXKXHXMXHXVXlXMXhX",
"AXMXMXHXGXAXAXAXAXMXbXMXMXMXAXAXHXHXGXHXMXlXlXhXlXAXKXHXGXbXGXMXAXaXfXjXMXHXAXbXMXVXAXbXAXGXGXAXbXlXMXAXGXGXAXAXHXAXMXhXMXMXbXbXzXfXMXMXMXVXGXMXbXMXAXAXHXzXjXMXbXbXfXrXhXAXAXMXaXbXAXAXAXMXlXbXlXAXHXAXAXMXMXAXlXlXAXMXAXAXMXfXfXhXfXbXAXbXMXAXHXbXlXAXzXMXMXGX",
"bXfXAXHXAXAXHXHXGXGXbXlXbXlXMXAXVXMXMXzXzXbXbXHXMXlXbXAXHXMXhXAXHXbXjXAXbXHXKXAXhXzXAXAXAXHXHXHXHXMXzXMXbXHXHXKXGXjXlXlXfXMXHXHXMXbXGXGXMXVXAXMXbXVXGXMXMXMXAXVXMXbXMXVXGXVXzXbXAXGXzXbXMXzXlXbXbXMXlXMXGXGXMXAXMXMXMXMXMXMXHXhXMXMXKXHXHXHXAXGXGXbXjXMXbXlXVXGX",
"MXAXAXbXMXHXGXzXlXMXAXlXjXlXAXAXjXAXVXzXfXhXAXAXAXMXzXbXMXbXbXVXAXHXHXAXbXbXHXMXbXGXHXKXHXHXKXKXHXAXMXAXAXHXAXMXAXAXKXHXMXGXHXbXMXMXVXGXAXHXHXKXGXHXMXMXAXAXMXAXVXjXAXKXKXAXGXKXKXAXMXAXlXaXtXMXHXHXHXKXKXMXjXzXVXVXbXlXAXGXHXbXVXzXHXGXHXAXMXGXHXAXVXHXbXzXHXHX",
"MXAXzXlXbXVXzXMXMXGXlXlXfXlXlXMXhXlXAXAXAXlXAXGXAXVXAXbXhXbXAXAXAXAXAXAXlXAXHXAXAXbXMXbXMXHXGXAXGXGXbXMXAXAXMXjXAXHXHXHXAXbXbXzXfXlXMXAXAXHXGXHXGXGXMXbXlXbXAXzXMXhXMXAXHXHXAXKXbXMXHXHXHXVXGXHXHXAXHXAXAXAXAXlXbXMXMXjXAXAXbXbXAXlXMXbXMXAXAXMXAXHXMXlXlXMXlXGX",
"KXHXbXbXGXHXHXKXHXMXMXAXAXMXAXHXGXMXAXAXAXbXbXHXHXGXAXMXMXAXHXHXMXhXbXGXAXMXAXMXbXMXMXlXbXAXbXMXGXAXMXlXHXAXbXMXbXAXzXfXhXfXzXHXAXfXjXAXbXMXMXAXHXMXbXbXlXbXVXhXfXbXMXbXVXAXGXAXHXHXKXAXAXHXGXMXVXlXbXAXMXMXMXbXMXbXlXjXbXhXMXAXbXMXAXAXAXAXAXbXbXbXbXMXAXAXjXMX",
"MXAXAXMXbXbXMXGXVXbXlXbXHXGXHXHXAXAXMXMXAXAXlXAXKXhXAXHXbXbXMXAXMXGXMXMXAXHXAXMXHXHXAXMXMXjXbXbXMXAXbXbXAXAXhXtXbXlXbXhXbXzXfXMXHXKXHXMXMXfXyXrXfXMXbXMXAXMXbXHXbXMXlXhXfXhXbXGXHXGXGXAXMXAXVXzXMXMXMXHXHXAXbXAXGXbXMXMXjXjXMXfXhXAXHXHXKXKXHXMXbXbXMXAXAXAXMXlX",
"MXAXKXVXAXAXHXAXbXMXlXbXfXaXbXGXKXKXAXAXHXAXAXHXAXzXMXbXlXbXlXAXVXAXbXMXAXHXAXlXGXGXHXHXGXHXAXMXVXbXHXAXAXAXjXjXHXHXAXMXMXhXjXlXHXMXHXHXGXAXlXrXhXfXjXlXlXfXMXAXGXAXaXbXVXbXbXAXVXMXGXAXAXHXAXGXAXMXbXMXAXMXbXbXHXVXVXMXhXbXlXhXMXVXMXAXAXHXVXbXHXAXlXVXMXAXMXMX",
"AXGXAXbXbXAXAXGXHXMXHXAXGXlXlXlXfXlXHXKXHXbXHXAXMXAXMXhXGXGXHXKXHXGXjXfXAXHXAXMXMXMXAXAXMXAXMXfXfXhXjXAXMXlXMXHXHXHXKXHXHXMXbXVXZXbXGXGXzXAXAXHXHXAXVXbXAXfXbXbXbXMXhXbXAXAXbXAXAXAXMXbXAXMXlXlXMXzXlXbXMXlXjXMXAXMXMXMXHXHXHXAXAXMXMXbXMXMXVXlXMXAXKXHXMXMXMXMX",
"HXAXMXlXbXMXlXbXHXMXMXlXAXKXbXjXbXMXAXMXMXMXHXhXMXMXVXlXbXHXHXMXMXHXbXMXHXGXVXAXAXMXAXGXMXMXMXfXfXbXbXMXMXbXbXMXVXMXAXHXAXAXbXbXbXAXHXHXfXlXMXbXMXAXHXMXVXlXbXAXAXMXAXlXMXMXMXVXAXVXGXHXHXbXaXlXjXMXAXMXbXhXbXbXVXHXAXbXMXMXMXHXGXMXMXbXzXbXfXhXlXbXMXHXAXMXzXbX",
"MXHXMXAXlXbXAXMXAXGXMXMXAXbXbXbXGXGXhXhXlXAXAXVXAXMXHXHXMXMXHXMXbXfXlXMXHXGXHXHXMXMXAXHXlXfXbXbXAXAXAXbXMXAXVXMXMXVXGXGXGXMXGXHXHXGXAXMXMXfXfXMXbXbXVXAXMXVXjXbXAXAXAXbXMXMXVXGXMXKXKXKXAXlXlXfXrXbXAXGXAXlXGXHXAXMXAXMXMXbXbXAXAXbXMXMXMXAXfXaXhXhXMXMXVXjXlXbX",
"lXbXlXfXMXAXHXfXAXAXGXGXHXAXMXlXAXAXAXAXrXhXlXMXMXZXVXAXbXbXMXAXGXbXlXHXAXAXAXGXMXMXAXAXVXHXMXbXbXVXHXbXbXAXAXAXAXbXHXGXGXAXAXMXhXAXHXAXAXlXlXGXbXMXbXbXAXAXAXMXMXGXMXbXhXjXjXKXhXAXVXGXHXHXAXlXfXAXKXKXHXMXAXAXMXMXMXhXMXlXjXbXMXGXbXMXlXlXGXAXVXfXzXAXAXlXbXKX",
"bXbXHXbXKXHXHXGXHXbXMXHXlXhXlXjXMXbXHXlXfXbXHXbXbXMXMXMXzXjXhXlXMXGXHXMXAXAXAXMXlXlXAXHXKXMXlXMXAXMXMXGXAXHXHXHXbXbXHXMXAXAXMXlXjXMXMXMXVXMXAXAXMXMXMXjXhXbXbXMXMXMXAXAXAXVXjXMXMXbXfXzXbXbXVXAXbXMXAXMXAXVXMXlXlXrXaXvXMXAXAXVXVXMXMXjXrXlXMXHXAXMXAXHXHXAXAXAX",
"HXGXAXMXAXHXhXhXHXHXAXAXjXlXMXMXMXfXfXlXMXAXAXHXAXMXAXbXMXMXMXlXAXAXGXAXHXAXAXMXzXjXAXAXbXfXzXbXAXVXjXlXMXMXMXMXMXAXAXHXHXAXMXbXjXbXVXMXMXAXMXhXfXlXhXhXjXVXzXfXMXAXAXAXAXAXAXVXGXbXzXaXrXzXbXlXlXlXAXMXlXMXGXMXHXfXfXMXGXAXHXAXMXVXAXzXbXhXbXGXAXMXMXbXVXMXbXMX",
"HXAXMXMXMXbXhXlXAXbXAXlXAXMXMXHXAXAX+.( _ #.#.] ] ] ] [ [ [ ] [ ] ] ] ] [ [ [ [ [ [ [ [ 4.[ ] ] *.*.&._ _ +.+.&.*.*.*.&.$.e h $.&.#.#.#.@.@.@.[ s.s.s.s.s.s.s.s.s.s.s.s.s.s.s.s.s.s.s.s.s.s.*.s.*.*.k.k.*.*.k.&.%.+.+.#.#.-.VXbXbXMXAXVXAXbXbXbXlXlXfXhXMXAXAXMX",
"GXGXMXKXGXMXhXMXMXzXhXaXMXHXGXbXKXHXY Y Y ' ' ' R R R R R R T T T T T R T T T R R T R 1.1.^ { ^ ^ { { { ^ ^ ` ` ^ ^ ^ ' P   # [ ^ { ' ' 1.6.1.1.1.6.6.6.6.6.6.3.5.5.5.q.5.3.3.5.5.3.3.3.3.4.{ 4.9.9.9.9.0.0.0.0.[ { ] ( ^ ( MXVXbXbXGXAXGXHXHXMXlXAXHXMXlXbXhXjX",
"VXAXGXAXVXHXKXHXAXVXAXAXGXMXMXbXHXHX) Y Y Y R R T T T T T R T T T T T T T R R R 1.6.3.7.^ ^ ^ ! ^ ` ` ` ^ ^ ^ ` ` ^ { ^ ^ Q ! ^ ^ { 4.6.1.6.w.7.3.5.6.8.8.' 6.6.4.6.3.5.0.3.6.4.6.6.3.3.3.] / 4.4.4.4.4.4.0.0.9.4.{ ( / / &.MXHXbXMXAXGXHXKXGXAXHXAXGXMXjXMXfXzX",
"HXMXAXbXMXMXbXKXKXAXAXAXMXGXMXlXMXlX/ Y Y Y R T T T R R T T T T T R R R R 1.6.7.>.<.x.0.{ [ { ` 0 ] ^ ^ ` Y ` Y ` ] { ^ / [ [ ( { [ 9.0.w.] Q q.q.q.8.! _ t.q.q.q.q.5.q.0.q.q.q.q.q.0.5.8./ ! 0.4.4.4.4.3.4.4.d.9.[ ( / / &.MXlXbXfXMXMXVXAXbXlXGXAXlXbXfXlXfXlX",
"AXAXVXAXbXfXhXMXGXAXHXAXbXHXMXMXhXfX_ Y Y T R T T R ' ' R T R R 1.1.1.1.1.3.7.8.|.J.<.7.6.6.] 9.Q ` { { { ^ Y ` ^ ^ ` ` ` ` ( ] ] ^ { [ 0.9.! 0.0.e.m.6 u R.q.e.e.q.q.q.q.q.e.e.e.q.q.q.q.} } 0.0.0.0.0.0.0.9.q.) ! { / / $.lXaXhXlXMXMXAXHXHXfXlXzXMXlXaXhXMXlX",
"lXAXVXVXfXrXbXhXbXVXbXbXMXMXHXAXlXfX_ Y Y T R T R ' ' 1.R R ' 6.6.6.1.6.6.3.6.,.6X|.,.7.6.6.1.4.w.] _ _ _ ] ^ ^ ^ ^ ` ! ! ! ! ` / / _ _ _ [ e.q.q.e.x.n.w.e.q.q.e.e.e.q.q.q.q.q.q.q.q.q.q.9.0.q.q.0.q.q.q.q.0.} Q ) ] / / $.lXMXMXGXKXKXAXGXGXbXbXMXhXzXhXhXAXbX",
"fXbXHXHXlXhXGXGXhXlXAXMXAXMXMXMXMXfX( Y T R R ' ' ' ' R R 1.6.1.1.1.1.1.1.1.W |.5XtX|.W 1.1.1.{ q.0.{ ^ ] { [ [ [ ] ` ` ^ ` ` ` ! ! / / / / ] 9.0.0.K.T.t.q.w.w.q.q.q.w.e.e.e.w.e.q.q.q.0._ x.x.q.q.q.0.0.0.0.[ ! ] _ / / $.bXKXHXGXHXAXGXbXbXGXMXAXbXlXhXzXMXAX",
"AXzXKXAXbXHXVXMXMXbXGXAXGXHXMXAXAXfX_ Y ' ' ' ' R ' 1.1.R 6.6.1.1.6.6.3.6.6.,.|.2XuX9XW r.3.7.7.q.8.6.3.1.' { ' 4.[ ^ / ` ^ { { _ _ _ ] ] ] } } 9.9.s.g.x.q.q.e.e.e.e.e.T.t.n.T.t.q.q.w.0.%.K.e.q.q.0.9.9.4.[ 4._ _ / / ) $.bXHXMXlXbXbXAXAXMXlXbXMXMXbXHXKXbXMX",
"KXKXKXKXHXAXAXbXMXbXAXAXHXlXAXHXAXMX#.Y ' ' ' 1.1.1.1.1.1.6.6.1.3.w.7.3.3.3.:.2X{.,.>.<.w.w.w.t.] / q.7.3.1.' ' 0.9.[ ] ( _ ] } s.} ] } 9.9.9.] _ ] 9.0.e.w.e.T.x.T.K.x.e.t.T.e.t.m.e.n.*.%.w.q.9.9.q.0.0.9.4.[ u ! _ _ ) $.bXbXMXMXlXbXMXAXMXAXbXlXMXMXAXzXbXMX",
"HXHXMXAXGXGXMXhXfXlXGXAXAXMXMXGXAXMX#.{ ' ' 1.1.1.1.1.1.4.6.6.4.e.:.,.q.3.8.<.I.I.<.6X[.<.w.w.m.! u m.t.e.] &.1.0.9.{ _ Q Q _ } } 9.9.9.g.g.*.+.) ) 0.e.e.e.x.K.T.T.T.T.n.R.u O $ $.R.t.&.$.t.q.} ! *.q.0.q.4.4.u t +._ ) &.hXhXAXHXAXGXHXGXbXzXMXbXMXMXMXhXjXMX",
"MXHXbXMXMXVXbXfXbXAXHXAXHXbXAXzXMXbX#.{ ' ' 4.6.1.1.1.1.6.6.4.5.>.{.$X<.w.w.8.x.x.8.6X[.>.w.w.8.y.n.l.9.A.S.C.` ' { $...u  .) ] d.9.$.] } } &.$.) ) g.e.e.x.e.x.K.T.T.x.t.t.% o . O x.m.../ E.}.9...Q 9.w.K.K.q.u - ! [ ) &.AXHXAXAXbXMXAXAXAXzXVXHXbXAXAXMXAXAX",
"AXAXVXbXbXlXbXMXKXKXKXMXMXfXAXMXMXAX@.{ ' ' 4.6.6.1.1.3.5.6.6.:. XDX$X,.8.w.w.8.w.w.>.8.w.t.t.H.L.u % u o.%.Q F._.+.F.).S.S.%.=.=.=.o...) =.=._ +.) 9.x.e.e.e.e.e.x.x.e.q.m.u . . y R.m.~ ` N.|.F.^ Q &.T.K.E.0.t -  .[ ) =.HXAXGXAXzXbXlXVXMXfXlXHXMXMXGXbXbXAX",
"HXAXMXlXzXHXHXAXGXAXhXbXhXhXbXHXAXMX*.{ ' ' 4.6.5.5.5.[ 4.6.6.>. X|.z.uXI.<.8.>.w.w.8.y.R.m.m.P.F.. . O X ~ Q.$X2X) F.#X_._.^.F.S.Z.C.F.F.A.s._ $._ ] z.e.q.0.q.q.q.z.e.q.n.x.t e c.R.*.% |.4X+.S.] ..=.T.K.K.] ! h Q [ _ =.VXzXbXhXlXMXbXfXfXbXbXbXMXGXAXbXjXAX",
"AXHXAXMXhXVXGXAXAXAXMXVXAXMXfXlXHXKX@.{ ' ' 1.4.3.7.d._ { 6.6.8.x.>.c.uXI.<.T.$Xx.<.R.Y.8 q 9.R.Y.e o o . - $X9X{.| F.F.F.F.S.S.A.# # Y.S.%.[ 9.s.s.} s.z.e.e.q.q.q.q.e.z.q.n.R.T..... .% +XIX! o.j.~ o.T.x.K.] ] t Q s.] =.AXGXGXAXAXGXKXrXfXAXjXAXMXhXfXMXAXbX",
"MXGXAXMXhXMXHXGXAXAXMXGXGXGXHXHXHXHX@.' ' ' ' 4.3.5.} _ { 2.7.8.E.I.:.w.n.:.2XcX8.y.C.B > *   C.}.D.u $ . o @X4X[.| D.A.) X.Z.O.o.Q Q ! +.$.} d.d.z.s.*.d.q.q.9.0.0.q.z.e.x.g.z.$.o.y j 5 M $Xy o.E.u ..T.d.z.} ) u ..[ ] =.HXMXMXKXHXAXbXhXjXMXlXhXfXfXMXMXMXlX",
"AXbXMXzXzXAXVXAXbXMXAXAXMXlXlXMXhXMX*.{ { ' { ' 3.0.*.+.( [ q.<.>.<.8.W.0X7.(.|.N.m.8   OXwX3 . ^.Y.G.*.Z.Z.{.$XF.&.H.! 6 y u P ! ..Q u Q ..+.&.g.[ &.s.9.*.9.9.9.9.z.z.x.x.K.K.$.o.h y O a p e ~ &...&.d.g.x.9.) h Q d.] =.AXAXGXGXbXbXMXlXlXMXMXjXfXVXMXAXVXzX",
"KXKXGXAXbXMXAXKXMXMXbXMXbXbXhXbXMXlX*.{ [ [ Y ^ 6.' ..+.( [ >.2X6X>.n.T.U.R.U 8 m.t.t.@   7X7X    S.h.%.Y.{.{._.F.=.H.X.s k M N h k l 5 5 j  .! _ ) *.k.d._ *.x.9.d.d.z.z.9.q.Q y  . .h = # e k j &.s.k.k.J.K.0...j $.s.#.=.bXAXAXMXlXlXjXbXlXAXAXbXbXGXAXMXMXzX",
"HXHXHXlXfXrXAXbXlXfXbXlXbXlXAXAXHXMX*.T #.[.$.Y d.%.Q &.*.0.>.$X2X<.T.T.<.t.0.$ $.m.m.I.> K :XOX3 X %.U.A.S.F.^.C.+.! X.C.C.Z.l 9 t p 1 O 5 q !./.=.) Q d.! y s.0.9.0.0.d.s.$.e i  .! j & j  .# - %.v.*.H.G.E.0...k.l.*.@.=.hXbXMXlXMXMXjXbXlXAXHXAXlXbXHXVXAXAX",
"bXbXhXaXaXfXGXbXhXbXKXKXAXMXlXHXMXbX&.] { *.P.} [ O.X.=.j.6.5.>.>.x.T.t.T.U.4XG q R.N.4X5Xq . Z V . O O.I.A.D.S. .%.! 8 q 0 q l (.N O `.OX  M 5X|.! X w +.Q 5 Q s.[ &.o.} n.*.y w N h.h O X.~ = w t  ...k.K.H...&.d.s.s.@.h.hXfXbXMXbXMXbXbXMXMXHXKXbXbXlXVXAXAX",
"bXbXbXlXbXbXlXVXMXMXHXHXVXlXjXzXbXbX^.[.&.` ! +.I ! %.=.[ ' 7.w.w.e.T.y.}.0X}.S.u t.<.I.uXR.q   X - # O e o.U.Y.I ).+X!.8 8 8 u  .7 < 5XiX-Xm _.4.% o M X.0 9 u +.] %.l &.s.$.g.Q d l i # i j w w w k $.&.G.X.+.d.s.s.s.*.H.bXjXzXAXHXMXAXVXAXGXAXHXMXbXAXAXMXMX",
"AXHXHXAXVXMXMXAXMXbXAXbXMXAXGXbXMXAXD...0 t Q I { =.-.` ] g.w.w.e.K.e.T.n.K.N.' h 7.8.q.L.7.n.9 . + $ + O - e %.E.w B IX5X3X3X'.2XV n @X9XyX*XJ @ d l t j h 0  ...! ..t ..$ # *.) p l < # # h l o.o.l %.&.H.I.z.*.g.g.d.s.H.MXMXHXbXHXHXGXGXGXAXAXHXMXAXMXbXMXbX",
"MXHXHXHXKXKXKXHXAXHXAXAXMXMXGXKXMXHX%.I u 9 Q t 9 j ~.).D.} l.<.>.n.x.w.w.<.8.9.6 !.[.:.[.{.r.a.! t  .x + = G - %.s F IXpXKXHXKXKXuXs O (.1XiXF 3 z t 9 u t Q  .j u ..t t # o  .+.y h - = # # !.D.e  .A.G.I.I.j.s.g.s.s.s.h.lXfXMXAXAXAXHXHXHXHXHXMXAXMXAXVXMXlX",
"bXAXHXHXMXHXHXAXAXAXHXGXVXAXAXMXAXHX+.! / { _ ) u 6 j F.D.9.<.U.%Xx.e.e.8.c.5X[.U V _.,.2X2XW [ &.%.X.}. .# F F J X A pX0XrXjXpXpX0X7 K >X>XwXOXF   e ..Q 8 q j t j O.Q ! 5 -  .y i s p = = & i - o j &.=.J.I.J.s.g.h.s.d.j.lXGXMXVXbXbXMXAXAXHXAXAXAXAXGXbXVXMX",
"GXMXMXMXzXMXMXHXAXMXHXAXHXGXVXMXbXAX*.^ ( 0.[ ! ! Q 0 ^ H.G.>.|.0Xq.w.q.7.j.2XK.4.w ..n.:.*.j.[ y e t u H.A.7 - 7X<X`.yXpX3XpX5X$X#X- :X<X=X,X:XG . $ 6 % ;X~.8 8 y X.....k t  .e - p p # = = & , : p %.+.k.J.c.s.k.z.g.d.G.MXMXMXMXAXMXbXbXlXzXbXMXAXAXGXMXAXAX",
"GXMXHXAXlXbXAXGXMXVXbXHXGXMXbXHXAXbXg.1.{ ] 4.{ / P 6 $.Y.g.8.q.{.J.q.0.7.G.D.7.z.o.Q z.4.W `  .! y j e o.%.F.Q A dXiX,X9XpX0XH G a OX>X+X>X-XZ 2 2 e   K yX(.8 (.X.0  .t k t u X.s w i # < : , , & < $.+.&.j.c.s.g.j.j.g.L.AXbXzXlXMXAXKXHXAXAXHXMXVXGXVXGXAXMX",
"bXMXAXVXMXbXAXAXbXfXzXAXGXMXbXHXAXMXg.0.4.[ [ { 0.8.q +.x.7.7.z.{.z.q.q.:.2XKXW <.A.j ( s.$XS.I Q e j j H.A.o.{._.3 =XiXtX=XS.F.=XB <X=XC :X<XOX2 X % G J 7 @ Z <Xl 0  .j t u u k s p e = , , 3 , O * h h.=.h.j.k.g.j.j.j.J.MXAXbXMXHXGXVXbXHXHXHXbXMXAXAXAXVXMX",
"MXHXHXVXbXbXVXAXAXMXhXMXAXAXaXbXHXAXd.4.0.0.0.5.3.7.h Z.e.q.q.q.l.z.q.l.8.P.-X$Xn.| h I [ uX{.W Q e 5 e H.Y.P u ).a +XKXDX+X~.4XuXOX:X<X<XOX7XeXOX2 OX8XG U @ J K   u j h t 9 X.k < u ! s , , , = , O & o.c.G.G.k.j.j.j.j.L.VXAXMXHXAXVXzXhXVXAXMXHXAXAXMXbXMXbX",
"MXGXMXAXMXbXMXMXbXbXAXAXAXMXbXzXbXVXs.1.4.5.5.5.r.I.'.N H.g.7.q.c.L.5.0.z.W @ eX}.I < t ] W 0 y e w < s h q j `.m - +XIXIX@X=XiX9X-XOXn =X:X:XK K eXK F ;XU ..t + < X.t p h q O.Z.f j ..p $ & # O , < o k c.G.J.g.k.j.j.j.G.MXVXMXbXMXbXMXAXGXAXjXAXbXAXAXhXlXbX",
"MXAXlXHXAXbXGXzXfXhXMXKXMXMXHXbXbXVXs.6.6.6.3.5.r.K.;XZ.F.H.8.l.q.q.l.d.3.E.t 3 {.Y - k u l p 6 Q s s s a 5 _.0Xs % < iX$X#XmXaX3X=X7XJ :X:XA a w :XO = H u Q u @ +X=X7 7 i $XZ.w x X.j # s < & , < < , o.h.G.J.g.h.G.G.g.L.zXMXAXMXMXAXMXzXbXHXbXjXMXMXGXAXHXHX",
"MXAXHXHXVXAXAXlXlXlXbXAXMXMXAXAXVXHXi.6.6.5.5.5.5.8.2X(.F.H.8.z.3.8.l.0.:.|.3XD ;XR p k 7 '.5Xq X.k w 5 e Z.{.k m 1 - 3X9X9XcX9X9X, G qXC = i C C J 7XH b O.8 O $ G Z - s d (.s < i l i < ).N O , < = k h.&.h.G.k.j.G.j.j.L.AXAXVXGXbXMXAXGXbXMXbXlXbXMXAXbXAXAX",
"AXhXMXAXbXaXlXMXAXGXAXbXMXVXAXGXMXlXf.6.6.5.5.5.0.:.$X+XA.P.q.8.[.[.R [ { =.P.o.K X.l < X.Y $X_.Z.w $ $ p k l ~.`.9X#X$XpX9X0X@X, 1 # +X^.D.N F b 3 :X+X, w A 3 1 # # < M d # k f 2 m i < D.X.o , = p =.s.k.j.K.c.K.K.K.c.I.AXAXKXHXMXfXhXlXfXlXzXAXAXMXbXbXlXAX",
"MXbXAXlXfXfXhXbXVXHXHXKXKXAXMXAXlXrXf.4.5.5.5.0.0.:.|.>XA.J.q.7.I.P.' [ @.] 1.c.1X~.j , s ] %X0XF.e % $ 6 p $ x H 9XpX9X#X3XpX7 & >XJ G _.C.$X(.p y # : < , G M - i m d 5 $ i y t m V - # $.! < < k A.=.%.o.O.X.j j X. .j l MXVXHXGXGXjXaXrXtXbXGXAXVXbXlXbXMXMX",
"jXVXlXAXbXbXMXHXAXhXHXGXHXMXfXfXhXfXk.5.5.5.5.5.5.3.c.|.A.7.7.d.3.3.*.#.W |.yX! 2XyXN z $ ).%X$X .6 # $ 5 $ 5 9 @X9XqXIX4X&X=X8 /.3X#X+X7X*XJ }.Z.) 0 3 d m s f a d f A i $ l j y ~.C & Z D.7.e , k l j t t u Q Q o.....o.o.GXAXMXbXMXlXfXlXhXbXMXbXAXHXAXAXVXMX",
"lXVXbXbXAXAXbXMXMXfXhXzXGXzXlXzXHXfXg.0.5.q.5.5.u.l.3.r.d.d.d.d.4.g.+.) 4.L.!.% 4X7X; /.l 5 !.F.P 5 $ $ $ $ 7 X.3X9XpXpX%XN 7 Y P._.!.F H m +X3X+XC. .d G 1 s s < a a d f X S S # S M # >X{.W C.`.(.C.Z.).)./.F.P.c.E.E.x.v.VXhXlXMXlXbXlXbXlXAXMXMXMXMXHXAXMXAX",
"bXbXfXaXMXAXMXaXlXhXrXhXAXbXbXMXMXVXc.5.5.q.5.5.7.q.5.M.w.5.0.5.w.$X[.3.z.6.U D tXJ r x /.6 $ Q y $ 5 5 % p p z Z (.^./.Z.N [.{ Y _.^.+XJ W z.`.C a < - A n a m 1 ~.~.2 s i M A H S p - +X;X@X2XuX>XOXOX+X-X+XOX+X+X#X@X(.'.jXjXlXMXlXMXMXbXlXGXGXHXGXAXfXlXMXMX",
"MXbXMXbXMXVXGXMXlXAXMXAXVXhXMXGXMXAXv.m.t.t.t.l.a.w.w._ _ [ @.( 9 o.&.6 $  .U |.yX(.M # z i 5 5 e 5 i $ s M f 5 b Z.U 8  .Y.S.Q I /.Z./ $X).q 8 7 O # - n m s H H Z.O.i Z.k M @X@X`.f - C ,XyX$X;XF Z Z n F J OXOXOXOXOXOX+XzXbXbXlXbXGXMXlXbXMXbXAXGXHXMXAXMXGX",
"AXHXVXaXlXGXKXKXHXAXAXGXAXMXAXHXHXAXi 6 6 5 9 ! 6 ! l.% $ +.#.! @ `._.7 O Q /._.&X#Xi + f i - 5 e '.'._.J i $ - :X:X9 ..I =.t Q ( o.'.( W _.(.q - j h < e - m (.'.N e y j M #X#X~.`.M $ n <XyX3X(.V S S m 2 1 1 n m d d V G lXfXlXMXAXlXAXHXAXlXhXlXbXGXfXAXAXHX",
"AXKXKXAXAXKXKXAXHXHXbXlXMXHXHXHXAXAXi 5 $ $ u _ _ 4.v.[ ) l.5.4.[ D.b.[ 4.5.PX0X}.9XO   d B.s < $ &X&X|.).9 $ % 1XmXZ q Y %.[.P $ % _./.Y &X|.P  .=.j - w S M a (.#XN s ; M 9X#X).+XA < n 1XwX9X5X1X$X5X;XS n 3 = < < X O : zXrXaXjXbXMXbXKXMXMXAXAXMXMXbXAXfXMX",
"MXbXGXAXAXAXGXaXVXHXbXMXbXMXMXMXHXMXR.n.l.m.n.M.] $ $ d.m.a.u.[ s.4.6.=.j.:.P.0X4XuX:X% 1 ~.v , = u Z.P.W.u < @ G gXB @ @.+.^.$ . 5  .< X +X$X( X.- y % . S G a (.4X3X(.`.#X#X9X;X'.S n # -XtX;X;X<X'.>X;Xi & n : e ^.'.S.o.AXbXAXHXHXHXAXHXAXjXMXMXAXKXHXMXfXbX",
"AXlXAXVXAXMXlXbXMXMXzXbXbXlXlXbXvXzXh O ! t.5.M.5 . . # u $ Q ( ) ) ) d.:. XuXKXPXpXpXZ.O 1 D ~.g # s H.x.X.$ + # ,XF   $ # i # + 6 5 + % /.2XF.e O 5 - C H +X< N qXuX3X@X>X>XyX*X].V.S n -XyX(.`.wX>X=X;X< O < o X.W.|.|.I.ZXMXGXKXKXAXlXjXAXVXMXAXhXMXHXHXlXlX",
"MXlXfXMXHXAXlXAXbXlXAXKXKXHXMXAXMXbX$ # u.w.5.a./ $ 6 Q 5 + 9 ! Q 9 7 { U 3XmX5X9XIXuXo.y = O g x z i # i i # O i `.3 . + + # # # i +._ j ! _.N X & $ < :XG n & F H `.@Xn ~.XXV.M ]..XV.~.Z =XS OX5X2X-XwXS X O o k P.$.D.^.bXAXlXMXHXAXMXAXVXbXbXMXfXAXHXMXMXlX",
"MXAXlXhXlXHXHXHXHXHXKXKXKXHXMXMXbXMXn.7.M.M.5.a.M.n.m.M.l.d.u.i.5.1.[.{.Q S C.q $ yX%X% # # O = # i z ~.s O , , a X + , < w # w $ e +...5 O e s D #   . C OXOXJ n   $ `.A  XV.V.B.2XXX.XXX~.`.H =X#XF.;X>XC.e o O < s s k S.bXlXlXzXAXGXHXAXAXMXhXlXAXMXlXbXMXMX",
"HXHXAXAXfXAXMXlXhXMXbXAXAXMXAXAXGXAX .i.! ! 4.0 ! 4.! u.i.p.2.[ f.w.b.k H ;X'.Z.J Z Q o.# . d m Z 3 = M p O O O O Z , , = i - p h w 5 O # , (.x >XUX`.V   2 +XJ   O O D |.`.'.>X'.XXV.V..X.X1X1X_.!.#X4XL. ., , , , , h j P.GXGXMXAXMXAXVXAXMXlXMXMXHXMXfXbXMXAX",
"AXVXbXGXGXjXfXbXaXrXrXjXMXMXAXGXHXHXo  .6 9 d.6 Q ] u M.#.n.v.n.+.u D.r Z 9XG J J   O S.9 O 1 F 7XF # , O , = . . 1XG X + O # x /.z z # < @X=XL 3 uXPXtX=   : = O , # h XX].XX6X+X;.B.!.;.XXaXJ w Z.~.z h l p # o < k D.g.X.HXKXHXAXHXGXAXVXAXGXHXHXHXHXlXMXbXAX",
"zXzXMXAXHXHXHXAXHXjXbXAXMXAXMXAXAXAXo.z.n.v.n.m.a.[ _ ! ! y 6 7 j M f `.b X O J = . w t # < X <XkXF . = = X . - f 1XJ @ i i < V V d g g i ;X5X/.o.A yX<X+ - i + O < X.i c  XXXXXH   1 - 1 ,XD $ $ < O O : , i k p O.L.I.o.o zXAXKXAXHXHXHXHXHXHXHXVXhXhXbXMXAXHX",
"MXfXlXAXGXHXGXbXHXMXAXHXKXHXMXGXbXAXv.4.7.n.4.9 $ O + . . $ % < +Xd Z , < # = C , # e # i p : ,X:X2 ,   # =XoX(.'.G f # p p a D F V V g O K =X%.1.j D V J =X[.6 O # - $ Q 8...~.`.F o X H <X3 # , : , , : , k D.o.p -.J.=.X.jXlXvXvXGXVXMXAXHXHXVXzXlXAXMXHXAXMX",
"bXVXVXAXGXKXHXAXbXGXAXGXbXjXfXzXbXlXf.5.5.! $ . # + + 5 u [ 6 I.F.b C X # & n - . O i < # , -X>XF @ 9 2 yXKXuX3X,XV 7 # p m f v V n L , + , < 5 t P U `.yX7X'.Y # o w =.7.[.'.N n V & $ H iXOX+ : , & O < s k S.e . k E.j.E.hXAXAXKXKXAXMXlXMXHXAXbXMXAXAXHXMXAX",
"MXlXAXAXMXVXGXMXbXKXHXMXlXMXAXAXjXlXf.4.5.n.! O # O 6 #.#.h ..6.@ B z $ # i 5 # O i j @ 5 +XyX1X1 d D D yX0X3X;X$X-.z % Z -Xv d D g h 6 O - P Q ..^ X.=X>X:X!...# . X.m.I.0X@XA < - < X J yXd O i < O O k # d Z.A.O s E.j.P.MXAXMXAXGXMXMXbXMXAXAXMXjXMXGXAXMXMX",
"AXlXMXAXbXbXGXAXKXAXlXlXKXAXHXKXMXhXf.5.u.Q 5 . $ 9 #.y.%.- j # * 2 t 5 # 6 9 # $ 5 a *X=XcXJ : 9 |.yX< D @X`.(.;X{.~.s D J i , d l d.M.5 # &.&.#.{ M A S D i j @.$ + e.%X0X`.n O < = . +X+XX & i < < s %.X.2 b !.$.=.E.h.P.vXGXAXMXbXbXMXzXMXbXAXHXbXbXVXbXMXzX",
"AXGXbXbXMXMXAXGXGXbXhXlXKXzXlXaXaXZXf.u.] 0 0 0 ( M.1.^.n $ y O : # $ # # 6 t # $ 7 ;XIXJ <   Z $Xx $ G `.J >XA Z ;X(.D D H z 6 1 v b./ t t .. .Q o.N #X(.X - #.E.C.. o.W.4X`.n = : o X.'.n , < , , < k z.[.G : M E.e X.K.P.MXMXHXAXMXlXlXMXbXHXAXAXHXGXAXhXlXVX",
"VXAXAXMXAXAXlXhXMXbXbXMXbXAXlXfXjXAXf.' 7.M.M.m.i.! Q D x m.9 o = 5 O O # 6 6 t a.v.S 1     V 5X3XJ Z D D V gX`.% V ~.Z.!.o.!.< : D O.5  .+.! h j o.A 5X-X. 9 W.'.P.# $ 0.'.+XA = o < P._.& : l i , k i H.Y.S , M D.# l E.P.HXMXAXAXbXlXfXlXAXMXGXHXMXMXAXlXhXMX",
"MXAXGXlXbXbXMXMXAXMXMXVXMXMXbXMXAXHXf.2.6.p.#.y j +.f.1.7.! $ o h u # $ e  .t M.@.a o   O C uXPXyX;X'.J < 7 v D ] $.k /.^.+.S.X.4 z h i  .+.&.t 5 u J <XF . 6 {.$X..h # 6 A G A , , H.W.[.O : S. .: S.X.O.I.S 3 a P.J.D.L.P.lXMXVXhXfXjXlXMXGXbXMXKXlXlXlXbXMXAX",
"VXbXhXMXfXzXGXHXKXlXhXHXGXlXMXAXZXMXf.2.6.p.@.! i.7.6.7.( e - $ *.t $ h +.! u %.: O X d (.;X5XJ yX5X`.F u +.7 e v.{ I %.C. .^.c.p s h p Q %.=.0 $ l @X5Xx o ).%X#XX.E...o 1 2 b 1 P.m.W.W.6 * D.o.o O.G.S.K.'.b , D.K.X.S.I.lXlXbXbXfXMXMXMXAXjXlXAXbXlXbXGXHXHX",
"hXfXrXhXhXHXGXHXAXMXMXAXHXGXAXMXhXjXi.2.u.u.6.7.6.2.5.[ ! Q Q @...5 e w  .0 5 < O + i '.~.1X1XJ +X(.X.^.-.-.9 ..j.! ( ..o.%.S.o. .!.-._  .%.#.Q f N _.4XS o #X%X#XO.v.R.$ o , > 3 D.m.U.U.*.S.K.X.- =.j.H.J.^.b 2 S.T.=.-.U.AXMXaXhXhXHXGXzXHXAXMXbXbXzXMXbXMXMX",
"fXrXfXjXMXGXKXGXbXAXhXbXKXMXbXAXtXhXi.2.u.u.2.2.2.6.p.4.] [ ( 0 t j w # $ i < O O a (.O.G wX7X`.o.+.E w.o.+.Q j y Q Q  .f.) ~./.v.n.M.v.s.c.%.! Z._.).`.V 3 2X}.'.%.c.z.# o , : X. .o.}.Y.T.W.x.X.A.R.J.G.J.*.2 n D.c.j.=.D.HXAXhXrXrXfXlXVXHXMXAXGXGXAXGXHXHXHX",
"GXAXAXAXbXlXAXHXHXbXfXMXMXVXhXhXhXAXi.2.6.u.2.2.2.6.u.u.@.i.i.o.Q # = 6 Q i , . - z !.N Z +X<X(.R Y / &.u +.P  .e 9 u 0 &.h !.[.8.l.v.v.n.n.%.! ^.{.C./.j K 0XU._.=.R.h.# o * a R.n...{.U.z.z.z.h.K...j E.K.$.n C S.c.K...k hXMXAXAXbXlXfXMXVXMXHXKXHXHXHXKXKXKX",
"bXbXlXbXbXMXMXHXAXbXMXAXAXAXhXbXGXMXd.5.u.6.2.2.2.6.u.u.5.7.g.*.Q # O j j # + , < e ).yX`.<X-XO.( Y I %.h O.P O.X.9 9 9 x z ^.[.8.l.z.z.x.n.k.k.D.o...D.l -X9X|._.*.R.=., o o C.R.R.x.[.U.x.K.K.K.T.$.o.E.E...A G O.z.G.h.A.bXAXMXMXMXAXfXMXGXGXHXGXAXGXAXGXHXKX",
"MXbXfXlXMXAXMXHXHXMXAXGXVXHXMXHXMXAXd.6.6.2.2.2.2.2.2.u.p.! ..@.Q 9 $ p # . # 9 Z (.5XsXwX5XO.` Y +.+.o.X.-.I ..+.P t p k ..!.P.7.q.l.l.l.l.u.g.&.!  .h k :X5X$X_.[ R.%., = . X.W.T.T.U.U.T.T.K.K.K.R.=.A.R.%.f C C.g.j.j.I.jXVXVXMXfXjXMXVXMXbXbXjXbXMXGXHXGXHX",
"AXGXlXAXMXMXMXAXAXAXAXMXzXAXAXAXZXHXf.2.2.2.2.2.6.2.5.u.a.#. .! 5 $ i $ + O +.% V @XaXyX;X!.+.I I +.-.*.4.2.Q +.@.[ j k %.&.O.u.7.l.d.u.u.l.5.z.&...j h s =X>X#X'.4.n.X.: , o o o.R.x.{.[.w.<.x.c.c.R.u o =.h., V C.j.G.j.P.bXMXMXbXlXbXAXAXGXMXbXlXMXMXMXMXVXVX",
"VXlXMXbXVXMXMXVXAXHXHXAXAXAXGXAXVXAXd.2.2.2.2.2.2.6.5.5.7.+.h P ( t # , 3 +.Y : S ;XcX1X).D.$.I +.i.i.5.u.4.+.@.@.p.( j =.p.a.7.u.u.u.u.l.p.l.l.*.$.X.h s J +X_.^.4.n.o.O < o.O o %.R.I.d.[.6XI.x.z.E.+.- A.=.k ~.~.h.j.j.P.MXAXMXMXAXAXMXVXMXGXHXHXKXfXrXAXbXAX",
"AXbXGXHXKXHXHXKXHXMXKXGXGXHXGXAXbXjXd.6.2.2.2.u.u.5.5.6.7.! Q i.( e # B ~.N.7 F `.1XUX1X3XD.r.! *.v.p.u.u.u.! #.5.4.a.4.5.7.q.5.l.l.d.l.d.p.l.l.*.$.%.j s m ~.).^.7.T.o.# j R.t . o X.m.N. XmXU.T.K.T.T.< A.D.f (.(.H.J.L.P.MXMXAXHXHXbXAXAXfXMXAXMXbXjXAXVXAXGX",
"MXHXGXKXAXMXbXAXAXMXAXMXAXAXHXHXhXjXu.2.2.2.2.5.5.u.5.5.u.a.M.@. .< = V c.( = J `.yX5X7X@X4.E ! z.a.l.5.4.u.@.d.l.l.l.a.a.l.l.l.l.l.l.l.l.l.l.l.[ &.-.X.k m N !.^.7.T.o.j j.R.=.p o . p &.*.K.m.R.W.E.j s I.P.a !.).D.J.H.P.AXAXbXAXKXAXbXaXrXbXjXlXbXbXbXMXbXAX",
"VXKXGXHXAXzXfXlXHXzXzXAXhXhXlXbXrXhXi.2.2.2.6.6.5.u.6.5.6.6.[ 0 e i < j *.+.Z.`.+XtX5X>XF.1.-.=.7.l.d.5.p.l.a.a.l.l.l.l.l.l.l.l.l.l.l.l.l.z.z.l.0.0.D.O.l x t !./.3.c.h.z.n.z.c.x.*.y o o O 5  . .y o o S.W.H.=.P./.D.J.L.P.HXbXbXlXMXlXaXrXMXMXfXHXAXlXbXGXMXhX",
"AXbXMXMXlXrXbXKXHXVXbXbXjXrXfXfXjXlXf.2.2.2.2.2.6.2.2.2.2.u.2.! t k , ! i.[ [.J =XuX>X@X%.r.D.b.7.p.l.p.u.d.d.5.p.7.5.5.5.u.5.u.p.p.l.l.l.z.l.z.z.w.P.S.O.x u ).!.7.c.G.l.z.z.g.z.R.R.k.w . . o p X.t p A.I.L.K.I.Y.P.L.L.P.HXMXAXMXMXbXbXGXAXHXMXKXAXlXAXVXHXbX",
"MXzXVXAXlXbXVXAXAXHXAXGXVXlXjXMXHXHXi.2.2.2.2.2.6.2.2.4.2.2.7.2.+.S.- y #.8.^.C >X0X@X!.] a.f.u.l.u.5.5.4.4.4.5.5.5.u.5.5.5.5.5.0.5.5.7.q.l.l.l.l.w.J.S.O.l  .^.S.v.j.h.x.z.z.c.c.g.c.R.T.u w O.E.R.R.R.K.j.h.h.j.I.P.P.P.Y.AXAXAXMXlXGXAXMXMXMXGXMXzXbXMXMXAXMX",
"HXGXAXGXGXGXHXKXKXAXMXGXVXVXlXhXjXAXi.1.E ' 2.2.2.2.5.5.5.5.4.( f.=.h p +.7./.H 5X;X@XF.&.7.5.4.4.4.4.4.4.5.u.u.u.u.l.l.p.l.l.l.l.l.l.l.l.l.l.l.l.l.c.D.Z.k ..P.D.l.z.c.z.z.z.J.J.c.c.j.c.R.T.E.J.j.c.c.c.J.G.j.G.J.P.P.P.Y.AXMXHXVXfXbXHXHXlXfXlXMXAXMXbXKXHXHX",
"AXAXGXAXbXHXHXAXAXAXMXHXGXAXGXjXfXAXi.E E E 2.2.2.6.u.l.l.l.] ( #.&.y e ( 4.C.S >X=X#X_.] 7.[ [ u.4.5.4.4.4.u.5.5.5.u.d.u.u.l.l.l.l.l.0.l.l.l.l.l.l.z.A.Z.s ..J.A.l.z.z.c.z.z.c.J.c.j.c.j.c.c.j.j.j.j.g.j.j.G.G.J.I.I.L.L.P.GXVXMXbXAXGXzXlXjXbXGXHXHXbXMXjXjXzX",
"AXHXAXMXzXbXbXAXAXAXhXbXGXAXAXAXaXzXi.2.E E ' 2.2.2.4.u.u.[ ! u.Q ! ! ..4.' -.Z.`.#X3X).T 2.[ [ 4.2.2.4.4.4.5.i.4.5.5.u.u.5.l.p.l.l.l.l.l.l.l.l.l.z.z.k.O.s ..J.h.d.g.g.g.g.z.c.J.c.c.c.c.c.c.j.j.j.j.j.J.j.j.j.j.G.I.I.L.Y.GXAXlXMXbXlXbXjXlXbXAXMXlXAXGXAXMXbX",
"lXhXbXhXlXbXhXAXMXAXbXlXAXHXHXHXjXjXi.1.E ' ' 2.2.2.5.u.u.] [ a./ Q  .#.6.[ *.r.^.3X#X%.1.4.4.5.5.u.5.u.u.p.l.l.7.7.l.l.l.l.l.l.l.l.l.l.l.l.l.l.z.z.v.g.O.h +.I.P.d.g.d.g.k.d.g.G.j.j.j.j.j.c.c.J.J.c.j.h.G.J.h.h.j.j.G.I.[.HXAXbXlXbXhXhXHXAXHXlXfXMXHXGXGXMXlX",
"fXbXzXMXMXbXMXAXbXGXHXVXGXHXAXAXAXZXi.2.2.E 2.2.2.u.i.5.[ [ 5.4.7.u t [ 5.] [ ,.[.3X^.2.7.5.p.7.p.l.l.l.l.l.l.l.l.l.l.l.l.l.l.l.l.l.l.l.l.l.l.z.z.z.v.z.%.l +.I.P.l.z.z.z.c.c.g.G.G.g.k.h.h.h.h.k.j.G.H.%.=.J.H.=.h.=.=.L.U.AXfXhXfXjXMXzXGXHXAXAXGXAXAXMXMXMXbX",
"zXMXAXHXGXGXAXHXAXMXAXHXHXbXAXAXHXHXi.' 2.' { 2.2.2.2.[ ] 4.4.5.[ y ..4.] @.u.7.L.{.L.7.p.l.l.l.l.l.l.l.l.l.q.l.p.p.p.p.p.p.p.l.d.u.l.l.u.u.l.l.d.l.l.z.=. .+.K.P.d.z.z.z.c.c.c.J.J.c.g.j.j.j.j.h.h.h.h.=.=.H.I.I.L.D.H.G.P.MXlXfXlXtXMXlXlXVXHXHXGXlXAXAXlXbXMX",
"VXbXzXbXAXAXbXfXAXGXHXKXGXzXMXAXHXAX@.E { ' 2.2.2.2.2.] 2.u.i.u.i.@.i.d.] u.p.p.l.J.c.l.l.l.l.l.l.l.l.p.p.7.p.p.p.p.p.5.5.p.p.p.p.l.l.u.u.l.l.l.g.g.d.z.k...#.K.P.d.g.g.g.g.g.g.j.j.g.g.c.c.J.c.j.c.j.j.G.j.G.G.I.L.L.I.I.U.HXHXMXAXAXAXMXAXbXMXAXAXbXMXAXAXHXHX",
"HXAXjXzXMXHXMXbXGXVXGXAXAXMXbXMXAXHXY E E { 2.2.2.6.+.#.p.u.u.i.u.p.5.4.p.5.u.p.7.z.l.5.p.p.u.5.u.5.u.u.5.5.u.u.u.5.5.5.u.u.u.u.u.d.l.l.l.l.l.d.d.d.d.d.s.o.&.z.L.d.k.k.k.g.g.k.k.j.j.j.k.k.j.j.j.h.h.j.j.j.j.G.L.L.L.P.I.U.VXAXVXAXAXzXAXVXbXaXzXMXMXVXAXAXMXGX",
"HXKXHXAXMXlXMXAXAXMXAXGXAXGXZXAXZXjX=.#.@.i.i.f.d.%.O.c.j.k.k.f.f.f.f.f.f.f.f.f.*.f.*.*.f.f.f.f.f.f.f.f.f.f.f.f.f.f.f.f.f.f.i.f.f.k.j.g.j.g.c.j.j.c.J.J.j.%.-.J.P.j.G.H.H.b.L.H.H.H.H.H.H.b.b.H.H.-.-.-.D.D.-.P.P.P.P.P.P.[.MXlXbXMXhXMXAXAXMXlXhXAXGXGXAXGXGXbX",
"HXHXAXHXGXMXlXlXhXbXGXHXMXMXbXzXAXzXMXrXfXzXMXfXhXGXKXAXMXMXlXZXHXlXMXMXAXhXbXzXMXbXAXHXAXHXGXMXlXAXMXMXjXMXAXAXAXGXAXAXHXMXMXVXAXMXvXhXlXfXlXlXMXAXAXhXlXMXMXMXAXMXMXlXgXzXlXzXGXbXAXbXAXKXlXbXMXAXHXMXbXbXfXlXMXfXjXbXhXAXAXhXlXMXMXMXAXMXMXAXHXKXHXAXAXGXAXAX",
"AXzXGXAXMXMXbXMXbXlXAXAXGXzXfXhXhXhXHXvXaXbXHXHXMXMXHXGXMXZXzXlXAXMXMXbXbXbXMXzXHXAXvXHXMXVXAXMXbXbXzXMXGXAXAXMXfXbXMXMXbXMXbXMXhXfXlXZXMXMXhXlXMXbXMXAXMXhXfXAXHXAXHXHXvXjXlXMXbXbXhXMXAXAXAXbXhXbXAXAXlXfXjXKXHXHXhXjXHXGXHXbXVXHXAXlXMXbXAXAXKXKXHXHXAXAXAXAX",
"jXGXGXMXbXAXAXbXAXAXMXMXAXbXrXAXbXMXbXAXGXHXAXzXAXAXAXAXAXHXMXbXMXbXlXbXMXHXHXzXAXGXAXHXzXMXAXAXMXlXGXHXAXMXHXhXhXMXHXHXAXfXbXbXlXMXvXMXAXAXMXGXGXhXaXMXMXMXbXMXlXHXHXMXAXHXzXMXMXAXfXzXVXHXVXMXfXlXAXMXMXVXAXGXAXHXlXfXhXbXAXVXMXlXMXAXGXbXbXMXGXHXHXAXAXMXlXlX",
"MXHXbXAXbXAXMXGXHXGXMXAXlXMXjXlXKXAXHXbXbXKXHXAXlXMXAXVXVXGXAXbXbXMXlXMXAXAXGXGXHXGXAXMXbXlXKXHXHXHXGXzXlXGXGXMXbXMXbXKXAXhXHXAXAXAXVXKXMXjXMXGXAXMXhXaXfXlXMXVXMXzXMXMXbXzXzXAXbXbXbXbXbXVXMXMXbXAXAXAXlXMXAXMXAXVXbXVXaXtXfXMXMXlXMXGXAXGXMXGXAXAXMXAXMXAXzXaX",
"AXHXhXlXAXjXbXHXHXHXAXMXbXMXbXfXAXbXMXMXMXMXKXKXbXVXAXbXMXHXGXHXKXAXGXMXMXGXHXAXHXHXVXAXAXAXAXHXHXMXMXlXMXHXGXlXlXfXlXbXMXMXGXAXMXlXKXKXAXbXHXHXHXAXAXbXMXhXzXMXHXlXMXGXVXMXAXKXKXHXbXAXGXGXHXAXHXAXAXbXMXHXVXMXAXHXAXMXbXlXaXhXlXlXbXlXAXAXMXAXMXHXMXbXbXMXGXlX",
"bXjXaXMXMXlXMXAXAXMXMXMXVXVXbXMXVXMXVXlXlXzXAXHXMXzXGXMXGXAXbXMXMXAXAXbXbXVXAXMXMXMXlXAXAXGXAXMXAXAXHXhXMXHXAXbXlXhXzXVXAXKXAXzXbXlXMXMXbXlXAXAXAXHXMXVXGXAXAXAXHXMXMXAXMXAXbXMXMXlXAXHXHXHXAXVXHXKXHXAXlXaXjXMXfXzXMXAXAXHXAXbXGXbXbXlXbXbXAXVXGXMXzXMXGXAXlXbX",
"HXMXhXVXhXlXMXAXAXMXbXAXAXHXAXHXHXAXAXMXrXVXKXKXGXMXbXlXAXbXMXMXMXMXMXMXMXAXAXAXAXMXbXAXAXMXbXbXbXMXAXbXaXlXMXAXGXAXHXKXMXlXVXVXMXMXjXlXlXMXGXGXMXAXGXMXAXGXMXAXMXAXHXHXMXAXAXlXaXfXhXMXlXbXMXGXGXHXlXAXHXMXGXMXfXfXlXzXMXHXMXMXAXHXAXMXVXbXbXhXlXMXlXbXbXbXMXMX",
"AXAXHXHXMXHXHXbXlXVXlXMXMXMXVXbXKXKXMXbXfXbXAXAXGXGXbXbXAXAXAXbXbXAXbXAXGXMXbXMXAXAXAXbXHXhXlXAXGXHXAXlXzXlXlXbXVXAXAXHXAXMXbXbXAXAXAXbXhXbXbXAXVXGXbXhXfXbXMXbXbXbXGXHXGXlXfXfXMXbXAXKXHXMXlXlXMXGXMXAXHXAXMXKXKXMXbXMXMXMXMXAXHXGXMXAXMXlXhXbXbXzXAXAXMXAXAXVX",
"hXlXMXHXMXAXMXbXbXlXbXGXAXbXbXlXAXKXHXAXfXlXMXAXAXMXlXMXHXHXVXfXbXHXMXGXAXMXlXGXAXlXHXlXAXMXMXHXAXGXHXfXMXGXHXGXHXAXAXMXzXAXMXAXGXHXHXAXMXlXlXMXMXbXhXhXlXlXbXGXHXAXMXVXlXjXjXbXbXAXAXAXKXHXAXHXKXzXbXfXaXbXfXMXHXMXbXAXGXbXMXbXHXGXAXMXMXMXlXHXVXbXbXbXGXAXAXGX",
"bXzXMXMXbXMXMXhXAXHXhXAXKXHXbXtXaXAXHXAXjXAXGXAXMXlXlXAXAXAXAXjXaXAXbXMXHXGXAXbXHXzXMXhXVXHXAXGXMXlXMXlXhXMXAXHXAXlXHXbXfXMXAXGXGXVXHXAXAXbXbXjXhXfXlXbXHXVXMXHXKXKXHXAXMXMXbXbXbXAXAXAXAXlXHXMXbXlXjXrXhXMXbXlXMXbXfXbXbXbXHXzXMXlXAXzXlXMXAXGXGXMXlXfXAXHXAXMX",
"MXlXlXMXAXHXGXAXAXGXMXhXbXMXAXAXAXAXAXAXbXzXAXVXGXGXHXAXMXbXAXMXbXzXjXzXAXhXAXMXbXlXbXbXhXHXAXVXbXMXMXMXAXzXlXAXlXhXAXlXtXjXMXbXbXhXlXAXAXbXlXMXMXbXAXHXAXVXlXlXMXKXHXlXbXGXfXlXzXAXAXVXzXlXHXfXaXMXMXMXVXMXAXVXMXhXzXbXaXbXGXzXbXAXAXbXMXbXaXhXAXAXMXbXGXGXAXAX",
"lXMXAXGXHXHXbXAXAXbXlXaXbXGXHXHXAXHXGXHXGXAXMXVXMXMXMXAXAXbXbXMXjXbXAXAXHXjXVXGXAXAXAXAXAXAXGXHXVXGXAXlXbXhXbXAXbXfXbXzXGXAXlXzXjXzXlXMXMXMXbXAXAXaXMXAXAXMXlXlXbXVXbXfXjXhXlXHXHXGXVXMXhXlXAXlXlXlXAXHXlXAXAXMXAXAXHXbXbXVXAXAXGXAXAXAXAXrXyXaXbXMXhXMXAXAXMXAX",
"AXHXHXGXKXVXrXlXbXfXrXjXAXAXbXAXbXMXHXHXGXAXGXAXVXVXKXAXHXAXlXMXMXlXVXMXAXAXAXMXAXAXbXbXMXMXHXAXbXhXbXbXfXaXfXfXhXlXbXMXMXMXbXVXMXAXhXMXGXVXMXAXAXhXlXMXMXlXMXMXMXbXlXhXlXbXAXMXVXMXMXlXbXbXMXhXlXAXMXbXbXVXMXMXAXGXKXMXGXHXAXGXMXMXbXMXVXMXfXrXbXAXzXbXMXMXAXMX",
"MXbXMXAXGXfXaXlXMXMXMXaXfXjXMXMXzXlXAXMXAXlXlXzXlXlXMXMXMXMXAXVXAXGXVXMXAXMXMXMXGXVXHXHXhXAXGXGXMXAXhXlXbXfXhXfXbXAXHXMXbXMXAXzXVXbXjXaXaXbXAXAXAXMXzXGXVXbXbXMXAXlXMXAXAXHXMXbXbXMXaXrXhXlXMXMXAXHXbXbXjXMXAXbXMXHXKXHXHXHXHXGXKXAXGXAXMXlXhXVXHXAXVXMXMXAXAXAX",
"bXfXlXMXzXlXAXAXzXbXMXjXbXhXbXlXhXbXGXbXAXbXhXjXfXHXAXlXMXGXVXVXMXlXVXAXAXlXhXMXHXAXGXbXhXHXHXHXAXGXAXbXbXMXlXzXhXMXHXAXMXAXAXAXMXbXbXlXfXMXAXMXMXVXAXAXAXMXhXaXlXbXAXMXMXGXAXGXGXMXbXbXVXMXAXbXlXMXMXMXHXHXVXAXKXHXAXbXMXAXMXbXHXGXHXKXHXAXAXAXAXHXAXVXMXbXMXAX",
"AXMXbXbXMXhXlXjXhXlXAXGXMXbXAXAXMXGXMXMXMXMXbXMXbXHXHXlXMXGXMXbXGXMXaXfXbXlXMXbXMXbXbXhXMXAXAXGXAXHXAXAXAXHXMXlXAXlXbXfXlXMXbXbXbXbXAXzXhXbXbXMXMXAXAXAXAXAXHXbXhXbXMXMXMXGXAXMXGXVXMXbXAXHXGXMXbXlXMXMXHXHXGXAXGXAXzXlXhXlXAXAXMXAXAXHXbXMXKXHXAXMXVXMXAXMXbXAX",
"HXHXKXHXMXlXlXlXbXMXAXMXMXAXAXAXVXMXAXlXbXlXMXzXbXbXAXHXAXGXGXbXhXlXfXaXlXbXGXMXzXMXAXAXAXGXAXAXAXMXzXMXAXKXHXAXMXMXlXlXMXAXbXMXMXbXbXbXHXGXGXAXAXMXMXAXbXlXKXAXHXKXKXHXMXAXMXzXVXMXHXMXMXHXAXbXlXbXGXMXMXAXAXAXGXGXbXlXaXbXbXVXbXaXGXhXfXMXbXlXHXMXMXAXMXAXMXAX",
"AXbXjXbXlXbXrXbXVXbXGXhXzXAXzXMXfXaXMXHXHXHXbXbXhXlXAXAXMXAXHXAXlXhXlXrXjXMXMXMXMXbXbXlXbXVXHXGXAXhXAXbXMXMXGXMXAXMXMXHXAXAXzXzXGXGXzXfXHXKXhXhXGXHXbXMXAXAXGXbXAXHXHXHXAXlXlXbXMXaXVXAXHXHXAXAXAXMXAXbXlXbXbXrXlXHXMXlXfXAXlXAXMXbXMXlXfXbXAXhXGXAXVXbXbXMXbXAX",
"AXbXMXAXGXGXbXHXMXMXAXbXfXbXfXAXbXGXAXGXHXGXAXKXAXbXzXAXbXMXzXMXHXAXMXaXbXVXzXlXAXbXbXlXbXAXAXbXhXjXVXMXMXGXAXbXMXMXbXAXHXHXAXVXMXMXlXlXMXlXhXAXGXMXfXAXGXKXAXAXMXbXMXHXKXHXAXHXMXfXbXlXlXbXMXMXHXAXAXjXAXzXhXjXAXHXAXAXbXAXbXAXGXGXMXAXAXzXAXMXAXAXMXMXzXGXAXMX",
"AXAXGXGXHXAXMXMXbXAXGXGXhXjXhXMXbXbXAXAXMXMXHXHXAXMXAXbXMXHXAXAXHXKXHXVXlXhXfXMXHXVXAXbXbXMXAXGXlXAXAXMXMXlXaXfXfXrXhXVXAXAXMXAXHXHXlXlXMXlXMXGXAXAXHXGXMXVXMXAXGXVXzXjXbXHXGXAXzXbXHXAXGXbXbXGXMXMXHXMXAXMXMXHXHXGXHXHXVXMXbXAXhXMXAXAXlXbXAXHXHXHXGXMXjXGXKXHX",
"MXMXMXlXAXGXlXbXGXHXHXAXMXlXjXlXlXbXbXMXbXfXbXHXHXHXAXMXzXAXKXHXAXMXMXAXMXbXMXMXMXfXlXHXMXMXAXMXbXAXAXMXAXlXzXMXjXhXbXAXAXlXAXAXGXAXMXzXAXMXbXlXlXlXbXAXAXlXMXHXKXAXlXfXhXMXMXMXjXMXMXGXHXMXMXMXjXMXAXbXMXMXAXGXMXAXHXAXGXAXMXMXzXVXzXhXMXHXAXGXKXHXHXMXlXAXGXAX",
"MXMXMXbXAXAXAXAXMXAXHXHXbXrXMXMXAXMXjXbXMXzXzXMXMXAXlXbXMXAXAXHXMXbXGXHXAXjXAXAXhXrXzXGXbXlXAXMXMXAXMXMXlXlXAXHXHXAXAXKXbXhXAXMXhXAXAXMXMXMXbXlXjXMXrXMXHXMXMXAXbXlXAXbXMXlXbXbXlXbXlXlXAXHXMXzXbXMXHXlXVXAXAXMXAXHXMXMXGXMXAXAXGXAXlXhXAXGXHXKXKXHXMXGXVXMXMXbX",
"GXHXMXMXMXlXMXHXAXGXHXAXlXlXGXAXAXMXjXjXfXbXVXGXHXGXHXMXbXbXbXbXbXVXAXHXGXMXaXMXAXMXMXbXMXbXhXlXlXlXAXlXlXbXbXbXVXAXHXHXVXjXMXMXGXbXAXAXbXMXbXGXbXAXGXHXAXMXMXHXlXhXMXMXHXAXAXVXrXbXMXjXjXMXMXAXMXfXMXMXGXKXAXVXMXMXbXAXAXMXbXAXAXAXHXAXbXMXMXVXMXAXMXAXHXAXbXlX",
"MXMXMXMXMXlXMXAXlXlXMXhXhXAXKXHXKXlXlXMXAXHXGXHXHXGXHXMXMXhXbXlXMXlXAXAXMXMXMXzXMXlXMXlXhXlXtXfXhXMXMXAXKXAXbXrXfXAXGXAXGXAXAXAXGXhXlXfXfXfXbXAXHXGXMXMXAXGXHXGXMXMXlXVXMXbXVXAXlXAXlXbXMXHXMXMXAXAXbXMXHXlXhXAXAXAXMXVXAXMXMXAXAXAXHXAXKXAXMXAXMXhXbXVXMXAXlXhX",
"AXGXHXKXMXMXMXMXMXMXbXMXhXKXKXAXHXhXjXMXbXMXAXAXGXHXAXGXKXAXGXVXMXbXzXMXGXMXbXAXHXMXAXlXfXbXMXAXHXHXAXHXKXAXMXMXhXAXbXbXMXMXMXMXMXbXGXAXKXKXAXlXbXMXbXbXMXVXbXbXMXGXbXVXbXMXMXAXGXAXMXbXMXAXGXAXMXGXMXAXHXfXbXMXHXGXGXHXGXMXKXGXAXAXAXVXMXGXAXKXHXMXAXAXVXlXlXjX",
"AXHXGXKXbXfXHXGXAXGXHXMXbXMXbXbXbXAXbXAXbXVXAXMXAXAXAXMXKXGXMXHXMXMXMXMXMXbXbXGXHXHXHXbXjXMXzXaXbXMXhXbXGXGXGXHXlXbXVXlXhXlXlXMXAXjXhXHXHXMXHXzXhXAXAXMXhXfXMXVXAXMXHXAXAXbXbXbXbXbXMXAXGXhXhXMXMXzXMXbXbXMXlXAXbXzXMXMXKXlXMXlXMXzXbXlXaXlXzXGXAXMXGXAXjXlXbXbX",
"AXAXMXAXHXhXMXAXMXAXMXhXhXVXbXMXAXAXAXMXlXhXAXMXlXAXMXlXAXMXMXbXAXAXKXAXGXAXAXMXAXAXAXbXlXMXbXlXMXHXaXfXlXMXVXGXbXjXAXbXbXAXAXMXAXMXlXAXbXjXMXMXMXMXGXHXGXbXAXMXjXMXMXAXGXHXKXGXzXfXbXMXlXAXAXMXAXAXGXGXAXAXbXMXAXMXlXlXAXlXfXAXHXHXMXlXAXMXfXlXbXbXMXzXaXAXAXGX",
"MXAXAXVXbXlXMXVXzXMXlXhXlXlXhXbXAXMXMXMXrXlXGXHXHXVXlXbXlXhXbXlXzXAXAXMXMXMXbXVXHXHXAXAXHXHXKXKXHXAXbXMXbXMXHXAXVXlXAXHXHXHXMXMXMXAXAXVXlXhXbXbXAXhXfXVXHXAXAXAXbXMXbXMXbXAXHXAXMXbXAXMXaXlXzXbXlXjXbXAXAXAXMXAXGXAXzXMXMXMXAXbXlXGXjXHXKXAXjXbXbXMXGXAXlXAXKXKX",
"GXHXKXKXAXHXMXMXHXAXGXhXhXbXMXMXAXMXlXfXhXbXMXMXAXbXMXzXbXMXMXbXMXMXAXzXbXbXMXAXHXGXMXaXhXGXAXAXVXAXMXMXHXHXGXHXAXlXHXAXHXMXGXVXHXAXAXHXGXHXHXHXGXAXrXjXKXAXbXMXMXGXMXAXbXbXbXbXAXAXHXAXMXMXMXAXMXfXMXVXAXMXMXAXHXHXHXGXMXHXAXHXAXMXaXGXGXbXMXKXHXHXHXHXHXGXAXAX",
"MXMXMXAXAXMXAXAXHXKXKXAXAXMXbXMXbXGXHXAXAXAXAXbXVXGXAXMXMXHXHXAXMXjXVXGXAXjXbXMXAXMXGXlXbXAXlXVXAXbXjXMXbXMXMXMXzXlXMXMXbXfXAXbXGXMXAXHXKXHXHXAXHXzXrXAXAXVXfXbXlXAXVXHXbXMXAXlXlXAXGXHXKXHXKXHXKXHXVXKXHXMXAXMXAXGXHXGXHXHXAXAXHXAXhXhXAXMXAXHXHXKXKXHXHXAXAXbX",
"AXMXjXbXbXbXHXlXAXGXbXlXhXAXVXMXMXAXAXAXHXKXHXGXKXKXGXlXMXGXHXKXGXMXbXHXKXHXGXlXVXMXVXAXHXVXAXAXAXVXbXMXAXbXbXlXbXzXMXMXfXlXhXaXbXAXAXzXHXGXMXMXGXMXHXAXAXMXbXfXzXAXMXGXGXAXMXbXlXhXMXbXVXMXMXbXMXMXbXAXAXbXMXMXAXlXlXAXVXAXGXAXHXAXAXbXbXMXAXAXVXHXHXGXAXVXMXAX",
"AXAXlXhXjXMXMXMXMXMXbXAXGXAXAXHXGXHXGXVXAXHXHXGXHXGXlXAXGXMXMXbXMXVXHXHXGXHXAXAXMXAXMXlXAXVXVXGXAXHXHXMXbXbXbXfXzXzXzXMXlXGXtXaXlXMXbXhXhXfXhXjXbXHXAXAXHXAXHXGXMXlXMXbXbXAXVXbXAXAXMXMXMXbXMXAXAXGXGXAXbXlXzXGXAXbXAXMXhXbXHXHXHXKXKXHXlXbXMXGXzXAXAXMXHXVXjXlX",
"GXlXhXbXfXlXAXhXfXVXAXAXHXzXAXVXAXGXHXjXAXHXHXVXAXMXHXHXAXMXMXMXMXMXMXhXhXMXMXAXVXAXVXAXbXMXbXbXMXAXAXMXbXGXGXMXfXfXAXAXbXMXbXzXhXfXlXAXAXzXaXaXfXMXGXAXMXlXVXAXHXAXHXMXHXHXGXHXGXKXGXMXMXbXAXHXHXGXHXGXAXAXAXzXbXMXjXlXMXMXVXVXAXAXAXMXMXMXAXGXAXAXMXbXAXAXMXhX",
"MXHXKXHXHXbXMXMXbXMXHXHXHXAXGXHXHXAXAXAXAXGXHXMXMXHXGXHXHXHXKXHXHXHXAXbXbXMXMXAXzXAXHXHXHXbXMXzXlXMXVXMXbXGXHXKXHXAXGXAXHXHXGXGXbXbXfXbXGXKXHXAXfXMXAXlXfXlXlXAXHXVXMXAXGXMXMXbXVXAXlXfXbXAXMXKXHXGXHXGXAXAXAXhXMXKXMXfXAXHXHXHXHXAXAXMXAXMXVXAXbXAXHXHXHXVXbXMX"
};
