/* XPM */
static char *result[] = {
/* columns rows colors chars-per-pixel */
"128 128 27 1 ",
"  c gray44",
". c #939393",
"X c #9E9E9E",
"o c #9EA0A0",
"O c #A4A4A4",
"+ c #A6A9A9",
"@ c #ABACAC",
"# c #AEB1B1",
"$ c #B4B4B4",
"% c #B6B9B9",
"& c #BABBBB",
"* c #BEC1C1",
"= c #C3C4C4",
"- c #C6C9C9",
"; c #CBCCCC",
": c #CED1D1",
"> c #D3D4D4",
", c #D6D9D9",
"< c #DBDCDC",
"1 c #DEE1E1",
"2 c #E3E3E3",
"3 c #E6E9E9",
"4 c #EBEBEB",
"5 c #EEF1F1",
"6 c #F2F2F2",
"7 c #F6F9F9",
"8 c #FEFEFE",
/* pixels */
"775,31775778731333111,,>;**=%%&%@$$%##@@####$&&&&$&$&$&$&$&$&&&$&$&&$&$&$&$&$&$&&$$$&&=&&&==&*-***;;*-;;,,,,,,1,:1111,,1,,11,,,,",
"37755753357775353311,,::;***$#%#@$##+@#++@#,><>>><><><><><<><>><><<><><><><><><>><>>&&$&&@$=%%*******-;;*,,,*:,,,,,,:*1,,,*,111:",
"7733777777777533311,,,,:****%%%#$#$OOOO@O++<<222222<22222<22<22<22<222222<222<2<2222$=&&@$$&***%***%*****::*::1,1:,,111,1111:,:,",
"7756757357751551111,,,::--=*&%%#$@@@+oXooO+>><>><>><<><>><>><>><>><>><>>><><><><><>>&&&&&&$&*********%*****,,,,,,1,,11,,,,,,1,,1",
"5775577555755433111>,,:**;***%$$$$++@X@Xo$$%&$$&$&$$$$&&$&$&&$$$&$$&$&$&&$&$&$&$$&$$@$&@#&$%%*&&*%%**%*******:,1,,,1,,111*,,1,*,",
"5557777775375531311,,::--*&**%&&&$#@OOXOO&&============&==============================&$$$#&&%&***%*$******,,*,:*,,,11,131111,1*",
"515757787557132331::>****-**&&&*&%$@OOXO@,>>,,>,><<>><<>>>>>>>><>><>><>>>><>><>><>><><$@$$$%$%&-***%%****:::,:**,,,,,*,111111*,*",
"537757775576511211:=->:-%***&&%&$&$##@@O@<<22<2<2<<2<<2<2<22<22<2<<2<<<22<<<2<<2<2<<2<&&+#$$%%$&************:*,****,,,,11,*1,,,3",
"55777775577533333111>:****%%%%#&&&@@$@@@@2<<<2<2<<<22<<2<2<<2<<<2<2<<<<<<<<<<2<<<2<2<<$$%%#####%%*%********::*,*,,11111,,**1,,,1",
"75777878775353333,11<:;;-*&&%+o&=&&&&$@&&&&&&&&&&=&&&&&&&&=&&&&=&&&&&=&&&&=&&&=&&&&&&&&&*%##@Oo%*****%%**;***::***111,,113,1*,11",
"15777787775333311,1,<>;;****&%**&&&$@$$@&$$$&$$$$$$&$&&$&$$&$$$$$&$$&$$&&$$$&$$&$&&$&$$@#%%%%$%&*******%**;*:::*1**,*1,,,1,,*,*3",
"713755778553133,:1,>>:;-****&&&&&$$$$$&;>>>>>>>>>>>>;>>;>>;>>>>>>>>>>>;>>>>>>>;>>>;>>>>;*&&%#$%$%%**%**********:*,,,11,:,,*131*,",
"888553:,1755333311::-*---=**&%&%&$&$$$&<<<222222222222222<2<222222<22222222222<222221222*&%$#$#@$%***************,,1111,,,,,,1,*",
"7578775131311,3331-::**=********$&$$$$&><<<>><><<>><<><><<<><>><><<>><><><>>><><<>><,<>>*&*##$$$%%%***%%*::*****,,*,,,,,11*,,,,1",
"757757777753511111;:>:=-==&&*&#%$$@$$$$><<<>><<><<><><<<><<<<<><><<<<<><<<<<><<<<<<<,,<>*&%#$#O@$$$$%%$****:>,:,,,,*,,1*,,11,,,,",
"57873375577551131,,:;-=-**--*&@%$$$$@O&&&&&&&=&&&&&&&&&&&&&&&&&&&&&&&&&&&&&&&&&&&&&&&&&&%@%*&#O@+%**%$**;;:*;**,:*:,,,*,*,,1,,::",
"7777711753573311111:;---*-;-*%%#O$$$$$&&&$&&&&&$&&&&&&&&&&&&&&&&&&&&&&&&&&&&&&&&&&&&&&&&&$==&@@O+%*******::*,**,,*,:11***,1,,,:,",
"577775575733553111,:-**;&**-;-*$@$&$&;>>>>>>>>>>>>>>>>>>>>>>>>>>>>>>>>;>>>>;>>>>;>>>>;>>>;&===&#+%**:**********:*,*,*,1,1**,1*,1",
"37577577555213111,<,:-*-**%&&**&$$$$=<<<<<<<<<<<<<<<<<<<<<<<<<<<<<<<<<<<<2<<<<<<<<<<<<<<<<&&&&&&#%*******%%*:::*,*,***,11,,11,,,",
"357557711111351,11,,;;;-;**%$**#@$$$&<2<<2<22<22<<<2<2<2<<<2<2<2<<2<2<2<<<2<<22<<22<22<<<<&@O$&$#%****:**%**:,:,*,1*,*,,,,,,,,,,",
"787777753131431><<,>-*-***-**-&%O@$$&22242222422242422422424222242222242224422222222222442;$&&&&++****,*:**::::*,,,:,,,:,***,11,",
"77888777711,5331,,:<;*--*=*--*&%$&>><><<><<<>>><>>>>><>>>>>>><<>>><<>>><><>><><<<><<>><>><>>>;&=%%#%***:*:,*::::,*,,,,1,,13,*,:*",
"7778757555333511<,:::**&&**;-&*&&@X@OOOOOOOOOO@O@OOOO@OO@OOOO@OOOOOO@OOOO@OOOOOOOOO@OOOOOOO@X@==**%******:*,:,:1*,,1,1,11,,,*,*,",
"34557113177535311,:***;---;;=&%&&&=;;;;;;;;;;;;;;;;;;;;;;;;;;;;;;;;;;;;;;;;;;;;;;;;;;;;;;;;;=&&=***%**********:*,*,*,,,*1,,1*,*,",
"717<15555155543311*;--:*=----&&$@&;>>>>>;>>>>>>>>>>>>>;>>>>>>;>>>>>>>>>>;>>>>>>>>>>>>>>>>>>>;&&&#%*****,**:*:*:***:,,11**,,,**1,",
"7177755551355533311::::--;-***$$$=<<<<2<<<<2<<<<<<<2<<<<<<<<<<<<<<<<<2<<<<<<<<<<<<<<<<<<<<<<<=&&**%*****:*::*:*:1,11,,1:,,*,*,,,",
",57777757753133311,>:---;;--&&$#&;24224222222222224222224242222222222222222224222222222222222;&$*%%***:*::***,:11,,,,:,1,,:**:,,",
"155557535374111111>::;;;---**%%&&&=;;;;;;>;;>;;;;;;;>;;>;;;;>;>;;;>;;;>;>;>;;;>;;;>;;>;;>;;>;&&&**%%**********:1,*::,11*,,,,31,,",
"3,355115515311,,,1>:;;;:;-***&&&&=44244444424444444244244444444444444244424442444444244442424&&=**%+***::*****::,:::,1:,,*,,1,,,",
"7775377555531,,1>1,;****----*&@+$$$$$$$$$$$$$$$$$$$$$$$$$$$$$$$$$$$$$$$$$$$$$$$$$$$$$$$$$$$$$$$O+*%+********,,**1,,11,,:1::,,**,",
"7777777551133111,,,:=**--=-=&%#$&$&$$&&$&$$&$&&$$$&&$$$$$$$&$&&&$$$&$$&$$&$$$$&$$$$&$$$&$&&&&$&$%****,*:***:,,,1,,:,,111,1:1,,1,",
"775577751551311,1:1::;-&=&**$@&;>;;;>;;>;;;>;;>;;>;;>>;>;>;;;;;;>;>;>;>;>;;>>;>;;>>;>;>;>;;;>;>;*#******::*::,,,1,:::,,**1,,,,,,",
"777553355553111,::;;=&***-=*=#=>>,,>>>>>>>>>>>>>>>>>>>>>>>>>>>>>>>>>>><>>>>>>>>>>>>>>>>>>>>>>>>>*%#*#***,:>;::,::*,,,*:,,,,1,,:,",
"5551,1135333131,:,-=*****-*=$&;<<<<2222<22<2222<222<<222<2<2222<22<222<<2<222<222<22222<2<2<2<2<*%#**#****:::::1,,111**1*,,:*,,,",
"77777555321:-11,,;--;-:--***%$:22222222224224222222222222222222222422222222222222242224222242222,******:****:,,:,11,:*:,:*:*,,,:",
"757367321,1::,::,;;--&-**=*##$&=;;=;==;====;===;;=;==;;==;=;=;=;=;==;=;==;;=;=;==;==;====;;==;;=**#****,::,,*:,,,1,:,::,,:*1,,,:",
"7777,11:<3331:1,,-=;=%=-%-=*$$>66666666666666666666666646666666646666666666646664666666666664666,*****,*::**:*;,,,*,*,,,,,,,,,,:",
"7778513343331131,;:=*%***====;;==;;==;;;;;=;;==;;==;;;=;;=;=;==;;;;=;==;=;;=;=;=;;;=;==;=;=;;==;;********::**>*>::,,:,*,11*,1,1,",
"855353132<1<,1111>:;:-***&+XOOOOOOOOOOOOOOOOOOOOOOOOOOOOOOOOOOOOOXOOOOOOOOOOOOOOOXOOOOXOOOOOOOOOoo+o+*****:*,,**:,,,,,:,11,::,,,",
"575553333111111<:-::;--===-;=;;;;;;;;;;;=;;=;;;;;;;;=;;;;;;;;;;=;;;;;;;=;;;;;;;;;;;;;;;;;;;;;;;;;::*********:,:-*1,,,,,1,1,,,,,,",
"577553233111221,;;;-;--===;;;;;>;>>>;>;;>;;>>>>;>>;>;;>;;>>;;>;;;>>;>>;>>>;;>;>;;>>;>>;>>>;>;;>;:::;;=&=*&-;;:::,:11,1,,,1,,,,,:",
"753335333231111,:;-=======>><<>>>>>><><><>>>>><>>>><><><<>><<><>>><>>>>>>>><><>>>><>>>>>>>><><>>,,,>>*-==---:*-*::,,11111,,,,,,:",
"53,333533121121:>>;;;-*&&=<<2222222<2<2222222<2<22<222<2<22<2<2222<2222222<2222222<2222222<22222211<<&&=--;;;*-,::::,,,11,,,1:,,",
"555555333432,1,;>;;;-==-&$<2222222422224222224222224222222242224422222222224222242222222222422222223<&#=-*----:::,:,:,::,,,,1,,,",
"7753343<113311,:;,;;=====$&===&====&===========&======================&===============&===========**&*&===*=*-:;**,,11,11,,,,1,,",
"76333331111121,:>;;===&=&&246446444644444444444644444444444444444444446444444444444444644444444464642*=&*---:;;:::,,,,111:,1,,,,",
"7553313553,,,11<>;;====&;22222242242422242422242242242422242224242242222242242424224222224224222222222<<2--::::::1,::*,1,11,,,,:",
"656531533331,<,,>;;==;=OXOOOOXOOOOXOXOOOXOXOOOXOXOOOOXXOOOXOOOXOOXXOOOOOOXOOOXXOOXXOOOOOXOOOOXXXOOOOXOXXX%*-**-:**:::,,1*,:,1*::",
"15333313535311,;:*=-**&*=&=&=&&&&=&&==&=&==&=&&&==&==&==&=&=&=&&&==&&=&&==&=&==&&=&==&&=&&==&===&=**&==****;***;,::::*,1,*,,1,11",
"13555133133311,,,==;;*;;;;;;;;;;;;;;;;;;;;;;;;;;;;;;;;;;;;;;;;;;;;;>;;;>;;;;;;;;;;;;;;;;>;;;;;;;;;;;;;;;;**:*-;;:,::,1:,:,:,,:1,",
"755553551,1,1<,::;;;-=:>;>>>>>>>>>;>;;>>>>>>>>>>>>>>>>>>>>;>>;>>>>>>;>;>>>>>>>>>>>>>>>>>;>>>;>>>>>;>>>>;:*****;;,,:****::,1,,:*1",
"555557533131111:::;-==>><<><<<><<<<<<<<<><><<<><<><>><>>><<<<<<<<><><<<<><><>><<<><><><><<><<<><><<<<><<,**;**-;,:,***%:1,,:*,,1",
"35531153335321,,>:;===<2<22<2222222<22<2<22222<22<<222<222222222<22<22<22222<2<222<222222<22<22<22<22<2<1****-;;**,**:*,*,,11,1,",
"3331333553131,,;;;;***33424423234244242444422343444224444224332344424244424224244244332344422442442443333*-***-&*:***:*,,,,,1,,,",
"1313335531331,:>::;===&*==========&==================&=================&=================&======&===*==**%*-;;%**:*:,:*,111,**,:",
"5112535533311<,:>-;$$2,<<<<<<<<<<<<<<<<<<><<<<<<<<<<<<<<<<><<<<<><<<<<<<<<<><<<<<<><<<<<<<<<<<<<<<<<<<<<,1-;-=****:,,*,:*,131,,1",
"7333333343311:::::=*888888887888677877888888788867787888888888888888887767778888778888888888888778888888887;==&%*,,*,1,***:1*,,1",
"5551312335321,,,:;*1<<<<<<2<2<<<<2<<<2<<<<2<2<<<<2<<<2<<<<2<<<<<<<<<<<<2<<2<<<1<2<<<<<<<<<<<<<<2<<<<<<1<2<<<*=&$*****1*,,1:,,1*,",
"531:13355211,:::;*.OXXXXXXXXXXXXXXXXXXXXXXXXXXXXXXXXXXXXXXXXXXXXOXXXOXXXXXXXXXXXXOOXOXOXOXOXXOXXXXXXXXXXOXOX.&==***,*1,*:*111,*,",
"35,,,535333,:,:;--$==&==***=&==&=&===&==***==&=&=&===&=&***==&=&**=&=*=&==***=*=&=&&**&=**&*=&&====&*=*=&=&=&&==*,,,**,,:,*111,:",
"73553551311,,;:;===;;;;;;;;;;;;;;;;;;;;;;;;;;;;;;;;;;;;;;;;;;;;;;;;;;;;;;;;;;;;;;;;;;;;;;;;;;;;;;;;;;;;;-;;;******,*,:,**,*,1,,*",
"55551132111,:=*--&;>;;;>;;>>;;>>>;>>>;;>;;>>;;>>>;>>;>>>;;;>;>>>;>>;>;;>>;>;;;>>>;;>;>;>;>;;;>;>>;>;;;>>::::,******,*,*,**,1*,,1",
"1331131312<:-*&;;->>,,>>,,>><>>>>>>>>>>>,,>><>>>>>>>>>>>,,>><>>>>>>,>><>>>><>>>>><>>><>>,><>>><>>>><>>>>,,,,,**:***,*,**1*1**,,1",
"1113333331:;--**=-,<<<<<<<<<<<<<<<<<<<<<<<<<<<<<<<<<<<<<<<<<<<<<<<<<<<<<<<<<<<<<<<<<<<<<<<<<<<<<<<<<<<<<<<,11**:,*,*,*,,,3,1*,:,",
"111753231,>>;;=&&=2434344424244244244334442444424424443344242442442443344242444234344242444243344244244233442&&=;=-:,:>,,:*:::,1",
"3>1353111:,,;;===&<<<<<<<<<<<<<<<<<<<<<<<<<<<<<<<<<<<<<<<<<<<<<<<<<<<<<<<<<<<<<<<<<<<<<<<<<<<<<<<<<<<<<<<<<<>&&&**;-*::,,**,>1,,",
"31145533,:>:;===;$@$$$$$$$$$&$$$$$$$$$$$$$$$$$$$$$$$$$$$$$$$&$$$$$$$$$$$$$$$$$&$$$$$$$$$$@&$$$$$$$$$$$&$#$$$@&$==;;=;*->:*:,,,,,",
"153331311,;==;=;2<2222<2222<2222222222<2222<2222222<222<222<22222222<22222222222<22222222222<2222222222222222<;=*=-=**;:::*,,,:,",
"533111231,>-==>466666666666666664666666666666666666666666666666666666666666666666666666666666666666666666666664>=*****:*:,:*::,:",
"7755311,,::-;<77888888887888777888888888788876787888888878887778878888888888778888888776878888888888778888888777,-*&***:::,,:*;,",
"5555331,;:-*&4222222222222222222222222222222222222222222222222222222222222222222222222222222222222222222222222224&*&%*:;::,,,**,",
"3771321,:;;@.XXXXXXXXXXXXXXXXXXXXXXXXXXXXXXXXXXXXXXXXXOXXXXXXXXXXXXXXXXXXXXXXXXXXXXXXXXXXXXXXXXXXXXXXXXXXXXXXXXXXX@&**-**,**:::,",
"555531,>>>=&$&&&&&&&&&&&&&&$&&&&&&&&&&&&&&&&$&$&&&&&&&&&&&&$&&&&&&$&&$&$&&&&&&&&&&&&$&$&&&&&&$&&&&&&&&&&$&&&&&&$&&%******,*::,,1",
"53331,::>;===;;;;;;;=;;;;;;;;;;;;;;;-;;;;;;;;;;;;;;;=;;;;;;;;;;;;;;;;;;;;;;;;;;;;;;;;;;;;;;;;;;;;;;;;;;;;;;;;;;;;:**:*:::*:*::::",
"533111>>>;&=;>;;;;;;;;;;;;;;;;;;;;;;;;;;;;;;;;>;;;;;;;;;;;;;;;;;;>;;>;;;;;;;;;;;;;;;;;>;;;;;;;;;;;;;;;;;;;;;;;;;;:****:**:::,,,,",
"531111,>>;;=;>>>>>>>>>>>>>>>>>>>>>>>>>>>>>>>>>>>>>>>>>>>>>>>>>>>>>>>>>>>;>>>>>>>>>>>>>>>>>>>>>>>>>>;>>>>>>>>>>>>>>:*****,,:,,111",
"11111,>>>;;;><<<><<><<><<<<<><<<<><>><<<<<><<<<>><<><<<><<<<><<<><<><><<<><<<<<><<<><<<><<><<<><<<<<<<<><<<<><<>,<>-***::,*::,,,",
"1*>1:>::;==;<<<<<<<<<<<<<<<<<<<<<<2<<<<<<<<<<<<<2<<<<<<<<<<<<<<<<<<<<<<<2<<<<<<<<<<<<<<<<<<<<<<<<<<<<<<<<<<<<<<<<<<;*******::,,,",
"5533,,:-;;=>4444444444444444444444444444444444444444444444444444444244444444444444444244444444444444444444444444443>*::****:*,::",
"1111>>::;=$;<<<<2<2<<2<<<<<2<<<<<<<<2<<<<<<<<<2<<<2<<<2<<<<2<<<<<<2<2<<<<<<<<2<<<<<<2<2<<<<<2<<<<<<<<<<2<<<<<<<2<<<;*****:,**,*:",
"311,::;--=;$X+O+OO@@OO@O@@O@OO@@OOOOOO@@OO@@O@O@OO@@OO@O@@O@OO@@OO@OOOO@OO@@O@@O@O@O@O@OOO@@O@O@@O@O@O@O@@O@O@OO+OX&==$=-=-*;::>",
"311>:-:--=>>>>>>>>>>>>>>>>>>>>>><>><>>>>>>>>>>>>>>>>>>>>>>>>>>>><>>>>>><>>>>>>>>>>>>>>>>>>>>>>>>>>>>>>>>>>>>>>>>>,>;:$#*&&*--:;>",
"11,,;;-;-<46666666667666666666666666666676666666666676666666666646666666666666666766666666666667666676666666767666664;==%--**::*",
"11,>--;=<4544666664646466464646464646466464664646646464646646464464664646464466464466646646446644664644664466446646664<=*:-*::,:",
"1,>::;=24666666666646646666666666666466466666646666466466666666666666646646666666666666464666666664666646466666466666442:**-:;::",
",1,::*4888888888888888778788888877888888888878888888887787888888888878888888877787887788888887778888888878887778888888883*-**,>,",
"::::::4333323223424223422442223224242333234233334242234224422232234233334424244223243233442424423332424342234242223233333,:****:",
",:-:oXooXOXXOXOXXXXOXXXOXXXXXOXOXOXXOXXXOXXXXXXXXXXOXXXXXXXXXOXOOXXXXXXXXXXXXXXXXOXOXOXXXXXXXXXXXXXOXXXXXXXOXXXOOXOXXXOXoXo*:;-:",
">;;=$$$$$$$&$&$$$$$$$$$$$$$$$$$$$$$$$$$$$$&$$&$$$$$$$&$$$$&$$$$$$$$$$$$$$$$$$$$$$$$&$$$$$$$$$$$$$$&$$$$$$$$$$$$$$$$$$$$$$#$;-;;-",
"<>>;==;=;=-===;===;==;==;=;=;=;==;==;=;===-====;==;=;=;=;;==;=;====;==;;=;=;;==;==;=;=;=;==;;==;=;=;=;=;;=;==;==;=;=-=;;====--;;",
";>;;;;;;;;;;;;;;;;;;;;;;;;;;;;;;;;;;;;;;;;;;;;;;;;;;;;;;;;;;;;;;;;;;;;;;;;;;;;;;;;;;;;;;;;;;;;;;;;;;;;;;;;;;;;;;;;;;;;;;;;=;-*-;",
"=;=;;;>>;>;>>>;>>>;>>>;>>>;>>;>>>>>>;>;>>>>;>>;>>;>>;>>;>;>;>;>>>;>>>;>>>>;>;>>>;>>;>;>>>;>>;>>>>;>;;>;>;>;>>;>>;>>>;>>;>:;=-;::",
"<>=->>>>>>>>>>>>>>><>><>>>><>>>>>>><>>><<>>>>>>>>>>>>><>>>><><>>>>><>>>>>>>><>>>><>>>>>>><>><>>><>>>><>>>>><>>>>>><>,,>>,,:*---:",
">;==><<<2<<<<<<<<<<<<<<<<<<<<<<<<<<<<<<<<<<<<<<<<<2<<<<<<<<<<<<<<<<<<<<<<<<<<<<<<<<<<<<<<<<<<<<<<<<<<<<<<<<<<<2<<<<<<<<<<<,;--;-",
",;;=<<222<22222222<2222<2<<22222<22<22222<22222222<2222<22<2222<22222222<22222<2<2<22222<2<222<22<22222222222222<22<<22<1<,-----",
"=&=;44444444444444444444444444444444444444444444444444444444444444444444444444444646444444444444444444444444444446446446443;;;-;",
";;;;>>>>><>>><>>>>>>>>,>>>>>>>>>>>>>>>>>>>>>>>>>>>>>>>>>><>>><>>>>>>>>>>>>>>>>>>>>>>>>>>>>>>>>>>>>>>>>>>><>>>>>>>>>>>>>>>>>;;=&=",
">>;>OXOOXOXOXOOOOOOOOXOOOOOOOOOOOOOOOOOOOOOOOXOOOOOOOOOOXOXOXOOOOOOXOOOOOOOOOOOXOOOOOOOOOXOOOOOXOOXOOOOOOXXOOOOOOOOOOOOOXXO==;=$",
">;,,>,><<>,,<<><><<>,,,<<><>><<<<>,,<><>><<<,<,,<<><<<><<>,,<<><<><<<>,,<<<><><<><><<,,,<<<<<>,<<<><<<<<<>,,<<><<<<>,,,<<<>>*=;*",
":-346666666666666666666666666666666666666666666666666666666666666666666666666666666666666666666646664664666666666666666666643-==",
">43644444444444444444444444444444444444444464444444444444444444444444444446444444444444444464444444444444444444444446444444643=-",
"4466666666666666666666666666666666666666664666666666466666666666666666666466646666666666464666666666666666666666466446666666666-",
"66666666666666666666666666666666666666666666666666666666666666666666666666666666666666666666666666666666666666666666666666666666",
"88888888888888777888888888888887888888777888888888888887888887778888888888878887888888888888887788888887888887778888888888888888",
"43334424444422424424424433244244222424424424424233334424244222243324424424242442332442422224244233334424244222242442424433244244",
"XXXXXXXX.X.XXXXXXXXXXXXXXXXXXXXXXXXXXXXXXXXXXXXXXXXXXXXXXXXXXXXXXXXXXXXXXXXXXXXXXXXXXXXXXXXXXXXXXXXXXXXXXXXXXXXXXXXXXXXXXXXXXXXX",
"$###$$$@$$$$$$$$@$$@@$$@#$$$$$@$$@@$$$@$@$$@@$$$$$#$$$$$$$$$$$$$#$$$$$@$$@$$$$@$#$$$@$$@$$$$$$@$$$#$$$$$@$$@$$$$$$$$@$$@#$##$$@$",
"==;===============;=============;=========;===============;&============;===========;==;==================;================;====",
";;;;;;;;;;;;;;=;;;;;;;;;;;;;;;;;;;;;;;;;;;;;;;;;;;;;=;;;=;;;=;;;;;;;;;;;;=;=;;;;;;=;;;;;;;;;;;;;;;;;=;;;;;;=;;;;;;;=;;;;;;;;;;;;",
";;;;;;>;;;;;;;>;;;;;;;;;;;;;;;;;>;;;;;;>;;;;;;;;;;>;;;;;;;;;>;;>;;;;;;;;;;>;;;;;;>;;;;;;;>;;;;;;;;>;;;;;;;;;>;;>;;>;;;;;;;;;;;;;",
">>>>>>>>>>>>>>>>>>>>>>>>>>>>>>>>>>>>>>>>>>>>>>>>>>>>>>>>>>>>>>>>>>>>>>>>>>>>>>>>>>>>>>>>>>>>>>>>>>>>>>>>>>>>>>>>>>>>>>>>>>>>>>>>",
">>><<>>>><>><>>>>>><<>><>>><>><>>><>>>>>>>><><>>>><>><>><><>>>>>>>><>><>><>><>><>><>>><>>>>>><>>>><>><>><><>>>>>>>><<>><>>><>><>",
"<<<<<<<<<<<<<<<<<<<2<<<<<<<<<<<<<<<<<<<<<<<<<<<<<<<<<<<<<<<<<<<<2<<<<<<<<<<<<<<<<<<<<<<<<<<<<<<<<<<<<<<<<<<<<<<<<<<<<<<<<<<<<<<<",
"222222222222222222222<2222222222<22222222222222222222222222222222222222222<22222222222222222222222222222222222222222222222222222",
"44444444444444444424444444444444444444444444444444444444444444444444444444444444444444444444444444444444444444444444444444444444",
"<<<<<<<<<<<<<<<<<<<<<<<<<<<<<<<<<<<<<<<<<<<<<<<<<<<<<<<<<<<<<<<<<<<<<<<<<<<<<<<<<<<<<<<<<<<<<<<<<<><<<<<<<<<<<<<<<<<<><<<<<<<<<<",
"                                                                                                                                ",
"                                                                                                                                ",
"                                                                                                                                ",
"                                                                                                                                ",
"                                                                                                                                ",
"                                                                                                                                ",
"                                                                                                                                ",
"                                                                                                                                ",
"                                                                                                                                ",
"                                                                                                                                ",
"                                                                                                                                ",
"                                                                                                                                "
};
