/* XPM */
static char *result[] = {
/* columns rows colors chars-per-pixel */
"128 128 66 1 ",
"  c #04060A",
". c #1F1F21",
"X c #1D1F22",
"o c #262627",
"O c #272728",
"+ c #27292B",
"@ c #292928",
"# c #29292B",
"$ c #2C2C2E",
"% c gray18",
"& c #282930",
"* c #282B32",
"= c #2F2F31",
"- c #303031",
"; c #313131",
": c #323233",
"> c #343333",
", c #353433",
"< c #373535",
"1 c #353536",
"2 c #363637",
"3 c #36383D",
"4 c #393838",
"5 c #3A3938",
"6 c #3A3939",
"7 c #3B3A39",
"8 c #3B3A3A",
"9 c #3D3B3B",
"0 c #3D3C3C",
"q c #3E3D3D",
"w c #3F3E3D",
"e c #403F3E",
"r c #403F3F",
"t c #41403F",
"y c #293D45",
"u c #403F40",
"i c #354B51",
"p c #414040",
"a c #434242",
"s c #444342",
"d c #464545",
"f c #494849",
"g c #4B4B4B",
"h c gray30",
"j c #505050",
"k c #515151",
"l c #535253",
"z c #646464",
"x c #797979",
"c c green",
"v c #2DF0FD",
"b c #2DF2FF",
"n c gray58",
"m c #959595",
"M c gray60",
"N c #9B9B9B",
"B c gray68",
"V c #BCB9B7",
"C c gray72",
"Z c gray",
"A c #C1C1C1",
"S c gray76",
"D c gray79",
"F c gray95",
"G c #FBFBFB",
"H c white",
/* pixels */
"cccccccccccccccccccccccccccccccccccccccccccccccccccccccccccccccccccccccccccccccccccccccccccccccccccccccccccccccccccccccccccccccc",
"cccccccccccccccccccccccccccccccccccccccccccccccccccccccccccccccccccccccccccccccccccccccccccccccccccccccccccccccccccccccccccccccc",
"cccccccccccccccccccccccccccccccccccccccccccccccccccccccccccccccccccccccccccccccccccccccccccccccccccccccccccccccccccccccccccccccc",
"cccccccccccccccccccccccccccccccccccccccccccccccccccccccccccccccccccccccccccccccccccccccccccccccccccccccccccccccccccccccccccccccc",
"cccccccccccccccccccccccccccccccccccccccccccccccccccccccccccccccccccccccccccccccccccccccccccccccccccccccccccccccccccccccccccccccc",
"cccccccccccccccccccccccccccccccccccccccccccccccccccccccccccccccccccccccccccccccccccccccccccccccccccccccccccccccccccccccccccccccc",
"cccccccccccccccccccccccccccccccccccccccccccccccccccccccccccccccccccccccccccccccccccccccccccccccccccccccccccccccccccccccccccccccc",
"cccccccccccccccccccccccccccccccccccccccccccccccccccccccccccccccccccccccccccccccccccccccccccccccccccccccccccccccccccccccccccccccc",
"cccccccccccccccccccccccccccccccccccccccccccccccccccccccccccccccccccccccccccccccccccccccccccccccccccccccccccccccccccccccccccccccc",
"cccccccccccccccccccccccccccccccccccccccccccccccccccccccccccccccccccccccccccccccccccccccccccccccccccccccccccccccccccccccccccccccc",
"cccccccccccccccccccccccccccccccccccccccccccccccccccccccccccccccccccccccccccccccccccccccccccccccccccccccccccccccccccccccccccccccc",
"cccccccccccccccccccccccccccccccccccccccccccccccccccccccccccccccccccccccccccccccccccccccccccccccccccccccccccccccccccccccccccccccc",
"cccccccccccccccccccccccccccccccccccccccccccccccccccccccccccccccccccccccccccccccccccccccccccccccccccccccccccccccccccccccccccccccc",
"cccccccccccccccccccccccccccccccccccccccccccccccccccccccccccccccccccccccccccccccccccccccccccccccccccccccccccccccccccccccccccccccc",
"cccccccccccccccccccccccccccccccccccccccccccccccccccccccccccccccccccccccccccccccccccccccccccccccccccccccccccccccccccccccccccccccc",
"cccccccccccccccccccccccccccccccccccccccccccccccccccccccccccccccccccccccccccccccccccccccccccccccccccccccccccccccccccccccccccccccc",
"cccccccccccccccccccccccccccccccccccccccccccccccccccccccccccccccccccccccccccccccccccccccccccccccccccccccccccccccccccccccccccccccc",
"cccccccccccccccccccccccccccccccccccccccccccccccccccccccccccccccccccccccccccccccccccccccccccccccccccccccccccccccccccccccccccccccc",
"cccccccccccccccccccccccccccccccccccccccccccccccccccccccccccccccccccccccccccccccccccccccccccccccccccccccccccccccccccccccccccccccc",
"cccccccccccccccccccccccccccccccccccccccccccccccccccccccccccccccccccccccccccccccccccccccccccccccccccccccccccccccccccccccccccccccc",
"cccccccccccccccccccccccccccccccccccccccccccccccccccccccccccccccccccccccccccccccccccccccccccccccccccccccccccccccccccccccccccccccc",
"cccccccccccccccccccccccccccccccccccccccccccccccccccccccccccccccccccccccccccccccccccccccccccccccccccccccccccccccccccccccccccccccc",
"cccccccccccccccccccccccccccccccccccccccccccccccccccccccccccccccccccccccccccccccccccccccccccccccccccccccccccccccccccccccccccccccc",
"cccccccccccccccccccccccccccccccccccccccccccccccccccccccccccccccccccccccccccccccccccccccccccccccccccccccccccccccccccccccccccccccc",
"cccccccccccccccccccccccccccccccccccccccccccccccccccccccccccccccccccccccccccccccccccccccccccccccccccccccccccccccccccccccccccccccc",
"cccccccccccccccccccccccccccccccccccccccccccccccccccccccccccccccccccccccccccccccccccccccccccccccccccccccccccccccccccccccccccccccc",
"cccccccccccccccccccccccccccccccccccccccccccccccccccccccccccccccccccccccccccccccccccccccccccccccccccccccccccccccccccccccccccccccc",
"cccccccccccccccccccccccccccccccccccccccccccccccccccccccccccccccccccccccccccccccccccccccccccccccccccccccccccccccccccccccccccccccc",
"cccccccccccccccccccccccccccccccccccccccccccccccccccccccccccccccccccccccccccccccccccccccccccccccccccccccccccccccccccccccccccccccc",
"cccccccccccccccccccccccccccccccccccccccccccccccccccccccccccccccccccccccccccccccccccccccccccccccccccccccccccccccccccccccccccccccc",
"cccccccccccccccccccccccccccccccccccccccccccccccccccccccccccccccccccccccccccccccccccccccccccccccccccccccccccccccccccccccccccccccc",
"cccccccccccccccccccccccccccccccccccccccccccccccccccccccccccccccccccccccccccccccccccccccccccccccccccccccccccccccccccccccccccccccc",
"cccccccccccccccccccccccccccccccccccccccccccccccccccccccccccccccccccccccccccccccccccccccccccccccccccccccccccccccccccccccccccccccc",
"cccccccccccccccccccccccccccccccccccccccccccccccccccccccccccccccccccccccccccccccccccccccccccccccccccccccccccccccccccccccccccccccc",
"cccccccccccccccccccccccccccccccccccccccccccccccccccccccccccccccccccccccccccccccccccccccccccccccccccccccccccccccccccccccccccccccc",
"cccccccccccccccccccccccccccccccccccccccccccccccccccccccccccccccccccccccccccccccccccccccccccccccccccccccccccccccccccccccccccccccc",
"cccccccccccccccccccccccccccccccccccccccccccccccccccccccccccccccccccccccccccccccccccccccccccccccccccccccccccccccccccccccccccccccc",
"cccccccccccccccccccccccccccccccccccccccccccccccccccccccccccccccccccccccccccccccccccccccccccccccccccccccccccccccccccccccccccccccc",
"cccccccccccccccccccccccccccccccccccccccccccccccccccccccccccccccccccccccccccccccccccccccccccccccccccccccccccccccccccccccccccccccc",
"cccccccccccccccccccccccccccccccccccccccccccccccccccccccccccccccccccccccccccccccccccccccccccccccccccccccccccccccccccccccccccccccc",
"cccccccccccccccccccccccccccccccccccccccccccccccccccccccccccccccccccccccccccccccccccccccccccccccccccccccccccccccccccccccccccccccc",
"cccccccccccccccccccccccccccccccccccccccccccccccccccccccccccccccccccccccccccccccccccccccccccccccccccccccccccccccccccccccccccccccc",
"cccccccccccccccccccccccccccccccccccccccccccccccccccccccccccccccccccccccccccccccccccccccccccccccccccccccccccccccccccccccccccccccc",
"cccccccccccccccccccccccccccccccccccccccccccccccccccccccccccccccccccccccccccccccccccccccccccccccccccccccccccccccccccccccccccccccc",
"cccccccccccccccccccccccccccccccccccccccccccccccccccccccccccccccccccccccccccccccccccccccccccccccccccccccccccccccccccccccccccccccc",
"cccccccccccccccccccccccccccccccccccccccccccccccccccccccccccccccccccccccccccccccccccccccccccccccccccccccccccccccccccccccccccccccc",
"cccccccccccccccccccccccccccccccccccccccccccccccccccccccccccccccccccccccccccccccccccccccccccccccccccccccccccccccccccccccccccccccc",
"cccccccccccccccccccccccccccccccccccccccccccccccccccccccccccccccccccccccccccccccccccccccccccccccccccccccccccccccccccccccccccccccc",
"cccccccccccccccccccccccccccccccccccccccccccccccccccccccccccccccccccccccccccccccccccccccccccccccccccccccccccccccccccccccccccccccc",
"cccccccccccccccccccccccccccccccccccccccccccccccccccccccccccccccccccccccccccccccccccccccccccccccccccccccccccccccccccccccccccccccc",
"cccccccccccccccccccccccccccccccccccccccccccccccccccccccccccccccccccccccccccccccccccccccccccccccccccccccccccccccccccccccccccccccc",
"cccccccccccccccccccccccccccccccccccccccccccccccccccccccccccccccccccccccccccccccccccccccccccccccccccccccccccccccccccccccccccccccc",
"cccccccccccccccccccccccccccccccccccccccccccccccccccccccccccccccccccccccccccccccccccccccccccccccccccccccccccccccccccccccccccccccc",
"cccccccccccccccccccccccccccccccccccccccccccccccccccccccccccccccccccccccccccccccccccccccccccccccccccccccccccccccccccccccccccccccc",
"cccccccccccccccccccccccccccccccccccccccccccccccccccccccccccccccccccccccccccccccccccccccccccccccccccccccccccccccccccccccccccccccc",
"cccccccccccccccccccccccccccccccccccccccccccccccccccccccccccccccccccccccccccccccccccccccccccccccccccccccccccccccccccccccccccccccc",
"cccccccccccccccccccccccccccccccccccccccccccccccccccccccccccccccccccccccccccccccccccccccccccccccccccccccccccccccccccccccccccccccc",
"cccccccccccccccccccccccccccccccccccccccccccccccccccccccccccccccccccccccccccccccccccccccccccccccccccccccccccccccccccccccccccccccc",
"cccccccccccccccccccccccccccccccccccccccccccccccccccccccccccccccccccccccccccccccccccccccccccccccccccccccccccccccccccccccccccccccc",
"cccccccccccccccccccccccccccccccccccccccccccccccccccccccccccccccccccccccccccccccccccccccccccccccccccccccccccccccccccccccccccccccc",
"cccccccccccccccccccccccccccccccccccccccccccccccccccccccccccccccccccccccccccccccccccccccccccccccccccccccccccccccccccccccccccccccc",
"cccccccccccccccccccccccccccccccccccccccccccccccccccccccccccccccccccccccccccccccccccccccccccccccccccccccccccccccccccccccccccccccc",
"cccccccccccccccccccccccccccccccccccccccccccccccccccccccccccccccccccccccccccccccccccccccccccccccccccccccccccccccccccccccccccccccc",
"cccccccccccccccccccccccccccccccccccccccccccccccccccccccccccccccccccccccccccccccccccccccccccccccccccccccccccccccccccccccccccccccc",
"cccccccccccccccccccccccccccccccccccccccccccccccccccccccccccccccccccccccccccccccccccccccccccccccccccccccccccccccccccccccccccccccc",
"cccccccccccccccccccccccccccccccccccccccccccccccccccccccccccccccccccccccccccccccccccccccccccccccccccccccccccccccccccccccccccccccc",
"cccccccccccccccccccccccccccccccccc                                                            cccccccccccccccccccccccccccccccccc",
"ccccccccccccccccccccccccccccccccc ++++++++++++++++++++++++++++++++++++++++++++++++++++++++++++ ccccccccccccccccccccccccccccccccc",
"ccccccccccccccccccccccccccccccccc +                                                          + ccccccccccccccccccccccccccccccccc",
"ccccccccccccccccccccccccccccccccc + 333333333333333333333333333333333333333333333333&&&&&&&& + ccccccccccccccccccccccccccccccccc",
"ccccccccccccccccccccccccccccccccc + 33333333333333333333333333333333333333333333333&&&&&&&&& + ccccccccccccccccccccccccccccccccc",
"ccccccccccccccccccccccccccccccccc + 3333333333333333333333333333333333333333333333&&&&&&&&&& + ccccccccccccccccccccccccccccccccc",
"ccccccccccccccccccccccccccccccccc + 333333333333333333333bbbbbb33bbbbbbbbbbbbb333&&&&&&&&&&& + ccccccccccccccccccccccccccccccccc",
"ccccccccccccccccccccccccccccccccc + 33333333333333333333bbbbbbb33bbbbbbbbbbbbb33&&&&&&&&&&&& + ccccccccccccccccccccccccccccccccc",
"ccccccccccccccccccccccccccccccccc + 3333333333333333333bbbbbbbb33bbbbbibbbbbbb3&&&&&&&&&&&&& + ccccccccccccccccccccccccccccccccc",
"ccccccccccccccccccccccccccccccccc + 333333333333333333bbbbbbbbi33bbbbi3bbbbbbb&&&&&&&&&&&&&& + ccccccccccccccccccccccccccccccccc",
"ccccccccccccccccccccccccccccccccc + 33333333333333333bbbbbbbbi333bbbi33bbbbbbb&&&&&&&&&&&&&& + ccccccccccccccccccccccccccccccccc",
"ccccccccccccccccccccccccccccccccc + 3333333333333333bbbbbbbbi3333bbi333bbbbbbb&&&&&&&&&&&&&& + ccccccccccccccccccccccccccccccccc",
"ccccccccccccccccccccccccccccccccc + 333333333333333bbbbbbbbi33333bi3333bbbbbbb&&&&&&&&&&&&&& + ccccccccccccccccccccccccccccccccc",
"ccccccccccccccccccccccccccccccccc + 33333333333333bbbbbbbbi333333i3333bbbbbbby&&&&&&&&&&&&&& + ccccccccccccccccccccccccccccccccc",
"ccccccccccccccccccccccccccccccccc + 3333333333333bbbbbbbbi33333333333bbbbbbby&&&&&&&&&&&&&&& + ccccccccccccccccccccccccccccccccc",
"ccccccccccccccccccccccccccccccccc + 333333333333bbbbbbbbi33333333333bbbbbbby&&&&&&&&&&&&&&&& + ccccccccccccccccccccccccccccccccc",
"ccccccccccccccccccccccccccccccccc + 33333333333bbbbbbbbi33333333333bbbbbvby&&&&&&&&&&&&&&&&& + ccccccccccccccccccccccccccccccccc",
"ccccccccccccccccccccccccccccccccc + 33333333333bbbbbbbbbbbbbbbb333bbbbbbby&&&b&&&&&&&&&&&&&& + ccccccccccccccccccccccccccccccccc",
"ccccccccccccccccccccccccccccccccc + 33333333333bbbbbbbbbbbbbbbb33bbbbbbby&&&bb&&&&&&&&&&&&&& + ccccccccccccccccccccccccccccccccc",
"ccccccccccccccccccccccccccccccccc + 33333333333bbbbbbbbbbbbbbbb33bbbbbbb&&&bbb&&&&&&&&&&&&&& + ccccccccccccccccccccccccccccccccc",
"ccccccccccccccccccccccccccccccccc + 33333333333bbbbbbbbbbbbbbbb33bbbbbbb&&bbbb&&&&&&&&&&&&&& + ccccccccccccccccccccccccccccccccc",
"ccccccccccccccccccccccccccccccccc + 33333333333bbbbbbbbbbbbbbbb33bbbbbbb*bbbbb&&&&&&&&&&&&&& + ccccccccccccccccccccccccccccccccc",
"ccccccccccccccccccccccccccccccccc + 33333333333iiiiiiiiiiibbbbb33bbbbbbbbbbbbb&&&&&&&&&&&&&& + ccccccccccccccccccccccccccccccccc",
"ccccccccccccccccccccccccccccccccc + 3333333333333333333333bbbbb3&bbbbbbbbbbbbb&&&&&&&&&&&&&& + ccccccccccccccccccccccccccccccccc",
"ccccccccccccccccccccccccccccccccc + 3333333333333333333333bbbbb&&yyyyyyyyyyyyy&&&&&&&&&&&&&& + ccccccccccccccccccccccccccccccccc",
"ccccccccccccccccccccccccccccccccc + 3333333333333333333333bbbbb&&&&&&&&&&&&&&&&&&&&&&&&&&&&& + ccccccccccccccccccccccccccccccccc",
"ccccccccccccccccccccccccccccccccc + 3333333333333333333333bbbbb&&&&&&&&&&&&&&&&&&&&&&&&&&&&& + ccccccccccccccccccccccccccccccccc",
"ccccccccccccccccccccccccccccccccc + 3333333333333333333333bbbbb&&&&&&&&&&&&&&&&&&&&&&&&&&&&& + ccccccccccccccccccccccccccccccccc",
"ccccccccccccccccccccccccccccccccc + 3333333333333333333333iyyyy&&&&&&&&&&&&&&&&&&&&&&&&&&&&& + ccccccccccccccccccccccccccccccccc",
"ccccccccccccccccccccccccccccccccc + 3333333333333333333333&&&&&&&&&&&&&&&&&&&&&&&&&&&&&&&&&& + ccccccccccccccccccccccccccccccccc",
"ccccccccccccccccccccccccccccccccc +                                                          + ccccccccccccccccccccccccccccccccc",
"ccccccccccccccccccccccccccccccccc ++++++++++++++++++++++++++++++++++++++++++++++++++++++++H+++ ccccccccccccccccccccccccccccccccc",
"cccccccccccccccccccccccccccccccccc                                                            cccccccccccccccccccccccccccccccccc",
"ccccccccccccccccccccccccccccccccccccccccccccccccccccccccccc >>>>>>>> ccccccccccccccccccccccccccccccccccccccccccccccccccccccccccc",
"ccccccccccccccccccccccccccccccccccccccccccccccccccccccccccc >>>>>>>> ccccccccccccccccccccccccccccccccccccccccccccccccccccccccccc",
"ccccccccccccccccccccccccccccccccccccccccccccccccccccccccccc dddddddd ccccccccccccccccccccccccccccccccccccccccccccccccccccccccccc",
"ccccccccccccccccccccccccccccccccccccccccccccccccccccccccccc dddddddd ccccccccccccccccccccccccccccccccccccccccccccccccccccccccccc",
"ccccccccccccccccccccccccccccccccccccccccccccccccccccccccccc dddddddd ccccccccccccccccccccccccccccccccccccccccccccccccccccccccccc",
"ccccccccccccccccccccccccccccccccgggggggggggggggggggggggggg  dddddddd  ggggggggggggggggggggggggggcccccccccccccccccccccccccccccccc",
"cccccccccccccccccccccgggggggggggFFFFFFFFFFFFFFFFFFFFFFFFFFN dddddddd NFFFFFFFFFFFFFFFFFFFFFFFFFFggggggggggcccccccccccccccccccccc",
"ccccccccccccccccgggggFFFFFFFFFFFFFFFFFFX21=21=21=21=21=2:#Oo.Oo.Oo.O-$21=21=21-11XFFFFFFFSSASFFFFFFFFFFFFFgggggccccccccccccccccc",
"cccccccccccccccgGGGGGGGGGGGGGGGGGGGGFFXqq6eq6eq6eq4eq4eq4eq4eq4rq4rq4rq4ew4ew4qdd,XFFFFF;hfplznGGGGGGGGGGGGGGGGgcccccccccccccccc",
"ccccccccccccccccgggggVVVVVVVVVVVVVVVGXsp70t70t70t7pt7pt7pt7pt7p97p97p97pt<pt<p<aa85XGGGGnjuprk@VVVVVVVVVVggggggccccccccccccccccc",
"cccccccccccccccccccccgggggggggggggggVXXXXXXXXXXXXXXXXXXXXXXXXXXXXXXXXXXXXXXXXXXXXXXXXVVVVVVVgggggggggggggccccccccccccccccccccccc",
"ccccccccccccccccccccccccccccccccccccggggggggggggggggggggggggggggggggggggggggggggggggggggggggcccccccccccccccccccccccccccccccccccc",
"ccccccccccccccccccccccccccccccccccccccccccccccccccccccccccccc%%%%%%ccccccccccccccccccccccccccccccccccccccccccccccccccccccccccccc",
"ccccccccccccccccccccccccccccccccccccccccccccccccccccccccccccc%BBBM%ccccccccccccccccccccccccccccccccccccccccccccccccccccccccccccc",
"ccccccccccccccccccccccccccccccccccccccccccccccccccccccccccccc%BBBM%ccccccccccccccccccccccccccccccccccccccccccccccccccccccccccccc",
"ccccccccccccccccccccccccccccccccccccccccccccccccccccccccccccc%BBBM%ccccccccccccccccccccccccccccccccccccccccccccccccccccccccccccc",
"ccccccccccccccccccccccccccccccccccccccccccccccccccccccccccccc%BBBM%ccccccccccccccccccccccccccccccccccccccccccccccccccccccccccccc",
"ccccccccccccccccccccccccccccccccccccccccccccccccccccccccccccc%DBBM%ccccccccccccccccccccccccccccccccccccccccccccccccccccccccccccc",
"ccccccccccccccccccccccccccccccccccccccccccccccccccccccccccccc%DZBM%ccccccccccccccccccccccccccccccccccccccccccccccccccccccccccccc",
"ccccccccccccccccccccccccccccccccccccccccccccccccccccccccccccc%DZBM%ccccccccccccccccccccccccccccccccccccccccccccccccccccccccccccc",
"ccccccccccccccccccccccccccccccccccccccccccccccccccccccccccccc%DZBM%ccccccccccccccccccccccccccccccccccccccccccccccccccccccccccccc",
"ccccccccccccccccccccccccccccccccccccccccccccccccccccccccccccc%DZBM%ccccccccccccccccccccccccccccccccccccccccccccccccccccccccccccc",
"ccccccccccccccccccccccccccccccccccccccccccccccccccccccccccccc%DZBM%ccccccccccccccccccccccccccccccccccccccccccccccccccccccccccccc",
"cccccccccccccccccccccccccccccccccccccccccccccccczzzzzzzzzzzzz%DZBM%zzzzzzzzzzzzzcccccccccccccccccccccccccccccccccccccccccccccccc",
"ccccccccccccccccccccccccccccccccccccccccccccczzzzzz%%%%%%%%%%%BBBM%%%%%%%%%%%zzzzzzccccccccccccccccccccccccccccccccccccccccccccc",
"ccccccccccccccccccccccccccccccccccccccccccczzzzzz%%CCCCCCCCCCm%%%%mCCCCCCCCCC%%zzzzzzccccccccccccccccccccccccccccccccccccccccccc",
"cccccccccccccccccccccccccccccccccccccccccczzzzzzz%%xxxxxxxxxxxxxxxxxxxxxxxxxx%%zzzzzzzcccccccccccccccccccccccccccccccccccccccccc",
"ccccccccccccccccccccccccccccccccccccccccczzzzzzzzz%%%%%%%%%%%%%%%%%%%%%%%%%%%%zzzzzzzzzccccccccccccccccccccccccccccccccccccccccc",
"cccccccccccccccccccccccccccccccccccccccccczzzzzzzzzzzzzzzzzzzzzzzzzzzzzzzzzzzzzzzzzzzzcccccccccccccccccccccccccccccccccccccccccc"
};
