/* XPM */
static char *result[] = {
/* columns rows colors chars-per-pixel */
"128 128 61 1 ",
"  c #04060A",
". c #1F1F21",
"X c #1D1F22",
"o c #262627",
"O c #272728",
"+ c #27292B",
"@ c #292928",
"# c #29292B",
"$ c #2C2C2E",
"% c gray18",
"& c #282930",
"* c #2F2F31",
"= c #303031",
"- c #313131",
"; c #323233",
": c #343333",
"> c #353433",
", c #373535",
"< c #353536",
"1 c #363637",
"2 c #36383D",
"3 c #393838",
"4 c #3A3938",
"5 c #3A3939",
"6 c #3B3A39",
"7 c #3B3A3A",
"8 c #3D3B3B",
"9 c #3D3C3C",
"0 c #3E3D3D",
"q c #3F3E3D",
"w c #403F3E",
"e c #403F3F",
"r c #41403F",
"t c #403F40",
"y c #414040",
"u c #434242",
"i c #444342",
"p c #464545",
"a c #494849",
"s c #4B4B4B",
"d c gray30",
"f c #505050",
"g c #515151",
"h c #535253",
"j c #646464",
"k c #797979",
"l c green",
"z c gray58",
"x c #959595",
"c c gray60",
"v c #9B9B9B",
"b c gray68",
"n c #BCB9B7",
"m c gray72",
"M c gray",
"N c #C1C1C1",
"B c gray76",
"V c gray79",
"C c gray95",
"Z c #FBFBFB",
"A c white",
/* pixels */
"llllllllllllllllllllllllllllllllllllllllllllllllllllllllllllllllllllllllllllllllllllllllllllllllllllllllllllllllllllllllllllllll",
"llllllllllllllllllllllllllllllllllllllllllllllllllllllllllllllllllllllllllllllllllllllllllllllllllllllllllllllllllllllllllllllll",
"llllllllllllllllllllllllllllllllllllllllllllllllllllllllllllllllllllllllllllllllllllllllllllllllllllllllllllllllllllllllllllllll",
"llllllllllllllllllllllllllllllllllllllllllllllllllllllllllllllllllllllllllllllllllllllllllllllllllllllllllllllllllllllllllllllll",
"llllllllllllllllllllllllllllllllllllllllllllllllllllllllllllllllllllllllllllllllllllllllllllllllllllllllllllllllllllllllllllllll",
"llllllllllllllllllllllllllllllllllllllllllllllllllllllllllllllllllllllllllllllllllllllllllllllllllllllllllllllllllllllllllllllll",
"llllllllllllllllllllllllllllllllllllllllllllllllllllllllllllllllllllllllllllllllllllllllllllllllllllllllllllllllllllllllllllllll",
"llllllllllllllllllllllllllllllllllllllllllllllllllllllllllllllllllllllllllllllllllllllllllllllllllllllllllllllllllllllllllllllll",
"llllllllllllllllllllllllllllllllllllllllllllllllllllllllllllllllllllllllllllllllllllllllllllllllllllllllllllllllllllllllllllllll",
"llllllllllllllllllllllllllllllllllllllllllllllllllllllllllllllllllllllllllllllllllllllllllllllllllllllllllllllllllllllllllllllll",
"llllllllllllllllllllllllllllllllllllllllllllllllllllllllllllllllllllllllllllllllllllllllllllllllllllllllllllllllllllllllllllllll",
"llllllllllllllllllllllllllllllllllllllllllllllllllllllllllllllllllllllllllllllllllllllllllllllllllllllllllllllllllllllllllllllll",
"llllllllllllllllllllllllllllllllllllllllllllllllllllllllllllllllllllllllllllllllllllllllllllllllllllllllllllllllllllllllllllllll",
"llllllllllllllllllllllllllllllllllllllllllllllllllllllllllllllllllllllllllllllllllllllllllllllllllllllllllllllllllllllllllllllll",
"llllllllllllllllllllllllllllllllllllllllllllllllllllllllllllllllllllllllllllllllllllllllllllllllllllllllllllllllllllllllllllllll",
"llllllllllllllllllllllllllllllllllllllllllllllllllllllllllllllllllllllllllllllllllllllllllllllllllllllllllllllllllllllllllllllll",
"llllllllllllllllllllllllllllllllllllllllllllllllllllllllllllllllllllllllllllllllllllllllllllllllllllllllllllllllllllllllllllllll",
"llllllllllllllllllllllllllllllllllllllllllllllllllllllllllllllllllllllllllllllllllllllllllllllllllllllllllllllllllllllllllllllll",
"llllllllllllllllllllllllllllllllllllllllllllllllllllllllllllllllllllllllllllllllllllllllllllllllllllllllllllllllllllllllllllllll",
"llllllllllllllllllllllllllllllllllllllllllllllllllllllllllllllllllllllllllllllllllllllllllllllllllllllllllllllllllllllllllllllll",
"llllllllllllllllllllllllllllllllllllllllllllllllllllllllllllllllllllllllllllllllllllllllllllllllllllllllllllllllllllllllllllllll",
"llllllllllllllllllllllllllllllllllllllllllllllllllllllllllllllllllllllllllllllllllllllllllllllllllllllllllllllllllllllllllllllll",
"llllllllllllllllllllllllllllllllllllllllllllllllllllllllllllllllllllllllllllllllllllllllllllllllllllllllllllllllllllllllllllllll",
"llllllllllllllllllllllllllllllllllllllllllllllllllllllllllllllllllllllllllllllllllllllllllllllllllllllllllllllllllllllllllllllll",
"llllllllllllllllllllllllllllllllllllllllllllllllllllllllllllllllllllllllllllllllllllllllllllllllllllllllllllllllllllllllllllllll",
"llllllllllllllllllllllllllllllllllllllllllllllllllllllllllllllllllllllllllllllllllllllllllllllllllllllllllllllllllllllllllllllll",
"llllllllllllllllllllllllllllllllllllllllllllllllllllllllllllllllllllllllllllllllllllllllllllllllllllllllllllllllllllllllllllllll",
"llllllllllllllllllllllllllllllllllllllllllllllllllllllllllllllllllllllllllllllllllllllllllllllllllllllllllllllllllllllllllllllll",
"llllllllllllllllllllllllllllllllllllllllllllllllllllllllllllllllllllllllllllllllllllllllllllllllllllllllllllllllllllllllllllllll",
"llllllllllllllllllllllllllllllllllllllllllllllllllllllllllllllllllllllllllllllllllllllllllllllllllllllllllllllllllllllllllllllll",
"llllllllllllllllllllllllllllllllllllllllllllllllllllllllllllllllllllllllllllllllllllllllllllllllllllllllllllllllllllllllllllllll",
"llllllllllllllllllllllllllllllllllllllllllllllllllllllllllllllllllllllllllllllllllllllllllllllllllllllllllllllllllllllllllllllll",
"llllllllllllllllllllllllllllllllllllllllllllllllllllllllllllllllllllllllllllllllllllllllllllllllllllllllllllllllllllllllllllllll",
"llllllllllllllllllllllllllllllllllllllllllllllllllllllllllllllllllllllllllllllllllllllllllllllllllllllllllllllllllllllllllllllll",
"llllllllllllllllllllllllllllllllllllllllllllllllllllllllllllllllllllllllllllllllllllllllllllllllllllllllllllllllllllllllllllllll",
"llllllllllllllllllllllllllllllllllllllllllllllllllllllllllllllllllllllllllllllllllllllllllllllllllllllllllllllllllllllllllllllll",
"llllllllllllllllllllllllllllllllllllllllllllllllllllllllllllllllllllllllllllllllllllllllllllllllllllllllllllllllllllllllllllllll",
"llllllllllllllllllllllllllllllllllllllllllllllllllllllllllllllllllllllllllllllllllllllllllllllllllllllllllllllllllllllllllllllll",
"llllllllllllllllllllllllllllllllllllllllllllllllllllllllllllllllllllllllllllllllllllllllllllllllllllllllllllllllllllllllllllllll",
"llllllllllllllllllllllllllllllllllllllllllllllllllllllllllllllllllllllllllllllllllllllllllllllllllllllllllllllllllllllllllllllll",
"llllllllllllllllllllllllllllllllllllllllllllllllllllllllllllllllllllllllllllllllllllllllllllllllllllllllllllllllllllllllllllllll",
"llllllllllllllllllllllllllllllllllllllllllllllllllllllllllllllllllllllllllllllllllllllllllllllllllllllllllllllllllllllllllllllll",
"llllllllllllllllllllllllllllllllllllllllllllllllllllllllllllllllllllllllllllllllllllllllllllllllllllllllllllllllllllllllllllllll",
"llllllllllllllllllllllllllllllllllllllllllllllllllllllllllllllllllllllllllllllllllllllllllllllllllllllllllllllllllllllllllllllll",
"llllllllllllllllllllllllllllllllllllllllllllllllllllllllllllllllllllllllllllllllllllllllllllllllllllllllllllllllllllllllllllllll",
"llllllllllllllllllllllllllllllllllllllllllllllllllllllllllllllllllllllllllllllllllllllllllllllllllllllllllllllllllllllllllllllll",
"llllllllllllllllllllllllllllllllllllllllllllllllllllllllllllllllllllllllllllllllllllllllllllllllllllllllllllllllllllllllllllllll",
"llllllllllllllllllllllllllllllllllllllllllllllllllllllllllllllllllllllllllllllllllllllllllllllllllllllllllllllllllllllllllllllll",
"llllllllllllllllllllllllllllllllllllllllllllllllllllllllllllllllllllllllllllllllllllllllllllllllllllllllllllllllllllllllllllllll",
"llllllllllllllllllllllllllllllllllllllllllllllllllllllllllllllllllllllllllllllllllllllllllllllllllllllllllllllllllllllllllllllll",
"llllllllllllllllllllllllllllllllllllllllllllllllllllllllllllllllllllllllllllllllllllllllllllllllllllllllllllllllllllllllllllllll",
"llllllllllllllllllllllllllllllllllllllllllllllllllllllllllllllllllllllllllllllllllllllllllllllllllllllllllllllllllllllllllllllll",
"llllllllllllllllllllllllllllllllllllllllllllllllllllllllllllllllllllllllllllllllllllllllllllllllllllllllllllllllllllllllllllllll",
"llllllllllllllllllllllllllllllllllllllllllllllllllllllllllllllllllllllllllllllllllllllllllllllllllllllllllllllllllllllllllllllll",
"llllllllllllllllllllllllllllllllllllllllllllllllllllllllllllllllllllllllllllllllllllllllllllllllllllllllllllllllllllllllllllllll",
"llllllllllllllllllllllllllllllllllllllllllllllllllllllllllllllllllllllllllllllllllllllllllllllllllllllllllllllllllllllllllllllll",
"llllllllllllllllllllllllllllllllllllllllllllllllllllllllllllllllllllllllllllllllllllllllllllllllllllllllllllllllllllllllllllllll",
"llllllllllllllllllllllllllllllllllllllllllllllllllllllllllllllllllllllllllllllllllllllllllllllllllllllllllllllllllllllllllllllll",
"llllllllllllllllllllllllllllllllllllllllllllllllllllllllllllllllllllllllllllllllllllllllllllllllllllllllllllllllllllllllllllllll",
"llllllllllllllllllllllllllllllllllllllllllllllllllllllllllllllllllllllllllllllllllllllllllllllllllllllllllllllllllllllllllllllll",
"llllllllllllllllllllllllllllllllllllllllllllllllllllllllllllllllllllllllllllllllllllllllllllllllllllllllllllllllllllllllllllllll",
"llllllllllllllllllllllllllllllllllllllllllllllllllllllllllllllllllllllllllllllllllllllllllllllllllllllllllllllllllllllllllllllll",
"llllllllllllllllllllllllllllllllllllllllllllllllllllllllllllllllllllllllllllllllllllllllllllllllllllllllllllllllllllllllllllllll",
"llllllllllllllllllllllllllllllllllllllllllllllllllllllllllllllllllllllllllllllllllllllllllllllllllllllllllllllllllllllllllllllll",
"llllllllllllllllllllllllllllllllllllllllllllllllllllllllllllllllllllllllllllllllllllllllllllllllllllllllllllllllllllllllllllllll",
"llllllllllllllllllllllllllllllllllllllllllllllllllllllllllllllllllllllllllllllllllllllllllllllllllllllllllllllllllllllllllllllll",
"llllllllllllllllllllllllllllllllll                                                            llllllllllllllllllllllllllllllllll",
"lllllllllllllllllllllllllllllllll ++++++++++++++++++++++++++++++++++++++++++++++++++++++++++++ lllllllllllllllllllllllllllllllll",
"lllllllllllllllllllllllllllllllll +                                                          + lllllllllllllllllllllllllllllllll",
"lllllllllllllllllllllllllllllllll + 222222222222222222222222222222222222222222222222&&&&&&&& + lllllllllllllllllllllllllllllllll",
"lllllllllllllllllllllllllllllllll + 22222222222222222222222222222222222222222222222&&&&&&&&& + lllllllllllllllllllllllllllllllll",
"lllllllllllllllllllllllllllllllll + 2222222222222222222222222222222222222222222222&&&&&&&&&& + lllllllllllllllllllllllllllllllll",
"lllllllllllllllllllllllllllllllll + 222222222222222222222222222222222222222222222&&&&&&&&&&& + lllllllllllllllllllllllllllllllll",
"lllllllllllllllllllllllllllllllll + 22222222222222222222222222222222222222222222&&&&&&&&&&&& + lllllllllllllllllllllllllllllllll",
"lllllllllllllllllllllllllllllllll + 2222222222222222222222222222222222222222222&&&&&&&&&&&&& + lllllllllllllllllllllllllllllllll",
"lllllllllllllllllllllllllllllllll + 222222222222222222222222222222222222222222&&&&&&&&&&&&&& + lllllllllllllllllllllllllllllllll",
"lllllllllllllllllllllllllllllllll + 22222222222222222222222222222222222222222&&&&&&&&&&&&&&& + lllllllllllllllllllllllllllllllll",
"lllllllllllllllllllllllllllllllll + 2222222222222222222222222222222222222222&&&&&&&&&&&&&&&& + lllllllllllllllllllllllllllllllll",
"lllllllllllllllllllllllllllllllll + 222222222222222222222222222222222222222&&&&&&&&&&&&&&&&& + lllllllllllllllllllllllllllllllll",
"lllllllllllllllllllllllllllllllll + 22222222222222222222222222222222222222&&&&&&&&&&&&&&&&&& + lllllllllllllllllllllllllllllllll",
"lllllllllllllllllllllllllllllllll + 2222222222222222222222222222222222222&&&&&&&&&&&&&&&&&&& + lllllllllllllllllllllllllllllllll",
"lllllllllllllllllllllllllllllllll + 222222222222222222222222222222222222&&&&&&&&&&&&&&&&&&&& + lllllllllllllllllllllllllllllllll",
"lllllllllllllllllllllllllllllllll + 22222222222222222222222222222222222&&&&&&&&&&&&&&&&&&&&& + lllllllllllllllllllllllllllllllll",
"lllllllllllllllllllllllllllllllll + 2222222222222222222222222222222222&&&&&&&&&&&&&&&&&&&&&& + lllllllllllllllllllllllllllllllll",
"lllllllllllllllllllllllllllllllll + 222222222222222222222222222222222&&&&&&&&&&&&&&&&&&&&&&& + lllllllllllllllllllllllllllllllll",
"lllllllllllllllllllllllllllllllll + 22222222222222222222222222222222&&&&&&&&&&&&&&&&&&&&&&&& + lllllllllllllllllllllllllllllllll",
"lllllllllllllllllllllllllllllllll + 2222222222222222222222222222222&&&&&&&&&&&&&&&&&&&&&&&&& + lllllllllllllllllllllllllllllllll",
"lllllllllllllllllllllllllllllllll + 222222222222222222222222222222&&&&&&&&&&&&&&&&&&&&&&&&&& + lllllllllllllllllllllllllllllllll",
"lllllllllllllllllllllllllllllllll + 22222222222222222222222222222&&&&&&&&&&&&&&&&&&&&&&&&&&& + lllllllllllllllllllllllllllllllll",
"lllllllllllllllllllllllllllllllll + 2222222222222222222222222222&&&&&&&&&&&&&&&&&&&&&&&&&&&& + lllllllllllllllllllllllllllllllll",
"lllllllllllllllllllllllllllllllll + 222222222222222222222222222&&&&&&&&&&&&&&&&&&&&&&&&&&&&& + lllllllllllllllllllllllllllllllll",
"lllllllllllllllllllllllllllllllll + 22222222222222222222222222&&&&&&&&&&&&&&&&&&&&&&&&&&&&&& + lllllllllllllllllllllllllllllllll",
"lllllllllllllllllllllllllllllllll + 2222222222222222222222222&&&&&&&&&&&&&&&&&&&&&&&&&&&&&&& + lllllllllllllllllllllllllllllllll",
"lllllllllllllllllllllllllllllllll + 222222222222222222222222&&&&&&&&&&&&&&&&&&&&&&&&&&&&&&&& + lllllllllllllllllllllllllllllllll",
"lllllllllllllllllllllllllllllllll + 22222222222222222222222&&&&&&&&&&&&&&&&&&&&&&&&&&&&&&&&& + lllllllllllllllllllllllllllllllll",
"lllllllllllllllllllllllllllllllll + 2222222222222222222222&&&&&&&&&&&&&&&&&&&&&&&&&&&&&&&&&& + lllllllllllllllllllllllllllllllll",
"lllllllllllllllllllllllllllllllll +                                                          + lllllllllllllllllllllllllllllllll",
"lllllllllllllllllllllllllllllllll ++++++++++++++++++++++++++++++++++++++++++++++++++++++++A+++ lllllllllllllllllllllllllllllllll",
"llllllllllllllllllllllllllllllllll                                                            llllllllllllllllllllllllllllllllll",
"lllllllllllllllllllllllllllllllllllllllllllllllllllllllllll :::::::: lllllllllllllllllllllllllllllllllllllllllllllllllllllllllll",
"lllllllllllllllllllllllllllllllllllllllllllllllllllllllllll :::::::: lllllllllllllllllllllllllllllllllllllllllllllllllllllllllll",
"lllllllllllllllllllllllllllllllllllllllllllllllllllllllllll pppppppp lllllllllllllllllllllllllllllllllllllllllllllllllllllllllll",
"lllllllllllllllllllllllllllllllllllllllllllllllllllllllllll pppppppp lllllllllllllllllllllllllllllllllllllllllllllllllllllllllll",
"lllllllllllllllllllllllllllllllllllllllllllllllllllllllllll pppppppp lllllllllllllllllllllllllllllllllllllllllllllllllllllllllll",
"llllllllllllllllllllllllllllllllssssssssssssssssssssssssss  pppppppp  ssssssssssssssssssssssssssllllllllllllllllllllllllllllllll",
"lllllllllllllllllllllsssssssssssCCCCCCCCCCCCCCCCCCCCCCCCCCv pppppppp vCCCCCCCCCCCCCCCCCCCCCCCCCCssssssssssllllllllllllllllllllll",
"llllllllllllllllsssssCCCCCCCCCCCCCCCCCCX1<*1<*1<*1<*1<*1;#Oo.Oo.Oo.O=$1<*1<*1<=<<XCCCCCCCBBNBCCCCCCCCCCCCCssssslllllllllllllllll",
"lllllllllllllllsZZZZZZZZZZZZZZZZZZZZCCX005w05w05w03w03w03w03w03e03e03e03wq3wq30pp>XCCCCC-dayhjzZZZZZZZZZZZZZZZZsllllllllllllllll",
"llllllllllllllllsssssnnnnnnnnnnnnnnnZXiy69r69r69r6yr6yr6yr6yr6y86y86y86yr,yr,y,uu74XZZZZzftyeg@nnnnnnnnnnsssssslllllllllllllllll",
"lllllllllllllllllllllsssssssssssssssnXXXXXXXXXXXXXXXXXXXXXXXXXXXXXXXXXXXXXXXXXXXXXXXXnnnnnnnssssssssssssslllllllllllllllllllllll",
"llllllllllllllllllllllllllllllllllllssssssssssssssssssssssssssssssssssssssssssssssssssssssssllllllllllllllllllllllllllllllllllll",
"lllllllllllllllllllllllllllllllllllllllllllllllllllllllllllll%%%%%%lllllllllllllllllllllllllllllllllllllllllllllllllllllllllllll",
"lllllllllllllllllllllllllllllllllllllllllllllllllllllllllllll%bbbc%lllllllllllllllllllllllllllllllllllllllllllllllllllllllllllll",
"lllllllllllllllllllllllllllllllllllllllllllllllllllllllllllll%bbbc%lllllllllllllllllllllllllllllllllllllllllllllllllllllllllllll",
"lllllllllllllllllllllllllllllllllllllllllllllllllllllllllllll%bbbc%lllllllllllllllllllllllllllllllllllllllllllllllllllllllllllll",
"lllllllllllllllllllllllllllllllllllllllllllllllllllllllllllll%bbbc%lllllllllllllllllllllllllllllllllllllllllllllllllllllllllllll",
"lllllllllllllllllllllllllllllllllllllllllllllllllllllllllllll%Vbbc%lllllllllllllllllllllllllllllllllllllllllllllllllllllllllllll",
"lllllllllllllllllllllllllllllllllllllllllllllllllllllllllllll%VMbc%lllllllllllllllllllllllllllllllllllllllllllllllllllllllllllll",
"lllllllllllllllllllllllllllllllllllllllllllllllllllllllllllll%VMbc%lllllllllllllllllllllllllllllllllllllllllllllllllllllllllllll",
"lllllllllllllllllllllllllllllllllllllllllllllllllllllllllllll%VMbc%lllllllllllllllllllllllllllllllllllllllllllllllllllllllllllll",
"lllllllllllllllllllllllllllllllllllllllllllllllllllllllllllll%VMbc%lllllllllllllllllllllllllllllllllllllllllllllllllllllllllllll",
"lllllllllllllllllllllllllllllllllllllllllllllllllllllllllllll%VMbc%lllllllllllllllllllllllllllllllllllllllllllllllllllllllllllll",
"lllllllllllllllllllllllllllllllllllllllllllllllljjjjjjjjjjjjj%VMbc%jjjjjjjjjjjjjllllllllllllllllllllllllllllllllllllllllllllllll",
"llllllllllllllllllllllllllllllllllllllllllllljjjjjj%%%%%%%%%%%bbbc%%%%%%%%%%%jjjjjjlllllllllllllllllllllllllllllllllllllllllllll",
"llllllllllllllllllllllllllllllllllllllllllljjjjjj%%mmmmmmmmmmx%%%%xmmmmmmmmmm%%jjjjjjlllllllllllllllllllllllllllllllllllllllllll",
"lllllllllllllllllllllllllllllllllllllllllljjjjjjj%%kkkkkkkkkkkkkkkkkkkkkkkkkk%%jjjjjjjllllllllllllllllllllllllllllllllllllllllll",
"llllllllllllllllllllllllllllllllllllllllljjjjjjjjj%%%%%%%%%%%%%%%%%%%%%%%%%%%%jjjjjjjjjlllllllllllllllllllllllllllllllllllllllll",
"lllllllllllllllllllllllllllllllllllllllllljjjjjjjjjjjjjjjjjjjjjjjjjjjjjjjjjjjjjjjjjjjjllllllllllllllllllllllllllllllllllllllllll"
};
