/* XPM */
static char *_3e5986545d341a6cdd382e0d3dbed6bhQl3IwvUI9JNZT2c[] = {
/* columns rows colors chars-per-pixel */
"128 128 245 2 ",
"   c #060303",
".  c #0E0609",
"X  c #281413",
"o  c #33280E",
"O  c #0D0A22",
"+  c #252229",
"@  c #511104",
"#  c #6B1703",
"$  c #4C320D",
"%  c #70330A",
"&  c #53392E",
"*  c #6B3C22",
"=  c #3F4717",
"-  c #5A4409",
";  c #714E0C",
":  c #796105",
">  c #6E522E",
",  c #76652C",
"<  c #594A37",
"1  c #304B5C",
"2  c #4B5150",
"3  c #7A5E43",
"4  c #73694F",
"5  c #707372",
"6  c #A61304",
"7  c #8E2C02",
"8  c #B52B07",
"9  c #9B333B",
"0  c #E4030A",
"q  c #FA2400",
"w  c #CC250E",
"e  c #8E510B",
"r  c #AF5309",
"t  c #946E0C",
"y  c #A67808",
"u  c #B57804",
"i  c #AE6B10",
"p  c #8D5A29",
"a  c #936C31",
"s  c #AE702A",
"d  c #B65A26",
"f  c #D55502",
"g  c #C75408",
"h  c #EA5A01",
"j  c #F14D03",
"k  c #C47A04",
"l  c #D77502",
"z  c #CB710E",
"x  c #E76602",
"c  c #F66A03",
"v  c #ED7C02",
"b  c #E97803",
"n  c #F57C01",
"m  c #FB7D01",
"M  c #F67602",
"N  c #E36513",
"B  c #D27B2F",
"V  c #E9692E",
"C  c #91724B",
"Z  c #A8774D",
"A  c #DF6850",
"S  c #AB8B07",
"D  c #B88408",
"F  c #BC9605",
"G  c #AE8712",
"H  c #B28D2D",
"J  c #AD9D1D",
"K  c #C88906",
"L  c #D88804",
"P  c #C99702",
"I  c #D3950D",
"U  c #E88803",
"Y  c #F68402",
"T  c #FC8402",
"R  c #F48C02",
"E  c #FC8C01",
"W  c #F9860A",
"Q  c #E49401",
"!  c #E79B00",
"~  c #EB9A01",
"^  c #F59302",
"/  c #FC9401",
"(  c #F59C02",
")  c #FC9C01",
"_  c #F1970D",
"`  c #EA9518",
"'  c #C7A805",
"]  c #D7A602",
"[  c #DAB703",
"{  c #D1B110",
"}  c #EAAC01",
"|  c #E6A504",
" . c #F5A302",
".. c #FCA401",
"X. c #F5AC02",
"o. c #FCAC01",
"O. c #F8A90B",
"+. c #E5B301",
"@. c #EAB401",
"#. c #ECBC02",
"$. c #E5B709",
"%. c #F5B401",
"&. c #FCB301",
"*. c #F5BC01",
"=. c #FCBC01",
"-. c #F9BA0B",
";. c #E4A819",
":. c #F8A919",
">. c #E1B419",
",. c #E2BB17",
"<. c #F8B415",
"1. c #CC902A",
"2. c #F08F2C",
"3. c #D5B130",
"4. c #F9A828",
"5. c #E3B924",
"6. c #EEB32B",
"7. c #EEC203",
"8. c #ECCB06",
"9. c #F5C301",
"0. c #FCC401",
"q. c #F5CB01",
"w. c #FDCB01",
"e. c #FCC90B",
"r. c #F4D201",
"t. c #FED301",
"y. c #FFDA01",
"u. c #FEDD0C",
"i. c #FAD50A",
"p. c #E2C517",
"a. c #FAC618",
"s. c #FCD616",
"d. c #EED30C",
"f. c #FFE301",
"g. c #FEE901",
"h. c #FFE50C",
"j. c #FFFA08",
"k. c #FEE714",
"l. c #F9F312",
"z. c #D3C92D",
"x. c #FBC826",
"c. c #FCD725",
"v. c #FDC93B",
"b. c #F9DA3A",
"n. c #E7C52D",
"m. c #FBEB2D",
"M. c #D8CA1B",
"N. c #B28E4F",
"B. c #BAA849",
"V. c #92886B",
"C. c #AB8A6E",
"Z. c #B3A678",
"A. c #958E58",
"S. c #CA944D",
"D. c #F29444",
"F. c #CCA545",
"G. c #CCAA45",
"H. c #C0A44C",
"J. c #CAB445",
"K. c #D3B04F",
"L. c #F7A946",
"P. c #F1B74D",
"I. c #CEB070",
"U. c #ECB86B",
"Y. c #E49A6F",
"T. c #BCC354",
"R. c #FBC843",
"E. c #F8D848",
"W. c #F1C956",
"Q. c #FBF74A",
"!. c #F2E341",
"~. c #F5CF70",
"^. c #FCEE6B",
"/. c #D4D15D",
"(. c #70798A",
"). c #738C9D",
"_. c #AE9889",
"`. c #A6A6A1",
"'. c #D1B88C",
"]. c #E9B28B",
"[. c #F0D091",
"{. c #FDED8D",
"}. c #D9C9AD",
"|. c #EED4A8",
" X c #F3EFB0",
".X c #D8DE9C",
"XX c #86AFEE",
"oX c #B9D0D4",
"OX c #D5D9D9",
"+X c #DBDDDD",
"@X c #D2D6D6",
"#X c #D5D5CB",
"$X c #F5ECCC",
"%X c #DEE1E1",
"&X c #DEE1E1",
"*X c #D9EDE1",
"=X c #D7FFEE",
"-X c #E2E5E5",
";X c #E4E7E7",
":X c #E2E5E5",
">X c #E7EAEA",
",X c #E5E9E9",
"<X c #E6EAEA",
"1X c #E9EBEB",
"2X c #EAECEC",
"3X c #EBEEEE",
"4X c #EBEFEF",
"5X c #E9ECEC",
"6X c #ECEFEF",
"7X c #EAEDED",
"8X c #EBECE2",
"9X c #ECF0F0",
"0X c #EDF1F1",
"qX c #EEF1F1",
"wX c #EEF2F2",
"eX c #EFF2F2",
"rX c #EFF3F3",
"tX c #EEF2F2",
"yX c #F0F4F4",
"uX c #F1F4F4",
"iX c #F1F5F5",
"pX c #F2F5F5",
"aX c #F2F6F6",
"sX c #F3F7F7",
"dX c #F3F6F7",
"fX c #F4F7F7",
"gX c #F2F6F6",
"hX c #F4F8F8",
"jX c #F5F8F8",
"kX c #F6F9F9",
"lX c #F7F9F9",
"zX c #F7FAFA",
"xX c #F6F9F9",
"cX c #F8FAFA",
"vX c #F8FBFB",
"bX c #F8FAFB",
"nX c #F8FCFC",
"mX c #F9FCFC",
"MX c #F9FDFD",
"NX c #FAFDFD",
"BX c #FAFEFE",
"VX c #FCFFFF",
"CX c #FFFFFF",
"ZX c #F9FCFC",
"AX c #B3C98A",
/* pixels */
"fXhXhX5X1X1X9XvXfXyXnXnXnXfX>X5X9XyXyXhXyXhXvXvXvXvXyXhXnXhXhXyXfX9XvXfXvXyXyXfXhXvXvXnXvX>X5XnX9XfXyX9X6XyXyXhXnXyXyX6X6X5XhXvXhXvX9X+X>X-XhXyX9XyXnXVXvX5X>XfXhXhXyXyXhXyXyXfXyX6XyXhX1X6XvXyX1XyXnXVXhXyXhXyXhXhXhXvXfXhXvXhX9XvXnXVXnXyXyXnXyXyXhXhXyXyXhXfX",
"yX9X9X>X5X9XvXvX9X9XyXhXvX9X>X+X>XhXvXhXhXVXVXVXyXyXfXyXvX9X1X9XyXnXnXhXnXhX9X9X1X9XyX9XhXhX1XyX5X5X>XyXfX>X5XhXnXyX1X9XnXhXhX5X>XfXfX9X9XhX9X>X5XyXhXhXnXhXfXvXhXhXhXyX9X9X1X9XyX-X1XyX>X>XyX9X9XfXyXyX6XhXnXvXhXfXhXyX>X9XvXhXfXyXyXyX5X>XhXhXvXfX6XhXnXnXvXyX",
"9X>XhXhX1XhXvXhXnXhXyX5XhX6XhX+X-XyXhXhXvXvXnXyXvXhXnX5XyXyX9XyXfXvXnXhXhXhX>X&X>X5XyXnXVXyX>X5X>X9X6X5X-X5XyX>X9XfX9XyXyXyXhX9XhXvX>X-XnXnXfXvXnXyXhXyXnXvXhXhXhXyX9XyX5XvXhXyX-X5X9X9X9X9XyX1XhXhXhX-X5XyX5XhX6X9X6X9X>X9XvXfXvX9XyXhXnXnXvXvXvXVXnXvXyXyX9XyX",
"1XhXVXVXvXhXfXnXhX9X9X&X9X9XfXvX9X9X9XhXvXyX6X5XhXhXfXnXhXhXyXyXfX9XyXvXnXyX9XyXyXnXVXnXvXhX6XyXhX6X;XhX;X9X>X1X5XhX9X-X>X9X9X9XhXnX9XyXyXyXyX1X6XyXhX9X6XyXvXhXyX9XyX9XhXhXhXhXhXhX9XyXyXyX9X9XyXyXfX9XyX1X-X9X9XyXyXnXnXyXfXyXyXhXhXvXnXnXyXyXyXhXyXhXhXyXhXhX",
"9XhXvXvXhXvXyX9XnXyX&X6X1X9XyXnXnXhXyXyX>X>X&X6XyXyX9X9XhXyX9X6X9XyXvXyXhXhXyXyXyXhXvX6X1XyX1X+X-X5X5XyX9X9XyXhX9X6XyX&X&X;X9XyX9XhXhX9X9XhXnX9X6XyXhXyXyXhXnXhXyX9X9X9XyXfXfX1X5XhX9XyXhXyX9X9XyX9X6XyXhX1XhXyX;X>X9XhXyX9XfXhXyXyXhXvXhXhXvXnXhX9XhXyXVXyX5X9X",
"vXnXhXhXyX9X9XyX5XvXhX6XyXyXhXhXvXvXVXyX9X9X5X6X6X;X&X;X9X9XyX6X9XyX9XhXyX9XhXhX9X5XhXyXyXhXyXyX9X9XyX>XyX1XhXhX9X6X9X-XhXyX5XvXyX9X9XhXyXhXhXvXfXyX5XhXhXvXhX9XhXyXfXyXfXyXyXyXhXyX5XvXhXyXyXhXvXyX9XfX5XyXyXhX9X9XhXnXhXhXhX;X9XhXyXyXvXhXhXVXnXvXnXnXnXhX9X>X",
"nXhXhXhXhXnXhXhX1XyXvXyX1XhXvXhXnXhXhXhX9X>X9X5X-X9XyX>XhXhXnX9X9X1X5XyXhXhXyXyXyXyXfXyXhXfXvXnXfXyXhX9XhXyXvXhX9XyX9X5X1XhXyXhX9X&XyXvXyXhXnXnXfX9XyXhX6X9XyXhXnXyX>X5XyX-X>X&X6XhXyXhXyXhXvXVXnXnXyX9X9X5X>XyXhXhXnXnXVXnX9X-X6X5X9XhXhX>X9XVXVXnXyXnXfX5XyX>X",
"hXyXyXnXvXhXhXhXhXyX9XyXyXyXhXhXnXnXvXnXyX6X5X>X5XhXVXnXvX9XvXyXfX&X;X1XfXnXvXyXyXfXhX9XhXvXvXhX9X5XyXhXvXvXhXhXnXhXyX>X9XfX9XyX6X;XfXyXyXfXvXfX9XyXhXvXnX6X1XyX9X9X-X+X>XhXhXyX-X9XhXhXhXyX5X9X5XhXnXhXhXyXyXhX5X5XhXyXhXhXyX-X-X>X-X9XhX9XyXvXnX9X5XhX6XyXyXvX",
"9X-XhXnXhXhXnXnXvXvX9X5X9X5XyXhXfXyXyX5X6X9X9XnXyX6X9XhXnXyX>XvXnX9X1XhX9XnXVXhX>X6XhXhXhXnXnXVXnXyX6XyX9XnXnXVXvX1X5X5X-XyXnXnXyX9XvXvXyXfXhXyX9XfXvXyXyXyXhXfXyXyXyXfXvXfX6X9XhXvX6X9XyX6X5X9X9XyX6XyXvXvXyXvXfXyXyXyXyXyXnX>XyXyXVXnXnXnXvXvXvX9X1XyX9X5XfXvX",
"yXhXhX9XyXnXvX6X5XyXhX5X1X5XhXhX>XhXyX5X-X1XvXvXhXyX6X9XyX9X9XfXhXnXnXvX9X9XnXyX9XnXnXVXnXnXVXVXnXhXyXhXhXnXhXyXhXhXVXnXyXvXnX9XyXyXfXvXhXnXnXVXvXnXyXyXvXhXyXhXfX1XvXVXVXvXvXnXVXhXyXhX5X&XOXyXnXnXnXVXVXyX5X6XfXfX9X6XhXvXnX9XfX6XnXhXnXhXyXvXnXhXfXnX9X6XVXnX",
"yXhX6X5X9XfX6XyXyXvX5X5X-X5X5XfX>X5XhXhXhX5XhXnXfXhXhX9X1X9XvXhXhXhXhXhX5XhXnXhXhX9XyX9XyXnXvXhXvXvX9XyXhXhXyX1XhXnXnXnXhX9X9X6X-X5XyXhXhXnXvXnXvXvXyX9X6X9XhX6XfX>XhXhXVXnXvXVXyXyXnXnXnXfXvXnXnXvXnXhXhXhXhX6X9XfXyX1XvXhXyX9XvX5XyX9X9XhXhXyXhXnXyX5X5XyX5XvX",
"VXnX9X9XvXnXnXVXnXyXyXhXhXfXvXnXvXyXhXvXhX9X9XnXVXvXhXyXyXhXnXnXyX>X9XvXhXyXhXyX9XyXyX5X9XhX9XyXvXhXyX5XnXhXyXyXyXhX9X-X1X-X6XnXvX-X1XhX9XyXyXhXnXyX9X9X5X9XfX1X-X9XyX9XfXhXvXhXnXnXVXhXhXnXvXyXfX6X9XhXyXyXyX9XyX9X5X1XyX>XyXhXyXyXhXvXhXhXhX9XyX9X9XyXhXhX1XyX",
"yXvXvXyX9X9XfXvXfX9X6X9XnXvXnXnXhXhXyXyXhXhX6XhXVX>XhXnX9XyXyXhXyXvXyXyXhXnXhXyXnXnXhXyXyX1X9X9XfXhX9X9XhXvX1XOX9X5X9X>X9X6X-XyXnXVXnXyXyX;X@X+X-XyX9XyXhXyX9XnX9XyX5X>X-X>X9XvXnXvXvXhXyXhXfX6XyXyXyXnXnXhX9XhXvX9XyXyX1X1XyX-X>XhXnXnXVXVXnXyX9X9XyXhXhXvXyX5X",
"yXhXVXfXhXhXnXhXyXyX6X9X-X&X9XvXVXVXvXvXnXhXvXnXhX6XyX9X5X9X5XhXfXhX9XyXvXnXhX6XvXvXnXnXvXnXhXyXfX9XnXhXhXhX5X1XnXnXvXyXyX>X1X5XnXyXnXnXvXvX5X+X>X-X1X5X5X;XyXhXvXhX&X6XfX9X9XhXfXyXvXhXhXnXhXvXhXyX9XyXhXyX9X9XnXhXfXyX>X9X5X>XyXfXyXhXhXnXfX9XnXhX5XfXyXhXyXyX",
"hXvXhX9X9XhXhXvXnXyXnXvXvX5X5X1X-X5XnXVXnX9XnXhXyXhXyX>XvXvXnXVXnXvX1X;XvXnXhXyXyXhXhXhXyXhXyX;X-X>X1XhXyX6XyXnXnXnXVXnXnXyX9XfXfX9XvXvX6XhXvXnXnXhXfX9XhX;X9X9X9XyX>X9XhXhX9XhXhXhXyX9XvXyX5X5XyX5X5X9XyX5X1XyXhXyXyXyXnXnXnXhXhXyXyX9XyXyXfX5XyXhXVXnXyXyXyXyX",
"nXhXyX5X9XyX5X9XnXyXyX6XhXVX5X1X9XyXhXyXyXyXnX>XyXyXfX5X9XnXnXyXyXnX9XyXnXvXfXhXhXfXvXvXyXyXyX-X-X9X9XyXyX9X9XyXfXyXhXnXhXhX9X9X9XhXnXnX-X5XyX9XyXhXnXyXfX5X9XhXhX9XhX5XyXyXyXfXhXfXvXnXnX9X&X5X1XyXhXyX9X>X9XyXfXnXhX9XyXyXyXnXvXyXyX9X6X9X-X1X5XyXyXnXhXyX9X9X",
"yXnXyXhX5X9XhXfXhXvXyXyXhX9X9X9XvXvX>X>X5XhXhXfXhXyXnXnXfXfXnX9X9X-X5XyXnXvXnXnXyXyXhXnX5X-X9X9XhXhXhX9XyXhXfXyXyXfXvXvXvXyXvXnXnXvXvXyXyX-X;XyX9X9XfXhXyXhX5X9XhXhXhX9XyXyXyXvXyXVXVXVXhX5X6X;X+X9XhXvXhX5XvXnXvXyXhXyXyX9X9XhXvX9XyXyXyXhX-X&X>X>XyXyXfX1X5X9X",
"5X9X5X-XyXvXnX;XhXhXvXvXnXhXyX5XhXhXhXhX+X>X5XyXfXhXfXhX9XyXyXhXhX9X5XnXvXhXvXnXyXyXhXhXfXnXyX9X9XfXnX9X9XhXhXhXvXyXnXvXhXhXvXyX1XhXnXhXhX5X6XvX9XfX9X9XhXhXhXyXyXvXyX9X>X1X>XVX>XhXfXvXVXnXhX5X-XhXVXVXnXyXfXfXyXyXhX>XyX5X1X9XyXvX9XfX5X5XvXhXfX-X6XhXhX5X9XVX",
"9X9XnX9XVXnXnXvXnX9XyXnX5X>X5X1XyXyXnX5X-X9XnX9X9XyXyXyX6X1X>X5XyXvXnXyXhXhXhXyX6X6XhXnXVXyX5XyXhXyXyXvXvXnXnXnX9X9XnXyXhXhXyX5X5XyXyXyXfXyXhXhXyX9X9X1X>X9X9XyXyXyXhXhXhXfX5XyXyX9X-X5X9X9XfXhX9XhXvXfXhXfXyX5X6X+X&X9XyXhXhXfXfXyXyX1X+X6XyXnXhXyXhXnXnXhXhXhX",
"nXvXhXyXhXnX>X>XnXnXhXhX1X5XyXyXyX-X-X5XyXhXhXnXhXyXhX9XyXyXyX5XhXhXvXhXnXvXhXyX6X1XhXvX9X-X6X9XhXfX1X5XyXyXyXyXyXhXhXnXnXhXyX9X5X9XhXyXyXhXyX>X>X5X>X>X5XhX6X;XyXhXhXhXhXhXhXhXvX9X6X&X+X9X9X5X5X5XhXhX5XyXvXyXnX-X-XyXvXhXnXhXyXfXhX6X9X>X9XvXhXyXfXyXfXyX9XyX",
"nXvXyXyXyX9X>X5XhX9XhX5XhXyXfXnXhXhX+X9XfXhXhXVXnXhXfXyXVXVXhXhXhXyX6XyXnXhXyXhXnXhXyX1XOX5XyX5X6X9XhX5X5XhXyXhX5X9XfXyXvXvXvXvXhXnXnXhXhXhXhXyX>X-X5X-XyX9X9X-XyXyXyXyX5X5XyXyX1X>XnX9XyXvXyX9X+X-XyXhXyXhXVXnXnX5X5XhXvXhXyX9X9XyXhXfXvX9X9X9X5X5X-X>XfXhXhXyX",
"vXvXyXVXvX9X>XyXyX6X>X&XyXnXvX9XVXnXyX9XvXyX9XhXyXnXhXnXVXhXnXVXvXhX6X>XyXhXyX5XvXVXvXfXyXyXhX&X&X>XhXhX1X9XVXvX9XyXhXyX6X9XnXnXnXnXnXVXVXhXnXhXfX>X-X+XyXhXhX5X1X5X;XnXyX>XyXyX>X6X6XyXhXyXhXyX9X1X&X5X5XyXyXhX9XhXnX9XyXhXyXyX9X9XvXvXvXnXnXyX5XhXnXfX5X9X>X1X",
"fXhXvXhXfXnXVXnXhXfXhXhXvXyXyXyXnXnX5XhXhX5X5XfX6XyXyXyXyXyXhXvXnXnXyX9X9XyXnX5XfXnXnXyXnXnXyXOX&X9X>XfXhX9XhXvX1X5X5X-X5X5X9X;XyXyXnXVXnX6XyXyXyXyX9X9XyXhX9X9XyX6X5XyXhX5X6X-X-X5X9XhXhXyXnXVXVXvX9X6X5X5X;X1X1XyXhXhXyXhXyXnX9XyXvXvXnXVXvXhXnXhXvXyX1XyX-X6X",
"nXyXhX9XyXyX9XVXVXhXhXhXyXvXyX5XyX6X6XhXnXhXhXvXVXnXhXnXyXhX9XhXnXnXyXnXnXnXnX1X1XhXhX9X-X6X>X-X9XyX+XOX-XyXnXhX6X9XyX9X5X-X6X>X>X5X5XyXhX-X&X1X5XnXnXyX6XfXyXfXyX9X>X-X>X6X9XyXhX5XfXhXhXyXhXmXnXhXyX9XhX9X9X>XyX6X9XyX6X5XyX5X9X;XyXyXfXfX9X5XvXhX5X9X-X5X;X5X",
"hXvXfXhX9X-X>XfXvXhXnXhX9XnXfXyX>X-X1XvXVXnXhXyXhXhXVXvX-X9X>XhXn.n.n.5.,.5.5.5.5.5.5.5.;.;.;.;.;.;.` ` ;.>.,.>.;.;.;.;.,.>.>.>.;.>.>.,.>.,.p.p.,.,.p.p.,.,.p.p.p.p.p.p.p.,.>.>.>.>.>.>.>.>.>.>.;.I.yXyXyXyXyXvX>X-XhXyXyX5X5X&X>X5XyXyXhXnXnX-X6X6XyX5X&X>XyX5X",
"5XhXfXfX;X+X9X1X9XfX9X9XyXyXnXhX5X-XyXvXhXhX9XhX6X1XvXhX1XhX9XyX9.t.t.w.w.w.0.0.0.=.&.&.o.) ) =.o...../ ..=.=.=.&.&.o.o.=.0.0.=.o.=.w.w.=.0.t.w.w.w.0.w.w.w.t.s.c.u.u.u.w.0.=.=.0.0.0.0.&.=.0.&.o.3.5XyXyXhXyX9XyXfXnXfX6X1X5XyXyXhXVXVXhXvXvX9X9XyX>X6X1X>XhX9X",
"-X9XnXnX5X>XvXhX>X5XhXyXhXyXyXyXyX-XhXvXfXnXvXhXyXyX5X-X1XvXnXhX7.w.w.w.0.0.=.0.w.=.&.&.o.....w.=.) o.o...&.=.0.=.o.&.&.%.*.9.*.o.&.q.q.&.=.q.w.w.w.*.*.0.=.a.E.E.E.b.c.9.9.*.%.%.*.*.9.%.*.*.%.o.F.6XnXnXnXyX5XyXhX9X&X-XyX9XVXnXvXnXhXvX9X9XvXyXhX9X5X1X6XyXhX",
"hX6XVXhX9XnXfXyXyX9XvXhXvXnXyXhXhX-X>XhXfXnXnXvXvXvXhX9X5XhXVXhX7.w.w.w.0.0.=.0.w.0.&.&.&.o.o.w.=./ ..&.o.=.*.0.=.&.&.o.o.*.9.*.&.&.9.q.&.=.w.w.w.w.*.*.9.&.e.b.b.E.c.q.q.9.*.%.=.*.*.*.&.%.%.%.&.G.>X6X>X5X>X&X+X-X>X1X1X-X9XnXyX5XyX9XhXhXyX5X9XyXyX9XnXVXyXyX",
"VXVXVXVXVXvXhX9XyX9XhXhXnX5XhXnXhXyXfXhXyXnXnXnXnXVXnXhXVXfXnXhX#.w.w.w.0.0.=.=.w.0.=.&.o...o.9.&.) o.o.&.=.9.*.&.0.&.o.&.*.9.=.&.=.0.q.=.*.w.w.w.w.=.&.*.%.q.b.b.E.s.q.q.9.*.&.=.*.*.*.%.%.%.X.&.G.>X+X9X&X5XvX9X;XyX-X-X>X9X9XyXyX5X9XyXhXyXhX9X5XyXyXvX6X9XyX",
"nXnXyXhXvXvXyX>X-X5XvXhXhXyXyXvXhXyXhXvXyXnXnXhXhXnXnXhXVXvXyX9X#.w.t.t.0.0.=.=.w.w.=.&.......*.=.o.o.o.o.=.w.9.0.0.&.&.&.%.9.&.o.0.0.9.*.9.w.w.w.w.*.&.&.%.9.b.E.b.i.q.q.*.*.&.&.*.*.%.%.%.X.X.&.G.9X@XnX9X>XyX>X-X-X>XnXyX>X>XvXnXhXvXnXvXyX6XyX9XyXyXyX>X1XyX",
"yXnX9XyXyXfX9X-XyXhXnXhXnX9XhX6X9X9XyXhXvXyXyXfXfXvXnXvXhXhXnXyX#.t.t.t.0.=.=.0.w.t.w.=.o.) ) o.&.o.o.o.o.&.w.w.9.0.o.o.&.&.*.o.o.9.9.0.=.q.w.w.w.9.*.&.&.%.9.E.b.s.q.q.9.*.9.&.o.=.%.X.%.%.X. .o.F.yX9XvXyXyXyXhX5X;XvXVXnXhXnXvXhX9XyXhXhXhX6XfXnX9XvXhXyXhXhX",
"hXhXfX9XyX6X9XyXVXVXVXyXyX-XhXyXyXhXhXyX6X1X6XyXnXhX9XvXvXhXhXnX#.t.t.t.w.=.0.w.t.t.w.0.=...) ) o.o.o.o.o.*.w.w.9.&.....&.&.%.o.%.9.9.0.*.q.w.w.w.9.*.&.%.X.a.b.s.r.q.9.*.9.9.=.&.9.*.%.%.X. . ...F.nX9X9XyXyXhXhXyX5XyXhXvXnXhXvXvX5X9X5XfXyX-X5XnXfXfXvX9X9XhX",
"nXhXyX5X6XnXnXhXvXhX>X9X>X>XyXnXhXyXhXyXyXvXnX9X1X>X9XhXfXfXyXyX#.t.y.t.t.=.0.w.t.t.t.0.=.o./ / ) ..o.o.o.0.t.w.9.=.) ..o.&.o.X.%.0.9.w.9.q.w.w.w.9.0.&.&.%.a.i.q.q.q.*.9.9.%.=.0.9.%.%.o.X...( o.G.>X5X-X6XvX9XvXyXhXyXyXfXfX6X9X>X5XyX9X-X-X9X9X9XyXhXhXyX1XhX",
"hXnXhXyX;XfXvXhXhXhXyXfXhXyX-X5XnXVXhXhXvXnXVXyX5XnX5X9XyX5XyXnX7.y.y.t.t.w.w.t.t.y.y.w.0.o.) ) ) ) ..o.o.=.w.w.&.=.o.....o.o. .*.0.w.q.9.q.q.w.w.w.0.&.&.9.q.q.q.q.9.*.q.9.&.&.q.*.%.*...X.o...o.F.>XyXhX&X6X9X9X5XfX9XyXyXhXvXvXhXhXvXVX+X;XhX1XhXyX>X;XyXhX9X",
"yXvXhXyX>XyXnXvXhXhXfXvXvXvXnXnXnXnX>X9XyXyXhXyX5XhXyX5X-X+X>XhXq.y.y.y.w.w.t.t.t.t.y.w.0...) o.o.....o.o.&.w.0.&.&.o.) ........%.*.9.q.9.9.9.w.w.w.9.*.=.9.q.w.w.q.9.9.9.9.&.&.9.*.9.%...&.o...o.F.nXVXVX5XyXvXyX-X5X5XfXvXnXyXyXVXnXhX9X>X1XyX5X>X;X-XhXyXyX5X",
"hXyXyX6X6XhXfXhX9XyXhXhXyX5X5XyX>XyXhXhXhXfXhXhX1XhXfXyX>XyX-X1X9.y.y.y.t.w.w.t.t.t.t.w.0.o.) o.&...) ..o.&.=.0.=.&.o.) ) ....o.&.=.=.q.9.0.9.q.w.w.9.*.*.e.e.*.0.9.*.*.%.*.*.*.*.*.q.X.o.&.)  .) F.9XhXnXhXvXnXhXhXhXyX5X9XhXhXvXvX9X9XyX5X5XyXyX1X-XhXhXhXfX5X",
"VXVXvXhX9XyXvXVXyXyX9XyX9X9X>X9XyX5X9XvX9X1XyXhXhXvX9X1X>X9XvXhX7.y.t.y.t.t.w.w.t.w.t.t.0.=.o...&.o.) ) o.Q o.0.0.=.&.) ) o.o.o.&.&.&.0.0.*.w.w.#.q.0.*.x.b.0.&.=.9.*.o.o.*.*.*.*.q.9...o.) ....) F.yX9XhXhXhXyXyXfXyXyX9X>X9XhXhXfX5X5X1X9X5XhXhX9X9XvXhXyXyX5X",
"nXnXnX5X-X+XhX9X5X-X9X5X9X5XhXhXnXyX9XfX-X>X9X5XhXhX>X5X6XhXfXvX7.t.t.y.t.t.w.w.t.t.t.t.0.0.=.o.o.o.) / ..Q K 0.t.*.&.) ..&.&.o.=.&.&.0.w.=.w.w.@.7.w.*.c.a.0.&.&.*.=.o...=.*.*.q.q.*.o.....&.E ..G.hXhXhXvXvXyXyXhXyX-X>XyX>X9XyX6XyXyX5XyX5XhXnXhX5X9XnXfXhXhX",
"9X9X1X&X&X-XvX9X>X9XVXVXhXyX5XnXyX9XfXyX;X-X;X6XnX5XyX5X-X;XyX9X#.w.t.y.t.t.w.t.t.t.t.t.w.0.0.=.&.o.) / ..&.K D y.0.&.o.o.o.o.o.&.&.&.0.0.*.w.0.+.8.w.9.w.0.0.&.&.&.&.o...&.*.*.q.q.&.&.o.o.) Y o.G.hXyXyXyXvX>X;XyXyX1XnXhX>X-X9XyX9XyX9XyXyXyXnXVX9X9X6XfXhXhX",
"9X9X9X5X9XyX6XfXyXyXnXnXfX5X1X6X9X9XyXfX6X&XyXyX&X-XyXfXyX9XyX9X#.0.w.t.y.t.w.t.y.y.w.w.w.0.0.0.&.&...) ....0.y t t.=.o.o.o.o.o.&.&.&.=.=.*.9.0.@.8.t.9.9.*.0.=.&.&.......&.*.*.q.*.=.*.*.&.E ( =.G.VXVX9X5X>X6X9X5X9X9XhXvX9X1X6XhXnXyXhXfXhXvXhXnXyX9XhXhXyXfX",
"hXnXnXhXfXfXyXhXyX9XhX9XyXhXvXyXfXhXhXyXyXyXhXnX>X5X5XvXnXyXyXyX*.0.w.t.y.t.t.t.y.y.w.w.w.=.0.w.=.&...) ..o.&.t.: D t.=.&.&.o.o.&.=.&.=.=.*.9.0.@.8.t.0.9.*.9.=.o...) ) o.*.=.9.q.=.9.9.*.o.^ %.0.G.nX1X9XnXyXfX6X;XyXyXyXhXyXyXnX9XnXnXvXvXvXhXhXnXyXhXyX9XyX9X",
"yXnXnXnXVXVXVXnXhXnXvXhXyXyXhXVXyXnXVXnXnXhXhXvXfXhX9X1XhXnXhXnX#.0.w.t.y.y.t.t.y.y.y.t.w.0.w.0.&.&.o.....o.o.t.q.t @.0.&.o.&.&.=.0.=.=.=.*.0.w.7.d.i.0.0.0.w.*.o.) / ) &.*.&.9.9.0.w.*.*.....9.0.J.9X5XnXhXnXhXyXhXyXfXyX>X5X;XyXhXhXhXnXnXnXnXnXyXhXfXhXfXyX5X",
"9XvXnXnXyXnXnXhXhXhXnXvXfXhXhXyXhXVXhXnXnX9X9XvX5XyXnX5X1XyXyXnX#.w.w.t.t.t.t.t.t.y.y.t.w.w.w.0.&.o.o.o...o.o.=.y.] u =.=.o.&.&.*.9.*.=.=.0.w.w.[ !.s.0.*.9.w.&...E ^ ) ..*.=.*.*.9.9.=.o.^ X.q.w.J.yXvXnXhXyXyXvXhXhXhXhX>X5XvXyXfX9X9XyXhXvXnXvXhXhXhXvX9XfXyX",
"vXyXyXyX6XyXyXnXhXyXnXhXnXvXfXyX9XhXfXyXvXvX6X6XyXyXyXhX9XyXfXVX7.w.w.t.t.t.t.y.t.y.y.w.w.t.w.0.o.) o.o.^ / o.=.0.t.y K t.&.o.=.=.*.*.&.&.0.w.t.[ J.b.0.=.9.w.&./ T ( ) ..*.*.%.%.9.*.=.( ^ %.9.w.J.9XyXyXyX-XyXvXyXhX9X6X9XyXyXyXhXhXyX9X9X5X6X9XyXhXhXvXyXhXhX",
"vXyXnXhX5X9XhXvXyXfX9XnXvX9X9XnXvX9XyX9X1XhXvX9X9X5X9XyXyX>XyXvX7.w.t.t.t.t.q.] w.y.y.t.t.t.w.0.&.....o.Y c o.0.0.0.} t *.0.&.=.*.*.0.=.&.*.y.y.[ z.b.0.=.9.9.&.E T ......*.*.%.%.%.%.&.( ..*.9.t.J.hXyXyXhXyXnXfXyXyX9X1X9XhX9X6X5XyXvXVXnXhXhXnXyXfXhXfXvXhXyX",
"9XyXhXfXyX9XhXhX9X;X6XhXvXyX9XnXvXyXyXVXnXnXvXyXyXyXvXhXhXhX1X+X7.t.t.t.w.w.y.' F $.f.f.w.t.t.y.0.o...o./ c / 0.0.=.w.u F w.%.=.=.*.0.=.&.=.w.t.7.n.b.a.&.*.*...E T ..) ..*.=.%.%.*.%.o...o.%.9.t.J.yX9XhXhXnX9XyXnXhXyXvXhXyXhX9XyXnXvXfX9XnXnXnX9XyXhXhXhXfXyX",
"fXnXnXfX9X9XfXvXvXyX1XyXhXhX&X9XnXvXyXhXvXhX6XfXhXfXVXnXnXnXhX1X#.t.t.t.w.0.t.g.8.G D d.y.w.f.g.w.&.o.o.) M c ( w.w.&.L : w.+.0.&.0.0.0.&.=.9.t.' >.c.-.&.*.&.) E E ) ) o.*.*.%.9.q.o.....*.*.9.w.J.yXvXvXhXyX;XhXhXnXVXnXnXfXhXyXnXhXfX6X>XfXhXyXnXvXhXyX9XyX9X",
"yXvXfXhXfX9XyXyX9X9XhXhXhXyX9X6XyXfXyXhXyX5X9X5X1X9XnXyXvXnXVXvX7.t.w.t.t.w.w.y.y.t.K i +.f.f.f.0.=.=.=.&.h j ..y.y.} r = { F ] i.0.9.0.&.&.0.w.] p.w.=.&.&.o.) ^ ^ / ..&.9.*.%.*.q.*.) o.q.q.9.0.J.9XnXfX6XhX1X9X5XyXfX9X5XyXfXyX9XyXyXyXhXvXhX1XhXyXhXhX>X1X6X",
"yXhX5XnXhX9XhX6X-X>XyXVXyXyXnXyX9XfXhXnXvXfXhXvXnX5XfXyX5XhXyXhX7.w.w.w.t.y.w.t.t.w.y.@.k ] g.f.0.&.=.=.&.M f K K k r r # , p.S u.w.9.0.=.&.*.w.[ 8.0.=.&...o...^ ^ / o.9.*.*.%.9.q.9.X.*.r.q.q.w.J.1XhXhXhX9X1X+X9XhXvXyX>X6XyXhXyXyXhXyX6X9XnX9X>XyXyXvXhXnXnX",
"yXhXnXnXfXhXhX5X5X5X9XhXyXyXhXvXyXnXyXyXVXnXhX9X9X6X>XyXyXyXhXyX#.w.w.t.w.y.t.w.t.w.9.t.t.K 1.!.g.&.@.%.U k r 8 w x x m 8 ; Q.G ' f.9.9.*.=.=.w.' p.a.=.o...o.( ^ E ) %.q.*.*.%.9.q.q.9.*.q.r.q.t.J.hXhXhXhXyX5XyXyXhXnX6XfXhXhXfXvX9XyXhXvX9XyX9X5X9XyXhX9XhXhX",
"hX>XyXhX9X&X5XyXhXvXhX9XyXfXhXvXyX5XhXyXhXVXnX1X-X5X9XyXhXhXnXnX#.w.w.t.w.y.t.0.u.i.9.=.t.f.;.Z K.,.[ U x E c j j x x c 7 o W.W.t t.w.w.*.=.0.t.S 5.x.&.&.....( E E ..X.*.*.%.%.9.r.r.q.*.9.q.9.y.J.yXfXyXyXyXyXyXvXfX9X9X1XhXhXVXnXyX;X>X6X;X6X6XhXhXyXyXyX6XhX",
"yX6XfX5X-X;X>X9XfXnXnXVXVXhXyXhX5X+X>XyXyX9XyXyX9XyXnXyX1X&X5XVX7.t.w.w.w.w.t.0.i.w.w.*.0.w.f.#.Z I.b.) T 4.D.2.M b %.n 6 # H Q.e S g.0.=.9.w.o.y 3.v.&.o.......^ E ..o.&.%.X.*.q.r.r.%.9.r.q.9.w.G.nXvXhXnXhXyXhXhXvXhXhX9XfXfXVXvXvX1X&X+XOX9XvXvXfX9X5XyXyXyX",
"1XfX5XhX9X9XfXVXhX>XVXvXnXyX-X-X>X-X>XhXyXyX9X5X9X9XhXhX9X-X9XyX7.w.0.w.t.w.t.w.0.w.t.0.=.e.E.Q.h.N.N.R.4.|.MX|.[.~.k.6.V 7 : g.K - u.O.9.0.( M k 3.R.&......./ ^ ^ ..o.o.o.&.0.r.r.9.X.q.q.9.q.&.S.6XvXfXhXhX9XnXhXhXyX9XhXhXhXyX9XyX6X-X5X>X9XyXyXhXnXhXhXfXyX",
"5XfX9X9XhXhX9XyXyX-X1X6XvX6X5X5XnX;X5XhXnXhX-XyX6X9X9X5X6XvXyX5X#.w.0.0.t.t.t.i.&.0.u.w.=.-.c.{.^.^.C._.~.W.8X|.|.$XR.A 2.% e 3.c.; u -.o.*.b j e 5.6.o....... .@./ ..o.o...=.q.r.q.9.*.9.*.9.q.o.F.6XyXfXyX9X9X6XyXhX9XyXyXfX>X6XyX5X9X5X9X6XvXyXyXyXyXnXhXyXhX",
"yX9X;X&XyXhXyX&X5X>X+X>XhX9X9XyXyXfXhXyXfXhX9XfXyXnX6X-X5XyX9X5X*.w.0.0.w.t.w.y.0.0.y.w.&.0.9.i. X8X$XV.'.R.L.[.~. XP.A w 6 f /.`.$ e w.K 9.c x i 5.:.o.o...&.h.8.E ..o.....9.w.9.9.9.*.*.*.r.%...F.yX&X1X9X9X9X5X5XhXnXVXVX1X>X5XyX5XyXyX9X5XvXvXnXvXhX-X5XyXyX",
"yX9XyX9XyXhXvXfX5XhXyXhXfX>XyXvXyXhXyXyXfXyXyXyX9XvX9X5X9XhXnXvX*.w.0.0.0.w.0.e.i.w.i.w.&.=.*.+.z.[.W.[.A.1...[.[.[.4.L.B z g p.I.$ o t.e % f ) l U.W.o.o...q.d.^ / o.o...o.w.t.%.*.q.9.%.9.q.X.o.F.nX5X9X5X-XhXfX6XnXVXnXhX5X9X9X5X9XvXyX5XyXyX9XhXvXnXyXhXyXvX",
"hXnXfX&X5XvXVXVXnXhXhXvXvXyXhXnXnXvXyXyXyXhX9XyXvXnXnXyX5XnXyXhX*.w.0.0.w.w.w.e.u.y.i.0.=.&.x ~ P u 6.[.}.N.:.4.|.P.2.S.2.] K H .Xz.o P i @ # f ) $XW.&.=.,.M.R M ..o.....=.w.*. .*.r.9.%.*.*.o.&.F.VXhXhXhXvXVXVXhX5XhXnXfX5X;X5XyXhX5XhXnXhX5X>X5X9XvX;XhXhXnX",
"hXVXVXhXhXVXVXhXnXnX9X5XyXnXnXnXhXhXnXvXyXfX6XyXhX9XyXnXnXvXvXrX9.0.=.0.0.w.w.=.e.k.u.0.&.0.h f =.] I P.#X|.H.4.4.L.2.z / I D ~.*XAX= S ^ # @ j L  Xv.L I M.$.M E ...... .*. .Y ^ *.r.*.X.9.9.&.o.F.9X5XhXVXVXvXVXnXyXyXvXhX9X+X&X1X9XyX9XVXyXyXyXhXyXyXyXhX;XyX",
"yX9XvXhXhXhXvX&XfXnX9XyX9XyXyXyXnXyXvXnXhXvXnXhXnXhXhXhXyXhXVXhX*.w.=.=.w.w.w.=.=.s.s.c.<.e.R w Q v.|.[.$XVX}.1.P.D.n v  .n.N.).).oXA.' / r 7 q r  X4.8 a ;.E E / ..../ R ( c U ( %.*. .%.*.9.&.o.F.fXhXhX9XnX6XyXVXnXnXhXvXhX9XhXnXnXnXhXnXhX1XyXyXhXVXVXyX-X5X",
"hX5XhXfXhXyX5X9XyXyX6X9X9X5X5X9XyX6X9XhX6XyXnXnXvXhXhXhXhXyX6XyX7.0.=.=.0.w.t.0.&.=.e.x.6.<.&.x v 4.#X`.V.}.AXH 6.~.P.4./ ^.I.1 1 XXZ.M.L e $ 0 8 =XY.c p.a h ) / / ) E Y R v %.*.9.X. .X.%.*.%.&.G.9XnXhX>X9XvXyXyXyXvX5XyXhXyXvXVXVXvX5X1XhXfXfXhX>XyXnXnX5X5X",
"yX5X-XyXnXhX5XhX9X5XhXnXVXnXyXvXyX9XhXyX1X-XyXnXvXVXnXvXhX>X5XyX9.0.&.=.=.w.t.0.-.0.0.=.=.&.-.x.a.-.;.> 7 < )._.t Z Z.;.b  XZ.2 5 N.}.c.D e A.d 8  X].( m.> s ) / / ( E ^ v ( 0.9.q. .X.X.%.%.0.&.G.9XvXhXnXyXyXvXfXhXyXyXyX9XhX6XyXnXhXyXvXfX9X9XyX-XhXnXyXyX5X",
"yXhX6X>X5XnXnXnXnXnXVXVXVXnXfXyX9XyXyX5XfX>X5X9XvXvXvXfX>X-XfX>X9.w.=.=.=.0.w.=.=.0.0.=.=.=.=.c.6.z z C._.).XX$XB < p i i H.H V.~.n.~.y.{ A.I. .u '.A U J a > b T ^ ) ) ..Y ) *.0.%. . .9.9.*.X.o.G.9XvXnXvX9X5XvXnXVXvXhXhX9X5X5X5XhXvXnXvXvXyX>X5XhXyX5X9XyXyX",
"nXnXhXhX-XhXfX5X1XyX9XhXhXyXhXhXvXhX6X5XfXyX9XyXyXvXhX>X-X5X>X;X9.w.w.w.=.=.=.0.=.o.o.=.w.w.-.l 8 6 0 A 8X X'.].U.C S.d ` K.B./..XT.!.=.j C (.C ; Z 3.5.S.L i 2 W / / v l U Q 8.| U ~ X.q.r.X.^ ..G.yXhXhXhXyXyXhXyXnXVXnXnXvXvXyXhXyXhXfXhXyX5XyXyXnXyX-XyXyXhX",
"hXfXyXvXvX1X-X9X&X+X+X1XyXyXvXvXnXnX9X-X9XfXhXhXhXnXnXyX5XyX9X-X9.w.w.0.0.=.&.0.0...o.=.] r r f x z 9 0 V ~.P.< 4 C $ @ Q R.I.B.N.,.i.n q g oX`.C A ~. X~.I U 1 > l H N.N.` L L L L ~ =.q.%.) ..&.G.9X1XhXhXyXvXnXyXhXnXyXhXVXVXnXhXnXhXhXfXvXvXnXnXnXnX6XfX9XhX",
"6X6XyXhXnXnXnXhXnX1X9XhXfXhXyXhXhXhXhX1X1XyXhXhXhXnX9XvXvXvX5XyXq.w.w.0.=.w.0.&.&.&.;.D K p z O.u y H s R ..4._.Z.I.V.I.^.c.S.% % t u ) k S.}.W.P.].~.W.I.s 1.Y.I.1.I.'.L.:.W W :.( O.-.b.v.x.a.=.G.hX9XvXVXhXhXnX5XyXhX-X-X6XhXVXhXnXVXnXnXnXnXnXfX>X>X9XyXhXnX",
"yX;X5XhXvXnXvXyXnXyXhXnXVXnXyXvX9XhX9X9XvXVXnXnXnXhX6X9X6XhXyXyXt.f.y.0.W R ....v z z I 6.L.C & & O . - 3 Z p & o X 2 C 5 < O         * $ $ o p s a > + + $ $ > C Z Z C 4 > > 3 3 $ & 2 `.`.5 5 p C hXnXhXhXyX9XhX9XyX9XyX>X1X5X9X9XvXfXyXhXnXnXfX6X5XhXyXnXhXyX",
"9XfXfXhXvXVXnXhX9XvXhXvX9X1X-X6X9X5X>X5X>XyXnXvXhXyX1X;X>XyXhXhXH B.N.a C e ` s ; t K a a a > t t y ; e ; , , ; ; - . . @ $ $ $ 4 , t e r . X > K L K a p s N.N.z L L b g g L F u i y G G S S G D N.nXhXyX9X9XfX5X>XvX9XnX9X>XhXhXVXVXhXyX5XyXnXhX9XyXvXhXnXyXhX",
"yX5XhXhXyXfXvXyX9XVXnXyX5XyXhXhX1X5X5X5X6X>XfXyXhXhX>X-XnXhX5X-XG J 1.' [ F t i Q %.O.<.-.a.c.y.t.k.s.a.k.f.^.E...e.l $ D.a.W.^.W.H j.u.B % 5.N.3.l.f...m ..O.-.&.o.) M m ) o.) ..0.t.y.y.f.g.w.0.G.yX9X9XVXrX5XyXvXvXyXhXyXyXhXyXhXvXyXyX9XyXhXhXyX1XyXvXhXyXyX",
"fX6XyXhX9X9XvXhXVXvX5X6XVXhXnXVXyX1XyXfXhXhX1XyXhXvXyX;X9XhX9X9Xw.f.y.y.y.F ] y.e.<.) =.w.9.*.%.%.e.i.*.>.8.^.U.Y P.:.l :.O.4.{., ; j.j.: . e.| B.v.( n n ^ R ) ....)  .( R x b ( 9.r.r.r.r.9.*.=.G.9X-X&X6XnXhXhXhXvXhXnXfX9XvXhXyX9X9XyX9XyX9XhXnX9X9XfXyXyX6X",
"fXvX9X9XyXyXhXvXvX9X>X6XVX6X5X&X&XhXnX9X9XhX6X5X5X5X1XyX5XyXnXnX8.t.u.u.r.y.t.w.e.a.*.q.q.q.q.@.} *.w.*.X. .6.6.R P.:./ L ..P. X& , j.j.t + +.=.P.P.M n ) / E n E / ..R n x x Y *.w.r.r.r.q.9.*.=.G.yX-X9X-X5XyXhXhXnXnXnXnXyXyXnXhXyX5X6XyX9XnXhXhXnXvXhX>X5XfX",
"fXhXhXyXvXhX5X>XyXyX9XyX9XhX5X-X1XhXnX6X&X9X9X9XyXnX9XhXyX-X1XyXd.y.i.i.y.y.t.w.-.*.r.y.t.y.t.w.w.w.w.0.&.....O.( o./ ..L ( ~.|.X K j.i.' G #.y.5.:.^ R ..E T m m T R v c x ( ..=.w.q.r.q.9.0.%.=.G.1X1X1X1XyX5X5X1X9XyXyXhXnX9XhXhX9X5X-X6XvXyXvXnXyXyXhX5X>XyX",
"yXhXvX6X9X9XyXyXhXyXyXfXyXyX9XyXhXnXfXyX9XyXhXVXVXVX>X5X9X-X9X5Xd.f.i.t.t.y.i.e.e.y.f.y.w.w.w.w.t.t.0.9.&.o.( O.O.=.o.o.Q L a.A.- h.u.*.8.{ 8.w.:.X.R ^ E E T n m T R n E &.w.&.=.9.w.t.9.0.0.=.0.G.1X+X5X9XyXhXhX9X9XyX1X-X5X9XfX>X-X1X5XfXvX9XyXVX5X5X5X9XyXhX",
"fXyX>XyX-X6XvXnXVX5X>XnXvX6XfXhXfXyX9XyXyX9XvXnXvXVX5X>XyXyX9X5Xq.y.y.y.t.t.i.t.y.t.w.t.t.w.t.w.w.0.0.w.w.&.<.x.o.=.&.&.X.U {.(.' j.w.} %.i.=.W 2.U T E / E T T m E / ( &.&...=.0.w.t.w.w.w.9.*.0.G.yX5X6XyX-X>XnXVXVXnXhX-X5X5X9X9X;XyXyXyXvX1X5XhX9X5X9XvXnXnX",
">X-X+X>X>XnXvXnXhXyXyXhXnXvXhXyX>X1X9XnXhXfXfXyX>X9XyX5X-XyXvXhX8.y.t.y.y.t.t.y.t.w.t.y.t.t.t.t.w.0.0.0.w.=.e.<.o.&.&.=.0.U C.4 X.i.#.u Y Y h V V f Y / / T T T E ^ ) ..../ o.0.=.t.t.w.w.w.9.0.0.G.>X>XyXyX1X5X5X9XfXVXVXvXhXyX&X1X>XnXvX6XnXhXyX9X9X6XyXyXyXfX",
"-X+X-X1XyXvXVXvX9XhX>X9XVXyX9XhXOX>X1XhX6XyXhXvX6X5XyX5XfXvXnXhXd.y.t.t.t.t.t.t.y.y.y.t.w.w.w.w.0.0.w.w.w.w.a.<.) o.o.o...M * i T O.| l T h j N N h T / / E T E ^ ( ) ) / o.=.o.0.w.w.w.w.w.9.0.0.G.fX5XnXnXnXyX5X5X9XvXnXVXnXhX>X+X+X-X5XfXnXyXhXvXvXhXvXnXnXnX",
"vXhXhXhX9X5XhXnXnX9X-XyXyXyX>X>X>XhX5XyXhXvXhXhXnXVXvXhXnXhXyX9Xd.y.t.t.y.y.f.f.y.t.t.w.w.w.w.w.w.w.w.w.w.w.x.x...E ..( T T p v ) ^ n E c h c M n / / / E T / ) ../ E ) ..o.o.o.*.&.0.9.w.w.0.*.0.G.9X6XnXhXnXvXyX9X6X-X5X1X1XyXhXhX9X5X-XyXfXyXnXVXnXnXnXVXVXVX",
"9X9X5X9X9XyXyXVXhXyXyXhXhXhX>X9XvXyX1X>XhXnX9XhXvXhX9XhXvXnX1XyXq.y.y.y.y.y.f.y.t.w.w.w.w.w.w.w.t.0.0.=.=.=.&.-.&...o.) E B s E ) E T T M m / ..E / ) / E E ) o.../ E / ..o.&.( ..=.w.9.*.0.0.*.0.G.yX1XhXvX9XhXnX5X5X;X-XOX9XhXyXyXyXvX-XyXvXvXnXvXhXvXhXvXnXVX",
"yX9X-X6XyXhXyXVXnXyXhXvXfXnXyXnXfXhXyX>X9XvXyX&X>X5X9XVXVXyX>X6Xr.f.y.y.f.y.y.y.t.w.t.t.t.t.w.t.w.w.=.=.=.&.&.=.0.w.&.E ) 1.z E E / / ( E / o.../ / / ) ) ..&.=.&.&.......o...v  .y.w.=.&.=.0.=.=.G.yX9XyXyXyXyXhXhXhX9XvX-X1XfXfXyX;X1XyXfXyX9X9X5X9XyXvXnXvXnX",
"hXvX5XhXyXyXyXhXhXhXhXyX6XhXvXhXfXnXhX9X9XhXnX9X-X>X-X-X1X9X1X6Xr.y.y.y.y.f.f.y.y.t.t.t.t.t.t.t.w.w.w.w.0.=.=.=.=.=.&.) _ 1./ E / / ) ) / ........o.) ) ....o.o.o.o...) ....( o.t.t.0.=.0.0.9.=.=.G.hXvXvXvXvXvXnXnXhX6XyXyX9XyXyX9X5X9XhXhXvXyX9X5XyXfXfXyXyXyX",
"fX5XyXyXfXyXyXfXhXVXnXhXhXhXvXhXyXhXnX5XyXhXhXvXhXyXfXyX9XhXhXyXq.y.t.y.f.k.h.y.y.t.t.t.t.t.t.t.w.w.t.w.=.&.=.&.....o...` ` ..) / / ) / ^ / ) ) ..o.....) / / E E T m E E ) 0.y.t.0.0.0.0.9.9.*.=.G.nXhXfXyXhXhXvXhXyXhX;XyXyXhXyXyXhXhXyXfXyXvXnXnXVX;X+XhX9XhX",
"hX9XnXnXVXnXnXVXnXyXVXvXvXnXvXhX9X>XyXhXhXvXhXhXyXhXhXvX9X9XhXnX9.t.y.y.f.k.h.y.t.y.y.t.t.t.t.t.w.w.w.=.o.&.&.o...o.&.&.( / / ) ) ) / ..../ / ..o...) o.o.) E / / T ^ o./  .t.y.w.o.&.0.0.w.w.*.=.G.fXhXyXyXnXvXhXfXhXhX9XhXyXyXhXnXnX9XhXhX-XyXhXyXyX1XhXyXhXvX",
"yXnXvXVXhXyX9XhXhXyXhXyXhXhXnXnX>X1X5X1XhXhXvXyX9X9XyX1XyXyXyX5X9.y.y.y.f.f.y.t.t.y.t.w.0.0.0.o.&.0.0.o...o.=.=.&.=.=.%...) ..) ) ) ..o...o.&.&.&...) ) E T Y / ) ( U v ( *.t.w.&.=.0.w.w.w.0.*.=.G.yXnXyXyXVXnXhXhX9XyXhXhXhXhX9XhXVXhX9X&X+X9X1X5X9X9X9XyX9XhX",
"fXVXvXnXhX6X-X5XnX6X6XhX>X>X5X9X+X>X5X5X6XVXnX5X>X6XyXyXvXvXhX9Xq.y.t.k.m.k.f.h.i.t.t.=.=.=.&...o.=.=.&.&.=.w.0.o.&.%.| =.&...../ ..=.&.&.=.=.=.&.o.o.) / / ^ E ) ( v R %.0.w.=.=.0.w.w.t.w.=.=.=.G.9XnXnXvXnXhXnXnXyXhX5XhXnX9X9X5XyX6X&X+XyXyX-XnXhX5X9XvXyX>X",
"hX9XyXyX5X+X9XVXnXfX9X9X1X+X-X-X1X5XhXhX-XfXyXvX6XyXVXVXfXyXfXfXq.y.u.m.m.u.h.k.i.t.t.t.w.w.0.w.w.w.0.=.=.&.) ( ( .. ...=.=.o.o.=.0.0.0.=.&.&.=.=.=.=.=.&.&.o.&.=.0.w.y.w.0.0.0.0.=.0.w.t.w.0.0.=.G.hXVXnXyX5XyXnXVXhXyXfXhXnXyXhXyXfXyX9XvXhXnXyXVXhX5XvXfXnX9X",
"yX6XfXhX5X9XfXhXhXnXvXvXfX5X1XyXnXnXvXhX-X5XhXnXyX5XVXyX5X;XyXyX8.y.u.u.y.y.f.f.y.t.y.y.y.y.y.t.w.0.0.=.&. .^ ..o...) o.&.=.&.o.=.0.=.=.=.&.o.&.&.&.&.&.&.o.&.=.=.0.0.w.w.w.w.0.0.0.0.w.t.y.w.0.=.G.5XhXhXfXvXnX9X1XyXyXhXyXhXhXhXyX5XvXhXyXyXyXvXyX6X9XfXyXhXyX",
"nXvXhXvXvXvXnXVXVXvXyXvXfXfX5X>X1XhXnXyXhXyXhXhXyX9XvXhXhXyX9XyX8.y.t.t.t.y.y.y.y.t.t.t.t.t.t.w.0.0.=.=.=.=.w.t.w.=.o.o.&.=.&.o.o.o.o.=.=.o...o.o.&.=...( ..o.&.=.0.0.=.=.&.=.=.=.w.w.t.t.t.w.&.=.G.>X5XvXhX5XhX>X5XhXyXfXnXhXyXnXfX;X9XnXnX5X-X5XyXvXyXyXVXnXnX",
"hXhXvXhX9XnXnXhXhXhXfXnXvXhXvX1X;XhXnXnXhXhXyXvXhXvXhXhXhXhXhXyXq.y.t.t.t.y.y.y.w.0.w.w.w.w.0.0.0.0.0.0.0.w.w.w.w.0.0.&.o.&.o.&.&.o.o.&.=.&.&.=.0.w.w.o.) o.-.0.0.=.&...o.| P @.P P P ] } | &.&.&.F.fXyXfXhXhXhX6X9XhXyX9XyXnXhXyX9XhXvX6X5X1X9XvXnXnXyXyX1X5X6X",
"hXnXhXyX6X9X9XhXhXhX>X9XvXhXhXhX&X5XhXyX9XhXhXfXvXnXnXhX9XhXVXhXq.y.t.t.t.t.t.w.w.w.w.w.w.w.w.w.0.0.w.w.w.w.w.0.=.=.=.&.o.&.=.=.&.&.=.o.0.w.w.t.w.0.0.0.s.s.w.0.=.o.) ) o.X.| &.| ] ] ] | Q ..o.o.F.nXvXyX-XyX1X9X>X5X9X5X6XvXhX5XyX9X5X9X>X5XyXvXyX5XhXvXhXyXyX",
"5X>X9X>X5X9X>XhXyXhX9X5XhXnXnXnX5X5X9XyXyXvXnX9XhXnXvXhXhXyXyXfXw.f.y.y.t.t.w.t.t.t.t.t.t.t.t.t.w.w.t.t.t.w.w.w.w.w.0.0.0.0.w.w.0.0.0.=.w.t.0.w.0.0.0.=.0.0.0.0.=.&.&.&.o.o.&.o.&.0.w.0.=.&.o.o.o.F.hXyX1X1X9X6XyXyXhX5X9XyXnXhX9X5X9X>X>XnXhXnX5X-XyXnXvXvXyX5X",
"-X9X6XyXyX9XyXhX9XvXnXfXvXnXhXhXhXhX9XhXVXnXVXyX+X6XfXhXnX5X9X9X$.7.#.#.#.#.#.@.#.@.@.@.@.@.@.@.@.@.@.@.@.@.@.@.@.@.@.@.} } @.@.@.@.+.+.+.@.} } } @.| | ! Q | } | ! ! ! ! | ! U U ! | ! Q Q ! Q ~ K.9XyXyXhXnXfXyXhXyX1X9X9XhX-X>X-X1XyX6XvXnXhXhXvXhXhXyXyXyX9X",
"6XfXhXVXvXvXhXnXvXyXhXnXnX9XhXhXnXnXhXhXhXfXvXyXyXhXhXhXhX6X9X6X-XyXyXhXyXhXfXvX5X1XnXhXhXhXyXnXfXvX5XhXhX9X>XvXyXyX9X5X-X9XvXhX1XyXhXhXvX6XyX9XhX6X5XyXyX+X1X9XyXhXhXhXfXhXVXyX9XVX;X1XhXnXyXhXVXvXhX5X9X6XvXnX5X5XyXyX9X5XyX5X-X5XOXyX5X5XfXnXnXvX5XhXhX5X9XyX",
"fX9X6XyXhXhX9X-XhXvXnXVXvX6XyXhXvXhX5XyXhXhXhX9XhXvXhXhX6X6X9X5X6XyX9XhXvXhXhXyXhXhXhXyX9XhXnXhXfXvX6X>XvXhX-X1XnXvXfXvXrXvXhXfX&X1X6XvXVX6X5XyX9X9XyXhX>X-XyX&X-X5XnXvX6XnXfX5XvX9X9X-XfX>XnXvXvXhXhXfXyX9XyXfX&X&X&X>XyXnXnXnXyXhXhXhXyXhX9XyXhXhX9XyXhXhXnXnX",
"nXhX1X6XyXVXyX9XvXfXvXhXhXyX9XyXvXvXfXvXnXhXhXfXhXhX6X5XhXyXfXhXyX6X>XyXyXnXvXfXfXyXrX9X6XyX6XhXhXnXhXyXfXyX1X>XhXnXvXnXvXnXhX5XvXhX;XfXhXvX-X-X9XhXnXhXVXyXnXyX5X9XvXnXyXfX5X5X;XfXvX5X6X1XhXvXyXhXyXhXyXhXyXvXyX1X+X6X6XyXfXhXyXhXhX6XhXfX9X&X6XyX9XfXhXhXyXvX",
"nXVXnXhXyX5XyXhXhXyXhXvXhXvXfXhXfX5X9X5XnX6X9X1X>XfXfX9XyX9X9XyXhX>X-XyX6X9XnXVXhXfXyXyXyXnX9X9X9XhXnXnXhXnXyX9XyXyXyXvXhX9XyXhXnXfX9X5X;XyX9X-X5XhXhXfX9XhXnXnX6X9XyX9X5XhXvX5X6XhXnXyXyXyX>X9XyXyXyXnXyXyX5X5XhXyX6XyX&X9XyX5X9XyX>XyXhXhXyX5X>XhXvXvXhXvXvX9X",
"nXnXhXnXvXyX5X5X>X9XvXnXyXyX9X6XhX5XyX+X-X6XyX-X>XvXVXhXyXyX5XhXnX5XyXyXhX1X9X5XyX9XvXnXhXnXvXyX5XhXyXyX1XyXhXhXhXvXhXhXnXyXyXfXhXyX9X>X5X-X5X5XyXhXhX1X5XyXyXyXhXyXyX6X>X9X5X5XvX9XhX9XhXVX5X9XyXhXnXyX9X9X-X5XyX;X1X9X>XhXhX>X6XyXyXyXhXyXyXhXnXVXnXhXhXvXhXyX",
"hX6XvXhXfXyX9XyX9X5XhXhXvX6X-X>X>X>XnX9X&X9XnXnXyXyXnXvXyXhX9X5XhXyXyX9X9X9XyX6XvXhX9XnXyXfXhXyX9X9X6XyXvXhXhXyX-X9XyXyX9XyX9XyX>X-X5XfXyXyX>X5XyX9XyXhXyX>X;XhXnXvXnXnXyX5X6XyX9X9X>XyXhXhXhX9X>X9XhXhX5X-X1XVXnXnX>X1XnXvXnX9XfXnXhX6XyX9XvXhXVXVXnXnXvXvXhXhX",
"1XvXvXyX9XhXhX9XhXvXyXyXhX9X+XhX9XyX9XhXvXnXhX6XhXvXhXhXhXnXyX9XyX9X5X9XyXVXnX6XhXvXhXnX6XyXhXhXyX5XvXnXhXyXnX1X>XyXnXnXhX-X9X9X5XyX9XyXhXvXyXvXvX>X&XyXyXyXyXyX5XnXnXfXhXnX6X9XyXfX>X9XfXnXfXyX-X5XhXyXyXfXhXvXhXnX5X-X>X9XhXfXfX5XyXhXhX9X9XfXvXnXnXvXhXyX5X5X",
"yXnXyXhX9XvXyXvXnXvXyXhX5XyX1X5XVXhXnX9X9XVXnXhX6XyXhXfXfXvXvX9X9XyX5XyXhXvXvXvXnXvXhXyX9X6XVXnXnXnXvX6X5XvXvXyX9XyX9XVXhX>XnXhXvXhXyXVXfX1XyXvXhXyX>X&X-X6XyXfXyX6XyXyXyX9X6XhX9X9X9X9X9XfXyXyX9XhXhXhX5XyXhXyXhXfX9XfX&XOX-XyXyX6XyXvXhXvXyXvXhXhXyXhXyXhX6X&X",
"hXnX>X5XhX1X9XnXnXnXhXyXyXyX9X;XhX9XfXfXyXyXVXVX9XfXhX9XyXnXvXnXVXhXvXyXyXvXnXhXnXnXfXhXhXhXhXnXnXyXyX5XyXVXvX5X5X-X5X9XyXyXvXhXyX5XnXVXhX9XnXnXnXhXhX9XyX>X6XyXnX5XyXvXfXyXhXVXVXnX9XhXvXhXnXvXnXhXhXyXyXnXfXyXvXnXhXyX9X5X&X>X5X5XyX5XhXhXyXvXyXnXyX9XyXyXvX5X",
"9X1X&XyXyX6XyXhXhXyXyXyXfXfXyXyXfXyXfX6X5X6XhXnXyX6XvXyXvXhX9XyXyXhXhX9X9XyXhXyXyXyX5XhXhXvXhXyXhXhXnX>XyXVXhX9X5X>X6XfXhXVXhX6X9X5XyXyX9X6XhXhXhXnXyXyXvXhXhXhXnXyXyXhXyXhX9XyXyX5XhXnXnXnXhXfXnXVXnXhX5X&X1XfX-X6XfXhXhXnXhX9XvXyX9X5X9X9XhXfXhXyX5XyXvXvX6X9X",
"nXyX>XfX>X5XyXhXvXyX9XhXvXnXhXnXnXhXhXyX+XfXVXVXvXyX9X5XhX9XyXyXyXyXfXyXyXhXhXhXhXyX9XhXhXyX9X9X9XyXhX9X&X5XyXhXvXhXnXVXyX5XfXfXyXyX1X5X6XyXvXvXyXhXvXyXhXvXyXhXyXhXnXnXyXvXvX5X&X-X>XyX5X9XyXvXvXnX5XhXnXyXnXyX-X-X5X6XyXnXyXyXhXnXhXyXfX9X9X>X5XyX5X9X9X9XyXyX",
"hXhXnXnXyXnXnX9X5XfX5XyXyXyXfX9XVXVXyX9X-X9XhXhXvXvX9X9XhXhXhXyX9XhXyXhXnXyX9XyXhXhXhX9XnX>X5XhXvXnXhX5X6X5X5X9XfXhXhXnXhXyX9X9XhXhXhXyX>X9X9XhXfXvX9X>X-X9XfX9X9X9XvXnXvX5X-X-XyX9XhXVXnXyX6X5XyXvXyXhXnXhXyXVXVXyX9XyXyXyXyXhXnXvXyXhXyX5X>X9X9X6XhXhXyXhXhXfX",
">X5XyXnXyXhXyX9X9X5X9XvXhX9X9X5XhXVXnXhX;X6XyXhXhXyX6XyXnXnXfX;X9XnXyXvXvXyX5XvXhX5XnX5XhXfXyXnXhXvXnX-XyXnXnXvXnXhXhXyX6XhXfXhXvXnXnXhXyX5X6XyXyX9X>X>X5X5X9XvXnXhXyXfX5X1X1X9X9XvXhXhXVXnXvXVXVX6X9X-X&X9X-XyXnXyX9XhXnXyXyXyXnXvXhXyXyXyX5XnXfXyX9X9XvXhXhXvX",
"9X6XyXyX9XyXyX>XhXnX>XhXVXnX9XOX&XhXnXhX1XhXvXhXyX5X5XhXhXhXvX1X&XhX9XyXnXvXhX9XnX6XyX>XfXnXvXvXyX6XyX6X>XfXhXnXhX5XnX9X-XyXhXvXvXfXnXhXhX9X9X1X>X;X5X9XnXfXyXVXVXVXnXhXyXyX9XyX9XhXhXhXhX5XnXyX9X5X1X+X>XyX9X5XyX9X-X9XyX9XnX6XyX5XhX6X5XyXhXvXvXyX5X-XhXnXhXyX",
"yX5X5XyXhXnXvXhXhXvXyX>X9XyXhXhXhXhXhXhX9X6XhXfXvXvXnXhXyX9XhXyX9X6X1X6XhX>XhXyX9X5X9X9X>XnXhXfXyXyXyXyXhX6X5XhX5X>XhX5X@X1XyX9X9X>X5XhXhX9X5XyXyX9XhXnXhXfX5X5XyXVXnX5X9XvX-X6X6XhXhXfX6X5XnX-X&XyXyXyXfXyXhXfXyX1X6XyX&XyXvX6XyXhXhX9XyX9X&X>XhXhXfX9XvXvXhXhX",
"5XyXhXvXnXnX9XhXhX9X5X&X9XvXnXnXhXnXvXnXvXhXyXfXyXyXhXvXhX9X9XyX1X9XhXhXnX1XfXvXhXhXhXhXhXvXvXnXfXvXhX5X9X>X9XhX9X-X9X6XvXhX5X6X1X6X5XyXyXyX9XhXhX&XyXhXhXfX5X5X9XfX9X-X1X>X5XnXnXvXfXyX>X5XhX5X5X5XhXnX6XhXhXyXhXhXnXyX9XfXhXhXvXhXhXhXhX+X@X&X9XfX1XyXyXyXyXfX",
"hXnXnXvXVXfX+X5X9X-X+X1XhXhX9XhX9XyXnXVXvXhXvXhXfXfXVXhXnXhX5XyXyX5XfXyXhXvXhXyXhXhX9X9XyXyXnXvX9X1X9X9X-X&X-X-X>X9X9XyXfXyX9XfXyXhX>XyXvXfXyXhXhX>X5XyXyX5XyXyXyX9X5X>X5X9XhXyXfXyXyX5X9X9XyX>X5XhXyX9X9XfXyXyXhXvXVXyXvXnXhXvXyXyXyXyXfXyX-X+X9XhX6X9XyXyXhXyX",
"yX9XyXhXvX-X&X1XyXyXyX&X-X1XyXyX6X5XhXyXhX5X5X6X5X5XyXyXyXyXhXfXhXvXfXyXhXyXyXyXvXfXnXnX>XhXvXvXyXhX>X5X9X;X>X-X9XhXnXyX9XyXhX6XfX9X1X&X&X9XhXhXhXyX6XvXfX9X9XyXhX6XyXhXhXnXyX9X9XyX&X+X>X5XyXyXhXnXyXyX1XyXhX9XyXnXVXnXnXnXnXvXVXhXvXhXyX5X>XyXnXhXfXyXyXhXhXhX",
"9X-X6XyX6X5XhXhX6XyXyX1X9X1X9X6X1X9XvX9XhX9X1X1X-XnXhX5XyXvXfXfXyX5XfXhXhX5X>XyXnXhXvX9X>XnXnXnXhXhXhX9X9XyX5X5X>XyXnXvXyXhXhXhXyX9X9X5X-XyXhXyXyXfXhXhXhXyX>X&X5X9XhXyXyXvXhXvXvXyX9X9XfXyXhX9X5XfXyXyXnXnXfXhXVXnXhX9XyXhXyX9XnXvXnXVXnXhXhXvXhXnXhXyXfXyXfXhX",
"hXyX9XyXyX>X5X1X>X6XhXvXyXyXhXhXyXvXyXyXyXyX9XyX9XnXnX5XyXvXyX9XvXyX-X-X9X6XyX9XyX9X9X>XyXhXhXvXhXnXhXhXvXnXyX5XhX5X9X-X5XyX9X9X9X9XhX6X>X9X9XyXyXhXhXhXfXyXnX9X>X9XyXyXyXvXhXfXvXfXyX9XhXnXvXyX9X6XyXyXnXnXvXhXvXhX6X5X>X5XhXhXyXhXhXnX9XyXVXnXhXyXfXyXhXyXyXhX",
"VXnXVXnXyX5X5X5X9XyXhX9XyXhXhXhXfXyXhX5X9X5XyX6X9X9XhXnXhXvXvX9X>X5X-X&X5XyXvXyX6XyXvXhXhXvXhXhXhXyX9XyXhXVXnXhXyXyX5X5XyXhX9XyXyX9X9X9XnXvXvXhXhXyXhXhX9X5XVXvXnXVXVXnXyXhXfX6XfXyXnXyXyXnXhX9X5X9XvXyXyXhXhXhXvXvX9X5X&X9X9XfX9X&XvX>X-XyX9X5XnXyXyXhXfXhXyXhX",
"hX9X1X9X5X9X+XyXfX9XhX>X6XhX6XyX-X&XyXnXnXnX9X9X1X5XvXhXyXhXnXhX6X>X5X+X1XyXyXyXyX9XyX5X9XfXnXvXhX1XhXyXyXfXvXyXhXyXyXnXvXhX6X6XvXvX6X-XnXVX>X>XvXnX9XyXhXhXvX9XhXnXnXnXhX5X5X9XyX&XfXhXVXnXhXhXhXyXhX6X5X9X9X+X5XnXyX5X;XhX5XhXyX9XyX5X-X9XhX>XvXhXfXyX9XyX9XhX",
"hX9XyXhXvXvXyXnXyXyXhX9X-X9X-XhX9XvXhXvXnXvXhXVXhX9X9XhX9XyX6XyXnXhXyX&X9XfX6X5XhX9X9X5X9XhXvX9X1X1XyXyXyXvXvXyXyXyX9XvXnXnXhXfXyXyX5X5XyX5X>XhXvXyX;XhXvXVXhXhXyXyXyXnXVXnXhXnXyX;XyX5X5XyXfXyXnXhXhX1XvX9X1X1XvXnXhXhX9XhX9XvXvXvXyXhXhX6XhXyXhXhXyXyX6XvXhXyX",
"hXhXvXvXnXhXyXfX9XvXvXvX>X1X>XyX9X9XhXvXyXyXnXnXvXyXhXyXyXnXhXhXnXVXnXfX5X>X-XyXnXfXhX9X9XyXhXvX5XhXhXyXyX6X&X-X-X+X>XfXhXhXyXhXnXnX5X6XyX5XfXvXhXhXnXvXyXfXyXhXvXfX6X1X9XnXvXhX6X9XnXhXvX9X9XvXyXyXnXyXhXyXyXnXnXvXnXnXfXyX9XhX1XyXhXhX5X9XhXnXnXnXvXyX1XvXVXnX",
"yXyXyX5XhXvX5X9XvXnXnXhXyX5X1X5X5X9XyXyX9X-X9XnXnXnXhXyX6XhXVXnXhXyXyXhXyX9XyXyXyX-X5XnXyXyXhXyX9XhXhXyXhX5X6XyX1X>X9XhXhX5XhXhXvXhXyX6XvXyX9X5X5X6XyXhXhX5XyXnXVXhX5X-X>XyXyXyX1XyXyXvXnXyXyX9X1XyXhX9XyXyXhXvXfXhXnXhXhXhXyXyX6XfX6X>XyXnXhXvXVXnXnXyX5XhXvXhX",
"yXyXyX9XhXhXhXhXyXhXnXnX9X+XyXyXhXyX1X9XyX6X5XyXyXhX6X9XyXhXhXnXyX9XvXnXhX1XhXhX>X+X6XvX9X5XhXyXyXhXyXyX5X5XhXnXnXhXhXVX9X>XhXyX>XhXhXyXfXyX9X5X1XyX+XyXnXyXyXhX9X5XhX9XyX5X9X9X5X9X5X6XhXnXyX5X9XyXnX5XfXhXhXyXhXnXyXyXvXyXhXhXvXhX5X>XhXvXnXVXVXnXyXvXfXyXyX9X",
"vXnXyXyXyX5XyXnXhXvXnXhX5X5XvXhXhXyX1X1X;X9XfXvXnXvXnXyX9X9X9X5X9XfXhXnXvXyX&XyXhXyXyXyXyX9X>X5X5X5XhX5X5X9X9X9XfXhXnXnXfX1XyXyXvX9XhXhX9XyX5XvX9XhXvXnXhXyXyXnX5X>XyXyXnXhXhXfX+X9XyX1X1XyXyXhXyX-XyXyXvXVXhXfXyXyX9XhXhXyXyXvXhXhXnXhX9XyXyXfXyXhXyXhXnXhX9X5X",
"fXyXyXyXyX5XyXhX5X5XyX>X>XhXVXnXVX6X6XyXvXnXvXnXnXvXnXyXyX>X9X5XyX6XhXvXyXyXyX6XyX5XyX5X>X5XOX;X>XyXyXhXVXhX9X+X-XhXvXhXvXhXvXhXvX1X5X;X;X-X9XhXnXvXyXyXhXvXnXvXyXyX5XfXyX9XfXhX5XhX5X9XyXnXyXyXvXhX9XfXnX5X>XhXhXhXyXfXhXyXyXhXhXhXnXvXVXhXyXhXyX>XyXfXfXhX5X>X",
"hXvXnXVXyXyXyXyXyXyX9XyX>XVXVXhXnX>X1XyX9XyXhXhXvXnXhXvXVXhXvXfXyX9X6XyXvXyX9XhXnXyXhX5X-X9XyXhXnXnXhXnXVXvXyXyX>XhX9X9XfXyXyXyXyX9XvXhXVXVXhX5X9XyX9X9XyXfX9X9XyXvX9XfX9XyXyXvXvXvXyX9XyXhXvXhXyXvXyXhXnX-X9XyXnXvXvXnXvXyXVXvXhXhXhXfXyXvXhXVXnXyXhXhXfX5X5X1X",
"hXnXvXVX9X-XnXvXhXvXnXyX9XyX9X9X9XhX9XhX9XfXhXyXhXhXhXyXVXvXyXnXyXfXyXyXyX9X9XvXnXnXnX9X1XyX6X&X9XyX>X9XvXvXvXVX5X9XfX5X>X5X5XyXhX1X>XnXnXyXnX6X>XhXhXyX>X-XyXfXhXyXnXhXhX9X9X9X9X9XyXhXvX1X>XyXyX9XyX9X9XyX5XvX9X6XyXyXVX5XyX5XyX6XyX5X&X5X6XvXhXyXvXhX1X5X9X9X",
"hXhXyXhXnX>XyXvXyXhXfX>X>XfX9XyXhXhXhXyX5X>XhXyX5XhXyX5XhXyXyXyXhXhXVXvXvXhXhXyXvXhXhX9X5XyX9X5XyXnX&X-X5XyXfXvXyX1XvXyX9XhXhXyXhXyX5XhX9X1XyXyXyXyXvXnXvX9XhXyX1XyXyXhXhXnXVXvX6X;XyXyX5XhXhXyXhXhXhXvXhXhX9XyXhXyX6X5XhX5X-XhXnXnXyX5XhXyX-X5X9X9XyX6X&XhXhXvX",
"yXvXhXfX9X5XyXfX6XyX5X>X5X5X>X9XhXyXyXyX+X5XvXnXnXfX6X9X6X1X9X5X6XhXhXyXyXyX9XfXnXnXhXhXnXnXVXVXnXvX9XyX9XyXnXhXfX6XvXnXnXnXyXyXyXhXhXfX5X>X9XyXvX>X-XfXnXhXhXhX9XyX9XyX9XhXnXhXyX9XhXyX&X6X6X9X5X1X9XhXhXhXyXhXvXhX6XyXyXyXhX9X5XhX1XnXVXhX1X9X9XyXvXhX6XhXVXVX",
"vXnXVXVXhXnXyXyXnXhXvX>X>X9XyXyXhXyX5X-X>X9XyXyXhX9XyX6X9XfXyX9X9X9XhX6X9X9XyXhXnXvXyX&X>XvXhXhXfXhXyXyXnXnXvXnXhX5XnXhXnXyXvXfXnXvXhXnXvXnXnXnXvXhX+X1XVXhX9XyXyXvXfXhX9X9X9X9XhXhXnXvXyXyXfXhXyX-XyXfXhXyXyXhXnXnXnXvXyXnXhXnXhXyX&XvXvX9XyXVXnXnXnXnXnXvXhXhX",
"yXyXyXhXhXyXhXhXnXVXVXhXhXyX9XyX9XvXnXhXvXvXhX9XfXvXhXyXyXnXnXhXyX1XfXvXhX1X9XyXhXyXvX5X9XhX5XfXhXyX1XyX9XyXyXyX5X5XyXyX9X;XhX9XvXyXvXnXVXnXnXhXnX6X+XhXhXfX;X9X6XhXfXnX9XyXhX5X5XhXvXnXVXnXVXnXVXnXfXVXnXyXhXyXhXvXnXvXnXnXvXhXnXhX>X>XhXyXfXnXnXVXVXnXnXvXhX9X",
"hX9X1X9X9X9XnX5XhXvXyX5X1XhXfXyXyXhXhXhXnXVXnXvXVXVXvX5XyXvXnXVXvXyX9XnXVXnXvX6XyXyXfXvXnXfXhXhXhXfXyXyXhX9X9X5X9X5XyXyX-X5X>X-X9XhXhX6XnXvXyXyXvXyXnXhXhXyX9X-X6XhXyXvXvXhXyX9X5X>XyX9XfXyXyXyXyXyXyXhXhX9XyXyXhX5X5XhXfXhXvXhXnXhXhX9X9XyXhXhXfXnXnXvXvXfXyXhX",
"vXhX5X1X1XyXyXyXyXyX9XhXvXhXhXnXvXnXvXfXhXnXnXvXnXvX5XhXvXyXyX9XyXfXnXnXvXnXhXvXyXhXyX5XhXfXfXvXhXnXnXyX9X9X9X-X6X5X6XyX5XvXOX&X5XyX9X>X>X-X>X1X9XnXhXhXnXhXnXvXyX5XyX9XyXhXfXyXhXhXyXyXyX9XyXhXhXvXvXhX9X5X6XvXhX9XhXyX>XyXnXnXnXVXVXnX6X9XyXvX6XhXhXyXnXfX1X5X",
"vX5X>X9X;X5XhX>X-XfXhXhXnX6XhXfXhXvXnX1XhXnXnXfXhXyXnXnXhXyXyXyXyXyXyX1X>XyXyXvXfXhXfXhX9XyX9X9XyXhXhXyX9XvXvXfX&X-XvXvX9XyX9X6X>X;X5XhXhX6X&X&X-XyXvXhXyX5XfXhXnXhXnXyXnXnXvXnXvXVXhXyXyX9XhXnXnXvXnXvXhXhXhX6X9XyX1X5XyXyXfXfXhXhXhXyXfXyXvXvXhXhXfX9XhXhXyX>X",
"yXnXVXnXnXyXyXyX9XyXnXnXnXhXvXnXnXhXvXhXhXhXnXyXyXnXvXnXnXnXVXnXnXnXhX9X9XyXyXhX6XhXnXnXnX9XyX6X5XyXfXyX9XvXVXVXnXhXvXvXnXnXvXhX9X9X-X9XvXVXnXhX-XyXhX5X-X6X5XhXnXfXyXhXvXyXyXyXfXhX5X;X9XhXyXVXnXvXnXvXhXhXhX>XyXVXyX-XhXnXnXnXnXhXhXyXhXyXfXhX9XhXnXnXnXfX9XyX"
};
