/* XPM */
static char * EA_xpm[] = {
"64 64 73 1",
" 	c #9C9C9C",
".	c #9A9A9A",
"+	c #232323",
"@	c #383838",
"#	c #686868",
"$	c #242424",
"%	c #656565",
"&	c #595959",
"*	c #4D4D4D",
"=	c #272727",
"-	c #525252",
";	c #989898",
">	c #313131",
",	c #828282",
"'	c #6B6B6B",
")	c #404040",
"!	c #9B9B9B",
"~	c #929292",
"{	c #777777",
"]	c #5D5D5D",
"^	c #2F2F2F",
"/	c #979797",
"(	c #888888",
"_	c #717171",
":	c #5F5F5F",
"<	c #6A6A6A",
"[	c #4B4B4B",
"}	c #555555",
"|	c #909090",
"1	c #7E7E7E",
"2	c #393939",
"3	c #343434",
"4	c #5B5B5B",
"5	c #858585",
"6	c #999999",
"7	c #868686",
"8	c #878787",
"9	c #585858",
"0	c #727272",
"a	c #484848",
"b	c #939393",
"c	c #535353",
"d	c #959595",
"e	c #2A2A2A",
"f	c #7C7C7C",
"g	c #919191",
"h	c #646464",
"i	c #373737",
"j	c #3F3F3F",
"k	c #6F6F6F",
"l	c #8D8D8D",
"m	c #707070",
"n	c #616161",
"o	c #545454",
"p	c #767676",
"q	c #676767",
"r	c #949494",
"s	c #838383",
"t	c #626262",
"u	c #424242",
"v	c #8C8C8C",
"w	c #787878",
"x	c #8B8B8B",
"y	c #5E5E5E",
"z	c #515151",
"A	c #6D6D6D",
"B	c #818181",
"C	c #353535",
"D	c #2D2D2D",
"E	c #323232",
"F	c #696969",
"G	c #575757",
"H	c #7F7F7F",
" ............. ........................  .......................",
".++++++++++++++++++++++++++++++++++++++++++++++++++++++++++++++.",
".++++++++++++++++++++++++++++++++++++++++++++++++++++++++++++++.",
".++++++++++++++++++++++++++++++++++++++++++++++++++++++++++++++.",
".++++++++++++++++++++++++++++++++++++++++++++++++++++++++++++++.",
".++++++++++++++++++++++++++++++++++++++++++++++++++++++++++++++.",
".++++++++++++++++++++++++++++++++++++++++++++++++++++++++++++++.",
".++++++++++++++++++++++++++++++++++++++++++++++++++++++++++++++.",
".++++++++++++++++++++++++++++++++++++++++++++++++++++++++++++++.",
".++++++++++++++++++++++++++++++++++++++++++++++++++++++++++++++.",
".++++++++++++++++++++++++++++++++++++++++++++++++++++++++++++++.",
".++++++++++++++++++++++++++++++++++++++++++++++++++++++++++++++.",
".++++++++++++++++++++++++++++++++++++++++++++++++++++++++++++++.",
".++++++++++++++++++++++++++++++++++++++++++++++++++++++++++++++.",
".++++++++++++++++++++++++++++++++++++++++++++++++++++++++++++++.",
".++++++++++++++++++++++++++++++++++++++++++++++++++++++++++++++.",
".++++++++++++++++++++++++++++++++++++++++++++++++++++++++++++++.",
".++++++++++++++++++++++++++++++++++++++++++++++++++++++++++++++.",
" ++++++++@##################$++++++++++%######&++++++++++++++++.",
".++++++++*                  =+++++++++-       ;>+++++++++++++++.",
".++++++++*                  =+++++++++,        '+++++++++++++++.",
".++++++++*                  =++++++++)!        ~$++++++++++++++.",
".++++++++*                  =++++++++{          ]++++++++++++++.",
".++++++++*                  =+++++++^/          (++++++++++++++.",
".++++++++*       _::::::::::$+++++++<            [+++++++++++++.",
".++++++++*       }++++++++++++++++++|            1+++++++++++++.",
".++++++++*       ]222222223++++++++4      56     .2++++++++++++.",
".++++++++*                7++++++++8      91      0++++++++++++ ",
".++++++++*                7+++++++a      b$c      de+++++++++++.",
".++++++++*                7+++++++f      0++g      h+++++++++++.",
".++++++++*                7++++++i6     !j++k      l+++++++++++.",
".++++++++*                7++++++m      gnnn'       o++++++++++.",
".++++++++*       pqqqqqqqq&+++++=r                  s++++++++++.",
".++++++++*       }++++++++++++++t                   !u+++++++++.",
".++++++++*       }++++++++++++++v                    w+++++++++.",
".++++++++*       x5555555555y++z                     ;>++++++++.",
".++++++++*                  A++B                      '++++++++.",
".++++++++*                  A+j!      mjjjjjjjjv      ~$+++++++.",
".++++++++*                  A+p      .C++++++++#       ]+++++++.",
".++++++++*                  AD/      B+++++++++E6      (+++++++.",
".++++++++*                  AF       G++++++++++H       [++++++.",
".++++++++++++++++++++++++++++++++++++++++++++++++++++++++++++++.",
".++++++++++++++++++++++++++++++++++++++++++++++++++++++++++++++.",
".++++++++++++++++++++++++++++++++++++++++++++++++++++++++++++++.",
".++++++++++++++++++++++++++++++++++++++++++++++++++++++++++++++.",
".++++++++++++++++++++++++++++++++++++++++++++++++++++++++++++++ ",
".++++++++++++++++++++++++++++++++++++++++++++++++++++++++++++++ ",
".++++++++++++++++++++++++++++++++++++++++++++++++++++++++++++++ ",
".++++++++++++++++++++++++++++++++++++++++++++++++++++++++++++++ ",
".++++++++++++++++++++++++++++++++++++++++++++++++++++++++++++++ ",
".++++++++++++++++++++++++++++++++++++++++++++++++++++++++++++++ ",
".++++++++++++++++++++++++++++++++++++++++++++++++++++++++++++++ ",
".++++++++++++++++++++++++++++++++++++++++++++++++++++++++++++++ ",
".++++++++++++++++++++++++++++++++++++++++++++++++++++++++++++++ ",
".++++++++++++++++++++++++++++++++++++++++++++++++++++++++++++++.",
".++++++++++++++++++++++++++++++++++++++++++++++++++++++++++++++.",
".++++++++++++++++++++++++++++++++++++++++++++++++++++++++++++++.",
".++++++++++++++++++++++++++++++++++++++++++++++++++++++++++++++.",
".++++++++++++++++++++++++++++++++++++++++++++++++++++++++++++++.",
".++++++++++++++++++++++++++++++++++++++++++++++++++++++++++++++.",
".++++++++++++++++++++++++++++++++++++++++++++++++++++++++++++++.",
".++++++++++++++++++++++++++++++++++++++++++++++++++++++++++++++.",
" ++++++++++++++++++++++++++++++++++++++++++++++++++++++++++++++.",
" ................     .................     ................... "};
