/* XPM */
static char *_5fbe6f475c54bf2db466071ee5048de8dl9NMF1SHKl2Gy5[] = {
/* columns rows colors chars-per-pixel */
"128 128 246 2 ",
"   c #171A1E",
".  c #1A1A1A",
"X  c #202429",
"o  c #2C2C2C",
"O  c #25282B",
"+  c #272B30",
"@  c #2A2D31",
"#  c #2C3034",
"$  c #2F3338",
"%  c #32363A",
"&  c #373B3F",
"*  c #333537",
"=  c #3D4F6B",
"-  c #37445D",
";  c #494949",
":  c #444444",
">  c gray35",
",  c #455469",
"<  c #485A75",
"1  c #575C6B",
"2  c #5D616B",
"3  c #546276",
"4  c #6D6D6D",
"5  c #666766",
"6  c #646B73",
"7  c #6C7276",
"8  c #757B7B",
"9  c #7C7D7B",
"0  c #777874",
"q  c #73746C",
"w  c #323B4A",
"e  c #837E78",
"r  c #7A846A",
"t  c #7D8379",
"y  c #8A9366",
"u  c #84827D",
"i  c #8A847D",
"p  c #848A7C",
"a  c #898C79",
"s  c #8C9378",
"d  c #939C74",
"f  c #96997B",
"g  c #919371",
"h  c #B79372",
"j  c #9CA66D",
"k  c #9BA37B",
"l  c #9AA776",
"z  c #9FB272",
"x  c #A3AC73",
"c  c #A6A979",
"v  c #B7AC7C",
"b  c #A8B476",
"n  c #B9B978",
"m  c #A5B06C",
"M  c #9CAC5D",
"N  c #C79D7B",
"B  c #D09E76",
"V  c #CDA77D",
"C  c #BDC35B",
"Z  c #596E89",
"A  c #6B7A88",
"S  c #737F86",
"D  c #667C98",
"F  c #727E92",
"G  c #798386",
"H  c #6C829A",
"J  c #778798",
"K  c #7F9692",
"L  c #6C85A1",
"P  c #768BA3",
"I  c #7D98AE",
"U  c #7D9EBA",
"Y  c #7C99B3",
"T  c #7EA1BC",
"R  c #8B8C83",
"E  c #8B8B8B",
"W  c #848985",
"Q  c #928E88",
"!  c #8D9287",
"~  c #949284",
"^  c #94928B",
"/  c #9A958C",
"(  c #9C9A8D",
")  c #9A9984",
"_  c #8B9596",
"`  c #959595",
"'  c #9C9B94",
"]  c #9B9D9B",
"[  c #979997",
"{  c #838D94",
"}  c #A49A8A",
"|  c #A29D94",
" . c #A49E99",
".. c #B59E8E",
"X. c #99A486",
"o. c #9BA299",
"O. c #9BB084",
"+. c #A6A886",
"@. c #ADB282",
"#. c #B8B688",
"$. c #A5A195",
"%. c #A4A29B",
"&. c #AAA59B",
"*. c #ACA89D",
"=. c #A8A696",
"-. c #B5AA99",
";. c #B9B496",
":. c #B3AA8B",
">. c #879AA8",
",. c #959DA4",
"<. c #819EB8",
"1. c #8996AA",
"2. c #A29EA0",
"3. c #8EA0AE",
"4. c #93A2AC",
"5. c #99A3A5",
"6. c #83A3BC",
"7. c #8AA6BC",
"8. c #8CA9BD",
"9. c #8AA5B7",
"0. c #93AABD",
"q. c #99A8B8",
"w. c #A2A2A2",
"e. c #ADAAA4",
"r. c #A9A9A7",
"t. c #B3ACA2",
"y. c #B5AEA7",
"u. c #BCB3A4",
"i. c #B9B4AA",
"p. c #A3ADB9",
"a. c #A8B3B7",
"s. c #B6BEBE",
"d. c #B8B7B6",
"f. c #ABB2A7",
"g. c #CCAA8B",
"h. c #C9A587",
"j. c #D5AB87",
"k. c #D1AD92",
"l. c #C8B89A",
"z. c #D5B495",
"x. c #CBB38E",
"c. c #E7BC94",
"v. c #C7B9A8",
"b. c #D4BEA8",
"n. c #C7BDB3",
"m. c #C6ADA0",
"M. c #D1AE95",
"N. c #CEC792",
"B. c #E6C298",
"V. c #CDC4A6",
"C. c #D7C5A8",
"Z. c #CBC3B7",
"A. c #D3C5BB",
"S. c #D5CABD",
"D. c #D9C8B6",
"F. c #DCD3B1",
"G. c #E6D5B9",
"H. c #E6CCAE",
"J. c #EDE4BB",
"K. c #84A5C2",
"L. c #8BA5C1",
"P. c #8DAAC3",
"I. c #88ABC8",
"U. c #91A7C1",
"Y. c #93AAC3",
"T. c #9BADC2",
"R. c #93AEC9",
"E. c #97B4C9",
"W. c #8EB9D7",
"Q. c #93BAD6",
"!. c #9ABDD4",
"~. c #93BCD9",
"^. c #9ABED9",
"/. c #91B7D5",
"(. c #8DB1C7",
"). c #A1AFC2",
"_. c #A5B5C7",
"`. c #B2BCCB",
"'. c #B1BDD0",
"]. c #8DBFE3",
"[. c #9DC1D6",
"{. c #9DC1DA",
"}. c #95C1DC",
"|. c #BDC4C5",
" X c #BFC5CC",
".X c #A3C2D4",
"XX c #ABC4D4",
"oX c #A3C4DB",
"OX c #ABC7DA",
"+X c #B4C9D8",
"@X c #B6D1DD",
"#X c #B9D3DF",
"$X c #ABC0CF",
"%X c #95C5E4",
"&X c #8EC1E2",
"*X c #A8CDE5",
"=X c #ACD1E6",
"-X c #BBD5E3",
";X c #B1CCE0",
":X c #C9CBC9",
">X c #D9CDC3",
",X c #D9D6C8",
"<X c #CED2D2",
"1X c #C7D3DC",
"2X c #D3D3D3",
"3X c #D6DADA",
"4X c #DADDDD",
"5X c #D6D8D3",
"6X c #C8CECF",
"7X c #E7D8C9",
"8X c #E6DFD5",
"9X c #DEE1D5",
"0X c #E6E4DA",
"qX c #F6E7D5",
"wX c #C5DCE5",
"eX c #CCDBE5",
"rX c #CADEEA",
"tX c #D3DCE6",
"yX c #D9DFE6",
"uX c #CDE2E9",
"iX c #DEE1E1",
"pX c #D3E4ED",
"aX c #DCE6EC",
"sX c #D8E7ED",
"dX c #DCECF2",
"fX c #D4E6F2",
"gX c #E2E6E6",
"hX c #E6EAEA",
"jX c #EAEDED",
"kX c #E8E8E8",
"lX c #F3ECE6",
"zX c #E2EDF4",
"xX c #EAEEF0",
"cX c #E4F2F6",
"vX c #EDF1F1",
"bX c #E9F6F9",
"nX c #EEF9FB",
"mX c #E7F5F8",
"MX c #F2F5F5",
"NX c #F3F4F5",
"BX c #F3FDFE",
"VX c #F2FDFE",
"CX c #F3FDFE",
"ZX c #F6F4F3",
"AX c #F7F3E9",
"SX c #B8C487",
/* pixels */
"jXjXjXiXiXiXgXvXjXhXvXMXvXjX4XiXgXhXhXjXhXjXvXvXvXvXhXjXvXjXjXhXjXgXvXjXvXhXhXjXjXvXvXvXvX4XiXvXgXjXhXhXgXhXgXjXMXhXhXgXgXiXjXvXjXvXgX<X4X3XjXhXgXhXMXMXvXiX4XjXjXjXhXhXjXhXhXjXhXiXhXjXiXgXvXhXiXhXMXMXjXhXjXhXjXvXvXvXjXjXvXjXgXvXMXMXMXhXhXMXhXhXjXjXjXjXjXjX",
"hXgXgX4XiXgXvXvXhXgXhXjXvXgX4X<X4XjXvXjXjXMXMXMXhXhXjXhXvXgXiXgXhXvXMXjXvXjXgXgX4XgXhXgXjXjXiXjXiXiX4XhXjX4XiXjXMXhX4XgXvXjXvXgX4XjXjXgXgXjXgX4XiXhXjXjXvXjXjXvXjXjXjXhXgXgXiXgXhX3XiXgX4X4XhXgXgXjXhXhXgXjXvXjXjXjXjXhX4XgXvXjXjXhXjXhXgX4XjXjXjXjXgXjXvXvXvXhX",
"gX4XjXjXiXjXvXvXvXjXhXgXjXgXjX<X3XjXjXjXvXvXvXhXvXvXvXgXhXhXgXhXjXvXMXvXjXjX4X2X4XiXhXvXMXhX4XgX4XgXgXiX3XiXhX4XgXjXgXjXhXhXjXgXjXvX4X3XMXvXjXvXvXjXvXjXvXjXjXjXjXjXgXhXiXvXjXhX3XiXhXgXgXgXhXiXjXjXjX3XgXhXiXjXgXgXgXgX4XgXvXjXvXhXhXjXMXMXvXvXvXMXvXvXhXhXgXhX",
"iXjXCXMXvXjXjXMXvXgXgX2XgXgXjXvXgXgXgXjXvXhXgXiXjXjXjXMXjXjXhXhXjXgXhXvXvXhXgXhXhXMXMXvXvXjXgXgXjXiX3XjX3XgX4XiXiXvXgX3X4XhXgXgXjXvXgXhXhXhXhXiXgXjXjXgXgXhXvXjXhXhXhXgXjXjXjXjXjXjXgXhXjXhXgXgXhXhXjXhXgXiX3XgXgXhXhXvXvXhXjXhXhXjXjXjXMXvXhXhXhXjXhXjXjXhXjXjX",
"gXjXvXjXjXvXhXgXvXhX2XgXiXgXjXvXvXjXhXhX4X4X2XgXhXhXgXgXjXhXgXgXgXhXvXhXjXjXhXhXhXvXvXgXiXhXiX<X3XiXiXhXgXgXhXjXgXgXhX2X2X3XgXhXgXjXjXgXgXjXvXgXgXhXjXhXhXjXvXjXjXhXgXgXhXjXjXiXiXjXgXhXjXhXgXgXjXgXiXhXjXiXvXhX3X4XgXjXhXgXjXjXhXhXjXvXvXjXvXvXjXgXjXhXMXhXgXgX",
"vXvXjXjXhXgXgXhXiXvXjXgXhXhXjXjXvXvXMXhXhXgXgXgXgX3X2X3XgXgXhXgXhXhXgXvXhXgXjXjXgXiXjXgXhXjXhXhXgXgXhX4XhXiXjXjXhXgXgX3XjXhXiXjXhXgXgXjXjXjXjXvXjXhXiXjXjXvXjXgXjXhXjXhXjXhXhXhXjXhXiXvXjXhXhXjXvXhXgXjXiXhXhXjXgXgXjXvXjXjXjX3XgXjXhXhXvXvXjXMXMXvXvXMXvXjXgX4X",
"vXvXjXjXjXvXjXjXiXhXvXhXiXjXvXjXvXvXjXjXgX4XgXgX3XgXhX4XjXjXvXhXgX4XgXhXjXjXhXhXhXhXjXhXjXjXvXvXjXhXjXgXjXhXjXjXhXhXgXiXiXjXhXjXgX2XgXvXhXjXvXMXjXgXhXjXgXhXhXjXMXhX4XgXhX3X4X2XgXjXgXjXhXjXvXMXvXvXhXgXgXgX4XhXjXjXvXMXMXMXgX3XgXiXhXjXvX4XgXMXMXvXhXvXjXiXhX4X",
"jXhXhXMXvXjXjXjXjXhXgXhXhXhXjXjXvXMXvXvXhXgXgX4XiXvXMXvXvXgXvXhXjX2X3XiXjXvXvXgXhXjXjXgXjXvXvXjXgXgXhXjXvXvXjXjXvXvXhX4XhXjXgXhXiX3XjXhXhXjXvXjXgXhXjXjXMXgXiXhXgXgX3X<X4XjXjXhX2XgXjXjXjXhXgXgXgXjXvXjXjXhXhXjXiXgXjXhXjXjXhX3X3X4X3XgXjXgXhXjXvXgXiXjXgXhXhXvX",
"gX3XjXMXjXjXvXvXvXvXgXiXgXgXhXjXjXhXhXgXgXgXgXvXhXgXgXjXvXhX4XvXvXgXiXjXgXvXMXjX4XiXjXjXjXvXMXMXvXhXgXhXgXvXvXMXvXiXiXgX3XhXMXvXhXgXvXvXhXjXjXhXgXjXvXhXjXhXjXjXjXhXhXjXvXjXgXgXjXvXgXgXjXgXiXhXgXhXiXhXvXjXhXjXjXhXhXhXhXhXMX4XjXhXMXMXMXvXjXvXvXgXiXhXgXgXjXvX",
"hXjXvXgXhXvXjXgXiX9 E E E E E E E E E E E E E E E E E E E E E E E E E E E E E E E E E E E E E E E E E E E E E E E E E E E E E E E E E E E E E E E E E E E E E E E E E E E E E E E E E E E E E E E E E E E E E E E E E E E E E E E E E E 9 4XhXvXvXjXjXMXgXgXMXvX",
"hXjXgXgXgXjXgXhXhXE & ; ; ; ; ; ; ; ; ; ; ; ; ; ; ; ; ; ; ; ; ; ; ; ; ; ; ; ; ; ; ; ; ; ; ; ; ; ; ; ; ; ; ; ; ; ; ; ; ; ; ; ; ; ; ; ; ; ; ; ; ; ; ; ; ; ; ; ; ; ; ; ; ; ; ; ; ; ; ; ; ; ; ; ; ; ; ; ; ; ; ; ; ; ; ; ; ; ; ; ; ; ; ; ; ; E 2XjXhXjXMXhXgXiXhXiXvX",
"MXvXhXgXvXvXvXMXvXE ; O o o o o o o o o o o o o o o o o o o o o o o o o o o o o o o o o o o o o o o o o o o o o o o o o o o o o o o o o o o o o o o o o o o o o o o o o o o o o o o o o o o o o o o o o o o o o o o o o o o o o o o # 5 ` 2XjXgXhXgXgXhXjXjXiXhX",
"hXjXjXhXgXhXjXvXjXE ; o . . . . . . . . . . . . . . . . . . . . . . . . . . . . . . . . . . . . . . . . . . . . . . . . . . . . . . . . . . . . . . . . . . . . . . . . . . . . . . . . . . . . . . . . . . . . . . . . . . . . . X : 4 ` 2XvXhXgXgXhXjXjXvXhXiX",
"hXjXMXjXvXjXMXjXgXE ; o . X X X X X X X X X X X X X X X X X X X X X X X X X X X X X X X X X X X X X X X X X X X X X X X X X X X X X X X X X X X X X X X X X X X X X X X X X X X X X X X X X X X X X X X X X X X X X X X X X X X X X ; 4 ` 2XjXgXMXjXgXjXhXjXhXhX",
"jXvXjXgXgXjXjXvXvXE ; o . X X X X X X X X X X X X X X X X X X X X X X X X X X X X X X X X X X X X X X X X X X X X X X X X X X X X X X X X X X X X X X X X X X X X X X X X X X X X X X X X X X X X X X X X X X X X X X X X X X X X X ; 4 ` 2XjXgXhXjXMXvXgXhXhXhX",
"vXjXhXgXhXhXiXgXvXE ; o . X X X X X X X X X X X X X X X X X X X X X X X X X X X X X X X X X X X X X X X X X X X X X X X X X X X X X X X X X X X X X X X X X X X X X X X X X X X X X X X X X X X X X X X X X X X X X X X X X X X X X ; 4 ` 2X3X4XgXhXhXvXjXhXgXgX",
"hXvXhXjXiXgXjXjXjXE ; o . X X X E ] ~ 9 s.s.s.i i i s.s.s.i i i s.s.s.i i u s.s.s.u e e s.s.s.e u u s.s.s.u u u s.s.s.e 9             w s.s.s., 1 1 s.s.s.2 2 2 s.s.s.2 2 2 s.s.s.6 6 6 s.s.s.6 6 6 s.s.s.7 7 7 s.s.s.0 0 9 d.E O O ; 4 ` 2X3X2X4X4XhXhXjXiXgXgX",
"iXgXgX3XjXvXMX3XjXE ; o . X X X d.ZX8XCXBX*.BXBX&.BXBX%.BXBX%.BXBX%.BXBX&.BXBX| BXBX' BXBX] BXBX .BXBX .BXBX .BXBX%.BXBX .X X X X X X BXBX7 BXBXu.BXBXv.BXBXu.BXBXi.BXBXy.BXBXe.BXBXe.BXBXy.BXBXy.BXBXy.BXBXi.BXBXi.BXBXi.MXZXe.+ + ; 4 ` 2XvXjXjX3XgXjXjXiXgXMX",
"gXgXvXgXMXMXvXvXMXE ; o . X X X s.NXZXMX%.*.*.BXBXBX$.$.$.BXBXBX| | %.BXBXBX| | | BXBXBX/ ' ' BXBXBX| | | BXBXBX . .| BXBXX X X X X X BX- A y.BXBXBXt.t.t.BXBXBXe.w.w.BXBXBX2.2.,.nXBXBXw.w.w.BXBXBXw.w.r.BXBXBXp.p.a.CXMXZXiX_ $ + ; 4 ` 2XhXMXjXhXjXMXMXjXvXvX",
"MXvXjXhXjXvX4X4XvXE ; o . X X X s.CXiXZXMXr.BXBXw.BXBX5.BXBX] BXBX] BXBX5.nXBX] BXBX] BXBX] BXBX,.BXBX,.BXBX,.BXBX5.BXBX4.X X X X X X BXBXZ BXBXE.BXBX!.BXBX!.BXBXE.BXBXE.BXBXR.mXBXR.BXBXR.BXBXR.BXBX/.BXBX~.BXBX}.CXMXzXNXCXY % $ ; 4 ` 2XgXvXjXhXjXgXjXjXgXhX",
"vXjXhXhXhXgX4XiXjXE ; o . X X X s._ d.4XZXMXCXY.0.7.dXBXBX7.7.7.BXBXBX7.6.6.BXBXBX6.L.K.BXBXBXK.K.K.BXBXBXK.K.K.BXBXBXK.W.X X X X X X , BXBXBX%X%X&XBXBXBX&X&X&XBXBXBX&X&X&XBXBXBX].&X&XBXBXBX~.&X&XBXBXBX~.~.}.BXCXMXzXfX%XBX|.% $ ; 4 ` 2XgXgXiXiX3X4XjXjXjXhX",
"vXvXhXCXvXhX4XhXhXE ; o . X X X s.BXa.CXNXhXMXCXP.-XwXK.BXBX6.BXBXK.BXBX6.BXBXK.BXBXK.BXBXK.BXBXK.BXBXK.BXBXK.BXBXK.BXBX<.X X X X X X BXBXD nXuX%XBXBX}.BXBX~.BXBX~.BXBX~.BXBX~.BXBXW.BXBX~.BXBX~.BXBXW.BXBX~.BXCXfXZXMX{.BXBXY % $ ; 4 ` 2XvXhXiXjXvXjXiXgX4XiX",
"jXjXvXjXjXMXMXMXjXE ; o . X X X s.BXBXBXq.pXhXMXCXuX6.8.7.BXuXnX7.7.7.BXBXBX7.6.6.BXBXBX6.6.6.BXBXBX6.K.T mXBXBX7.6.I.BXBXX X X X X X BX= D /.mXBXBX%X~.~.BXBXBX~.W.W.BXBXBXW.W.~.BXBXBX~.~.~.BXBXBX~.~.~.BXBXcXpXzXfXCXBXBX%XY % $ ; 4 ` 2XvXjXMXvXvXhXiXhX3XgX",
"MXhXjXgXhXhXgXMXMXE ; o . X X X s.BXa.BXBXE.NXZXtXCXBX7.BXBX7.BXBX7.BXBX6.BXBX6.BXBX7.BXBX6.BXBX6.BXBX7.@XuX7.BXuXI.BXBX!.X X X X X X BXBXD BXBXI BXBX%XBXBX~.BXBXW.BXBX~.BXBX~.BXBX~.BXBX~.BXBX~.BXBX~.BXBX~.pXxXfXCXBX~.BXBXI % $ ; 4 ` 2XgXiXvXjXgXgX3XiX3XgX",
"jXjXjXvXgX3X4XjXvXE ; o . X X X s._ p.5.BXBXCXtXaXeXCXBXBX6.6.6.BXBXBX6.6.6.BXBXBX<.6.U BXBXBXT T 6.BXBX-XT 6.6.BXBXBXE.%XX X X X X X < BXBXBXK.I.I BXBXBX~.~.~.BXBXBX~.~.~.cXdXBX~./.~.BXBXBXW.W.W.BXBXBX~.pXzXMXCXBX~.~.}.BX|.% $ ; 4 ` 2XvX3XgXgXgXgX2X4XhXiX",
"iXjXjXjX3X<XgX4XgXE ; o . X X X s.BXp.BXBX(.BXCXeXZXMXP.BXBX7.BXVX6.BXBXT BXBXT BXBX6.BXBXT BXBX6.BXBXK.VXBX6.BXBXF BXBXW.X X X X X X BXBXD BXBXK.BXBXH BXBXW.@XmX/.BXBX~.BXnXW.BXBX/.BXBXW.BXBX~.BXBX~.CXMXzXMXCX~.BXBX~.BXBXY % $ ; 4 ` 2XvXgXgXhX4XgX4X4XjXgX",
"3XgXvXvXiX4XvXvX4XE ; o . X X X s.BXBXBX4.Y.P.BXCXNXaXeX7.BXBXnXU 6.T BXBXBXU U T BXBXBXU U T BXBXBXT T U BXBXBXJ !.%XBXBXX X X X X X BX, D (.BXBXBXI.Y H BXcX@XW.~.~.BXBXBX~.~.~.BXBXBX~.~.~.BXBXBX/.~.pXZXMXCX~.~.~.BXBXBX{.I % # ; 4 ` 2XgXvXhXjXgXiX4XgXhXjX",
"jXgXMXjXhXvXjXhXhXE ; o . X X X s.BXq.BXBXP.BXBX7.CXNXaXMXCX6.mX@XT BXBX<.BXBXU BXBXT BXBXU BXBXT BXBXT BXBXP BXBX%XBXBX~.X X X X X X BXBXD BXBXK.BXBXI.BXBX/.pXVX~.BXBX~.BXBX~.BXBX/.BXBX~.BXBX~.BXCXpXZXMX~.BXBX~.BXBX~.BXBX>.% # ; 4 ` 2XhXiXgXhXhXgXvXCXhXhX",
"MXMXMXMXMXvXjXgXhXE ; o . X X X s.>.q.,.BXBXBX7.8.7.rXNXZXeX8.6.pXnXBX6.6.6.BXBXBX6.T U BXBXBX6.6.6.BXBXBXP F E.BXBXBX/.~.X X X X X X 3 BXBXBXI.K.K.BXBXBXY D /.BXBXBX~.~.~.BXBXBX~./.~.BXBXBX/./.^.MXZXMX^.~./.BXBXBX~.~.~.BX|.% $ ; 4 ` 2XhXjXgXiXhXhXjXgXgXhX",
"vXMXhXvXvXvXhX4X3XE ; o . X X X s.BX4.BXBXP.BXBX7.BXcX7.NXZXeXCXBXT BXBXT BXBXU BXBXU BXBXU BXBX6.BXBXI.BXBX!.BXBX~.BXBX~.X X X X X X BXBXH BXBX6.BXBX6.BXBXY BXBX*XBXBX~.BXBX~.BXBX/.BXBXQ.BXBX^.MXZXpXCXBX/.pXBX~.BXBX~.BXBXI % # ; 4 ` 2XhXgXjXgXhXhXhX4XiXhX",
"jXvXhXhXhXjXgX3XgXE ; o . X X X s.BXBXBX>.(.P.BXBXBX6.6.P.NXZXMX7.T T BXBXBXU T U BXBXBXT U T BXmXBXI.L F BXBXBXW./.W.BXBXX X X X X X BX1 H I.BXBXnX6.<.L.BXBXBXD (.*XBXBXBXQ.~.~.BXBXBX~.~.~.CXMXZXpX^.!.BXBXBX~.~.~.BXBXBX{.I % $ ; 4 ` 2XjXgXjXvXgXvXjXhXjXjX",
"jXjXjXgXgXgXgXhXMXE ; o . X X X s.BX4.BXBXP.BXBX6.BXBX6.BXCXeXZXMX7.BXBXU BXBXU BXBXU BXBXU BXnXU BXBXF BXBX~.BXpXW.BXBX}.X X X X X X BXdXL BXBXL.VXcX6.BXBX6.BXBXD BXBX^.BXBX~.BXBX/.BXBX/.CXMXzXMXCX/.BXBX/.BXBX~.BXBX~.BXBXI % $ ; 4 ` 2XhX3XiXMXjXjXvXgXgXjX",
"vXjXhXgXgXvXvXjXvXE ; o . X X X s.>.4.>.BXBXBX7.6.6.BXBXBXU 7.eXZXMXcXT U T BXBXBXU U U BXBXBXU I.L BXBXBX~.~./.BXBXBX~.~.X X X X X X 3 BXBXBXL.L.L.BXBXBX6.6.6.BXBXBXI.=X^.BXBXBX~.Q.~.BXcXaXzXpX^.BXBXBX/.Q.~.BXBXBX~.~.~.BX|.% $ ; 4 ` 2X3XgXgXgXhXjXjXgXiXjX",
"jXvXjXjX3XjXvXjXvXE ; o . X X X s.BX4.BXBXY.BXBX6.BXBX6.BXBX6.CXNXaX1XnXT BXBX6.BXBXU BXBXU BXBXL BXBX%XBXBX/.BXBX~.BXBX~.X X X X X X BXBXD BXBXL.BXBXL.BXBXK.pXBXI.BXBXP.BXBX^.BXBX~.BXCX@X+XMX{.BXBXQ.BXBX~.BXBX~.BXmX~.BXBXI % $ ; 4 ` 2X3XjXiXjXhX4X3XjXjXgX",
"jXvXjXhX4XhXMXvXjXE ; o . X X X s.BXBXBX>.R.8.BXBXBX6.6.6.BXBXBX7.eXaXMXCXBX<.6.<.BXBXBX6.6.P.BXBXBX%X/.Q.BXBXBX~.^.^.BXBXX X X X X X BX, D R.BXBXBX7.L.L.BXBXdX6.K.I.BXBXBX*X/.^.BXBXCXpXwXOXCXBXBXQ.Q.Q.BXBXBX~.~.^.wXBXBX{.>.% $ ; 4 ` 2XiXhXiX4X3X3XjXhXjXgX",
"jXgXjXgXgXjXjXjXgXE ; o . X X X s.BX4.BXBXP.BXBX6.BXBX6.BXBX6.BXBX7.NXZXeXCXBX6.BXBXU BXBXI.BXBX!.BXBX/.BXBX~.BXBX~.BXBX~.X X X X X X BXBXD BXBXL.BXBXL.BXBXK.BXBXL.BXBX6.BXBX*XBXBX^.MXZXpXnXBX~.BXBXQ.BXBX^.BXBX~.BXBX}.BXBX>.% $ ; 4 ` 2XiXjXhXiX3XjXjXjXjXgX",
"MXMXvXjXgXhXvXMXhXE ; o . X X X s.3.4.>.BXBXBX8.7.6.BXBXBX6.6.6.BXBXCXeXaXeXCXBXBX6.T K.BXBXBX^.%X/.BXBXBX~.!./.BXBXBX!.^.X X X X X X Z BXBXBXP.L.L.BXBXBX6.6.K.BXBXBX6.I.6.BXBXBXoXfXzXMXCXBX~.^.^.BXBXBX~.^.^.BXBXBX^.{.{.BX|.% $ ; 4 ` 2XiXjXjXgXgXvXjXhXhXgX",
"vXvXvXiX3X<XvXhXiXE ; o . X X X s.BX3.BXBX(.BXBX6.BXBX6.BXBX6.BXBXU BXCXeXZXMXL.BXBX6.BXBXJ BXBXQ.BXBX!.cXnX~.BXBX~.BXBX{.X X X X X X @XnXD BXBXL.BXBXL.BXBXL.BXBXL.BXBXL.BXBXD CXNXzXMXCX^.BXBX^.BXBX^.BXBX~.BXBX^.BXBX^.BXBXI % $ ; 4 ` 2XiXjXMXvXiXgXvXjXvXjX",
"gXgX4X2X2X3XvXgX4XE ; o . X X X s.BXBXBX9.(.8.BXBXBX6.6.6.BXBXBX6.U 6.BXCXNXaXeX7.BXBXBXJ {.}.BXBXBX/.~.I.pXBXBX~.~.~.BXBXX X X X X X @X, H E.BXBXBXP.L.L.BXBXBXL.L.L.BXBXBXP.Y.6XZXMXCX^.^.^.BXBXBX^.^.{.BXBXBX{.{.{.BXBXBX*X>.% # ; 4 ` 2XgXhXvXMXgXgXgXjXvXjX",
"gXgXgXgXgXhXgXjXhXE ; o . X X X s.BX3.BXBX(.BXBX7.BXBX6.BXBX6.BXBX6.BXBX6.CXNXaXMXCXH BXBX%XBXBX!.BXBX!.#XpX~.BXBX^.BXBX{.X X X X X X mXBXL BXBXP.BXBXL.BXBXL.BXBXL.BXBXL.BXCXtXZXMX7.BXBX^.BXBX^.BXBX^.BXBX{.BXBX{.BXBX{.BXBX>.% # ; 4 ` 2XjXvXjXMXjXhXjXjXhXjX",
"vXvXMXjXjXjXhXjXhXE ; o . X X X s.4.3.>.BXBXBX8.7.6.BXBXBX6.6.6.BXBXBX<.6.6.CXNXZX6XJ {.BXBXBX/.!.~.BXBXmX!.~.~.BXBXBX^.{.X X X X X X < BXBXBXP.L.P.BXBXBX6.L.L.BXBXBXL.L.Y.NXZXMXY.H U BXBXBX^.{.{.BXBXBX{.{.{.BXBXBX{.{.{.BX|.% $ ; 4 ` 2XvXjXjXvXhXjXhXgXhXgX",
"jXMXMXMXMXCXMXMXjXE ; o . X X X s.BX3.BXBX(.BXBX6.BXBX6.BXBX6.BXBX6.BXBX7.mXcX(.NXZXdXCXBX!.BXBX!.BXBX}.BXBX^.BXBX{.BXBX{.X X X X X X BXBXL BXBXP.BXBXL.cX@X7.BXBXL.BXBXY.NXZXtXCXBXY.BXBX=XBXBX.XBXBX^.BXBX{.BXBX^.BXBX{.BXBX>.% # ; 4 ` 2XvXvXMXhXjXjXjXjXhXiX",
"gXvXvXvXhXvXMXjXjXE ; o . X X X s.BXBXBX9.(.8.BXzXBX6.6.6.BXBXBX6.6.6.BXBXuXT H >.NXZXMX{.!.!.BXBXBX!.{.{.BXBXBX{.{.{.BXBXX X X X X X BX= L E.BXBXBXL.L.L.@XcXBX7.L.7.CXNXZXtXY.L.BXBXBXH Y =XBXBXBX^.^..XBXBXBX^.{.oXBXBXBXoX>.% $ ; 4 ` 2XvXvXvXjXjXjXvXgXjXhX",
"vXhXhXhXgXhXhXvXjXE ; o . X X X s.BX3.BXBXE.BXBX8.BXBX7.BXBX6.BXBX6.BXBXK.uX-XJ BXCXpXZXMX[.BXBX!.BXnX!.BXBX!.BXBX^.BXBX[.X X X X X X BXBXL nXBXY.BXBXY.BXnXL.BXBXY.CXNXhXMXnXL.BXBXY.BXBXL BXBX*XBXBXoXBXBXoXBXBXoXBXBXoXBXBX>.% $ ; 4 ` 2XiXgXhXhXjXjXvXhXvXjX",
"jXhXvXjXgXgXjXvXhXE ; o . X X X s.q.3.>.BXBXBX8.8.8.BXBXBX6.6.6.BXBXBX7.P.H mXBXBX!.!.pXZXMXCX!.!.!.wXBXBX!.!.{.BXBXBX{.[.X X X X X X < BXnXwXY.Y.Y.BXBXBXU.L.Y.BXCXNXaXtXY.nXpXBXL.Y.7.BXBXBXI =X*XBXBXBXoXoXoXBXBXBXoXoXoXBX|.% $ ; 4 ` 2XjXvXvXhXjXvXjXvXvXhX",
"gXhXjXjXhXgXjXjXgXE ; o . X X X s.BX4.BXBXE.BXBX8.BXBX7.BXBX6.dXBX9.BXBXD BXBX{.BXBX!.CXaXrXMXCX[.BXnX{.BXBX{.BXBX.XBXBXoXX X X X X X BXBXL VXBXY.BXBXY.BXBXU.BXCXyXZXMXT.BXBXU.BXBXY.BXBXR.BXBXP BXBX{.BXBXoXBXBX.XBXBXoXBXBX>.% $ ; 4 ` 2XMXvXvXgXjXvXjXjXjXjX",
"jXMXvXjXgXgXjXvXvXE ; o . X X X s.BXBXBX0.E.0.BXBXBX7.7.7.BXnXdX7.P.P.BXBXBX{.!.!.BXBXBX.XpXzXMXCXBX{.{.!.BXBXdX!.[.{.BXBXX X X X X X BX= L _.BXBXBXY.Y.Y.BXBXCXtXhXtXCXBXBXU.U.U.BXBXBXY.Y.P.BXBXBX=X=XoXBXBXBXoX.XoXBXBXBXOX>.% $ ; 4 ` 2XjXjXhXvXjXjXhXgXhXgX",
"jXvXjXjXjXgXhXhXgXE ; o . X X X s.BX3.BXBXE.BXBX8.BXBX8.BXBX7.BXBXP.BXBX*XBXBX!.BXBX!.BXBX[.NXZXpXCXBX[.BXBX!.cXmX!.BXBX.XX X X X X X BXBXL BXBXY.BXBXU.BXBXY.NXZXtXCXBXU.BXBXU.BXBXU.BXBXP.BXBXE.BXBX=XBXBXOXBXBXoXBXBXoXBXBX3.% $ ; 4 ` 2XvXjX4XjXgXjXjX4XiXgX",
"hXjXiXvXjXgXjXgX3XE ; o . X X X s.q.3.>.BXBXBX8.8.8.BXBXBX7.7.P.BXBXBX=XoX[.BXBXBX[.[.[.BXBXCXsXzXpXCXBXBX{.[.oXBXBXcX!.oXX X X X X X < BXBXBXT.Y.Y.BXBXBXT.tXhXMXCXBX0.Y.Y.BXBXBXU.Y.U.BXBXBXL.Y.E.BXnXdX=XoXoXBXBXBXoXoXOXBX|.% $ ; 4 ` 2XgXMXgX4XhXhXvXjXvXvX",
"hXjXvXMXjXjXjXiXiXE ; o . X X X s.BX4.BXBXE.BXBX0.BXBX7.BXBXY.BXBX>.BXBX[.BXBX.XBXBX[.BXBX[.BXCXsXZXMXoXBXBX{.BXBX.XwX-XoXX X X X X X BXBXL BXBXT.BXBXY.dXNXhXNXCXY.BXBXY.BXBXY.BXBXY.BXBXY.VXwXY.BXBXP dXBX=XBXBXoXBXBXOXBXBX3.% $ ; 4 ` 2XgXhXgXiXgXjXjXgXjXjX",
"jX4XhXjXhX2XiXhXjXE ; o . X X X s.BXBXBX0.E.T.BXBXBX8.8.8.BXBXBX>.=X{.BXBXBX[..X[.BXBXBX.X[..XBXCXNXzXsXoXBXBXBXoXoX/.wXBXX X X X X X BX= L _.BXBXBXY.T.1XZXMXCX0.Y.Y.BXBXBX0.Y.Y.BXBXBXY.Y.Y.@XdXBXY.E.1.BXBXBXOXOXOXBXBXBX;X3.% # ; 4 ` 2X3XiXgXjXvXhXgXhXgXjX",
"hXgXjXgX3X3X4XgXjXE ; o . X X X s.BX4.BXBXE.BXBX0.BXBX0.BXBXA BXBX!.nXBX!.BXBX[.BXBX.XBXBX[.BXBXoXCXNXzXMXCX.XBXBX.XVXnXXXX X X X X X BXBXL BXBXT.BXCXyXZXMXT.BXBXT.BXBXT.BXBXY.BXBXT.BXdXT.VXwXY.BXBXT.BXBXH BXBXOXBXBXOXBXBX4.% # ; 4 ` 2X:XgXvXvXjXgXiXhXhXjX",
"iXjXiXjXgXgXjXMXjXE ; o . X X X s.a.4.>.BXBXBX0.0.0.BXBXBXA 3.=XBXdXnX.X[..XBXBXBX.X.X.XBXBXBX.X.X.XCXNXZXsXoXoXBXBXBXXXXXX X X X X X < BXBXnXY.T._.NXZXNXT.T.T.VXBXBX0.T.T.BXBXBX0.Y.Y.pXVXBXY.T.T.BXBXBX_.1.H BXpXmX+X+X+XBX|.% $ ; 4 ` 2X4XgXhXhXjXMXjXjXjXhX",
"iXjXgXgXjXjXgXhXjXE ; o . X X X s.BX4.BXBXE.BXBX0.BXBX0.BXBX=XBXBX.XBXBX.XBXBX.XBXBX.XBXBX.XBXBX.XBXBXOXhXvXaXCXBXXXBXBXXXX X X X X X BXBXP nXdX_.NXZXyXCXBXT.BXpXT.BXBXT.BXBXT.BXBXT.BXBXT.BXBXT.BXBXT.BXBX_.BXnX(.pXBX+XBXBX4.% $ ; 4 ` 2XiXjXhXhXhXhXvXjXhXjX",
"hXgX3X2XhXjXhX2XgXE ; o . X X X s.BXBXBXq.E.T.BXBXBX0.H 4.BXCXmX.X.X.XBXBXBXXXXX.XBXBXBXXXXXXXBXBXBXOXXX.XjXZXMX+XOXOXBXBXX X X X X X BX= P `.CXNXZXyX_.).BXBXBXT.T.T.BXBXBXT.Y.T.BXBXBXT.T.T.BXBXBXT.).).BXBXBX3.P _.BXBXBX@X4.% $ ; 4 ` 2XiXjXvXvXvXvX3XiXjXhX",
"hXhXhXgXhXjXvXjXgXE ; o . X X X s.BX5.BXBXT.BXBXE.BXnX9.BXBX/.#XBX.XBXBX.XBXBXXXBXBX.XdXBX.XBXBXXXBXBXXXBXCXaXZXMX+XBXBXXXX X X X X X BXBXJ CXMXjXMXCXq.BXBXq.BXBXT.BXBXT.BXBX0.BXBXT.BXBXT.BXBXT.BXBX).BXBXT.BXBX4.BXBXrXBXBX4.% $ ; 4 ` 2XgXhXgXjXvXMXhXjXhXvX",
"jXvXjX2XiXvXMXCXMXE ; o . X X X s.a.5.>.BXBXBX_.9.A BXBXBXXXE.(.BXBXBXXXXXXXBXBXBXXXXXE.BXBXBXXXXXXXBXBXBXXX+XaXZXMXbX.X+XX X X X X X < BXCXMXjXyX_.BXBXBXq.q.).BXBXBXq.q.).BXBXBXT.T.).BXBXBX).).).dXBXBXT.)._.BXBXBXJ $XrXBX|.% $ ; 4 ` 2XjXiX4XiXgXvX3XjXjXvX",
"jXMXMXjXjXMXMXjXvXE ; o . X X X s.BX5.BXBXT.BXBXS BXBXXXBXBX.XcXBXXXBXBX.XnXBXXXBXBXXXBXBXXXBXBXXXBXBXXXBXBXOXCXNXvXxXdX+XX X X X X X BXCX1XZXMX_.BXBXp.BXBXp.BXBXp.BXBXp.BXBXp.BXBXq.BXBX).BXBX).BXpX).BXpX).BXBX).BXBXJ BXBX5.% $ ; 4 ` 2XhXhXjXjXhXhXhXjX3XhX",
"hXgXvXjXjXjXvX2XjXE ; o . X X X s.BXrXnX_._.4.BXBXBXXXXXXXBXBXBXXXXXXXBXdXcXXXXXXXBXBXBXXXXXXXBXBXBXXXXXXXBXBXBX+XhXvXMXCXX X X X X X CX`.iXaXcXBXBX`.`.'.BXBXBX`.`.`.BXBXBX`.`.`.BXBXBX`.`.'.BXBXBX`.'. XBXBXBX'.'.+XBXBXBX+Xa.% # ; 4 ` 2XvXiXhXhXjXMXMXhX3XgX",
"jXgXjXjXjXhXiXgXhXE ; o . X X X s.BX_ BXBXq.BXBX-XBXBXXXBXBXXXBXBXXXBXBXXXBXBXXXBXBXXXBXBX+XBXBX+XBXBX+XBXBX+XBXBX+XNXZXhXX X X X X X NXZX XzXcXJ BXBXJ BXBXJ BXBXJ BXBXP BXBX{ BXBX1.BXBX1.BXBX1.BXBX,.BXBX4.BXBXq.BXBXf.BXBX{ % # ; 4 ` 2XjXjXjXjX4XhXMXMXgXiX",
"hXgX3XhXvXjXiXvXgXE ; o . X X X s.:Xo.5.BXBXBXdXwXwXBXBXBXwXwXwXBXBXBXwXwXwXBXBXBXwXwXwXBXBXBXwXeXrXBXBXBXrXeXeXBXBXCXvXMXX X X X X X ZXMXCXBX= = = BXBXBX, , , BXBXBX, , , BXBXBX, , , BXBXBX, , , BXBXBX< < < BXBXBX3 3 3 BX|.% $ ; 4 ` 2XjXgXhXjX3XjXvXhXhXiX",
"jXjXiX4XgXvXMXMXvXE ; o . X X X   X X X X X X X X X X X X X X X X X X X X X X X X X X X X X X X X X X X X X X X X X X X X X X X X X X X X X X X X X X X X X X X X X X X X X X X X X X X X X X X X X X X X X X X X X X X X X $ + % $ ; 4 ` 2XjXhX4XiXjXhXgXgXhXhX",
"vXvXjXjX3XjXjXiX4XE ; o . X X X   X X X X X X X X X X X X X X X X X X X X X X X X X X X X X X X X X X X X X X X X X X X X X X X X X X X X X X X X X X X X X X X X X X X X X X X X X X X X X X X X X X X X X X X X X X X X X $ + % $ ; 4 ` 2XhXiXhXhXMXhX3XhXhXjX",
"jXjXgXvXvXiX3XgX2XE ; o . X X X   X X X X X X X X X X X X X X X X X X X X X X X X X X X X X X X X X X X X X X X X X X X X X X X X X X X X X X X X X X X X X X X X X X X X X X X X X X X X X X X X X X X X X X X X X X X X X $ + % $ ; 4 ` 2XjXjXvXMXvXvXgXjXgXjX",
"gXiXhXjXvXvXvXjXvXE ; o . X X X   X X X X X X X X X X X X X X X X X X X X X X X X X X X X X X X X X X X X X X X X X X X X X X X X X X X X X X X X X X X X X X X X X X X X X X X X X X X X X X X X X X X X X X X X X X X X X $ + % $ ; 4 ` 2XvXMXvXjX4X4XhXhXjXvX",
"hX3XiXjXvXMXvXhXvXE ; o . X X X   X X X X X X X X X X X X X X X X X X X X X X X X X X X X X X X X X X X X X X X X X X X X X X X X X X X X X X X X X X X X X X X X X X X X X X X X X X X X X X X X X X X X X X X X X X X X X # + % # ; 4 ` 2XvXMXjXgXgXjXhXMXjXgX",
"gXjXjXjXvXMXMXjXgXE ; o . X X X   X X X X X X X X X X X X X X X X X X X X X X X X X X X X X X X X X X X X X X X X X X X X X X X X X X X X X X X X X X X X X X X X X X X X X X X X X X X X X X X X X X X X X X X X X X X X X $ + % $ ; 4 ` 2XhXvXjXgXhXvXjXMXjXjX",
"hXiXjXjXhXjXjXhXgXE ; o . X X X s.BXE BXBX_ BXpX>.nXBXe.BXBXr.BXBX` BXBX,.BXBXw.BXBXd.BXBXs.nX#Xa.BXBXs.BXBXs.BXBXs.CXMXjXX X X X X X ZXMXB.BXBXM.BXBXg.BXBXj.BXBXg.BXBXA.BXBX:XBXBXb.BXBXl.BXBXn.BXBXn.BXBX7XBXBX7XBXBXG.BXBX8 % $ ; 4 ` 2XjXjXjXhXiXhXvXjXhXhX",
"jXgXhXjXgXgXvXjXMXE ; o . X X X s.] E ] BXBXBX{ >.5.BXBXBXe.i.` BXBXBXG G _ BXBXBX! ^ %.BXBXBX,.w.i.BXBXBXr.f.n.BXCXMXkXgXX X X X X X :XZXhXCXz.z.k.BXBXBXk.k.k.BXBXBXk.h...BXBXBXn.i.v.BXBXBXv n.A.BXBXBXC.m.b.BXBXBX-.G.D.BX|.% $ ; 4 ` 2XhXgXjXvXgXgXjXgXhXgX",
"jXvXgXgXhXhXjXvXjXE ; o . X X X s.BX[ BXBXf.BXBX{ BXBXr.BXBXf.BXBXo.BXBXG BXBXW BXBXp BXBX! BXBX! BXBX .BXBXo.mXCX<XZXNXe.X X X X X X CXvX3XMXCXC.BXBXC.BXBXC.BXBXD.BXBX} BXBX;.BXBX:.BXBXG.BXBXx.BXBXb.BXBXm.BXBXS.BXBXu.BXBXu % $ ; 4 ` 2XhXvXjXjXvXvXjX4XiXjX",
"jXjXjXhXjXjXgX4XhXE ; o . X X X 0 BXBXBXr.5.r.BXBXBXw.` %.BXBXBXW ! R BXBXBX! a ! BXBXBXp p t BXBXBXa ! =.BXBXCX5XiX<XCXBXX X X X X X BX:.9X0XMXCXBX#.:.l.BXBXBXb.b.B.BXBXBXf k +.BXBXBXc l.m.BXBXBXj x.C.BXBXBX7X7XC.BXBXBX*.} % $ ; 4 ` 2XjXhXvXvXhXjXjXgX3XhX",
"jXjXvXgXgXhXjXhXjXE ; o . X X X s.BX' BXBX5.BXBX%.cXBX` BXBX^ BXBX! BXBX^ BXBXR BXBXa pXBXp BXBXs BXBXp BXBX+.NXZX<XCXBX) X X X X X X BXBX+.NXZX8XCXBX:.BXBXz.BXBXl.BXBX| BXBXa BXBXf BXBX:.BXBXk BXBXl BXBXv.BXBXqXBXBXG BXBXf % $ ; 4 ` 2XvXgXhXMXiXiXgXhXhXjX",
"jXhX4XhX3XgXvXvXMXE ; o . X X X s.e.] ] BXBXBX] ] _ BXBXBXG W W BXBXBXt R o.BXBXBXs t G BXBXBXa a s BXBXBX+.5X9XMXCXBX) f X X X X X X 5 BXBXCX,X0X0XCXBXBXu.l.C.BXBXBXB.} ^ BXBXBXf f f BXBXBXk k k BXBXBXC.m.D.BXBXBXA u.qXBX|.% $ ; 4 ` 2XjXiXgXjXgXiXgXvXvXvX",
"4X3X<X4X4XMXvXvXjXE ; o . X X X s.BX%.BXBX[ BXBX] BXBXG BXBXW BXBXt BXBXK mXBXs BXBXt BXBX( BXBX~ BXBXs CXNX0XMXCX$.BXrX+.X X X X X X BXBX+.BXCX,XZXNXD.BXBXZ.BXBXl.BXBX} BXcXG BXBXk BXBXs BXBXf BXBXl BXBXD.BXBXG BXBXG.BXBXf % $ ; 4 ` 2XMXvXhXhXgXgXhXhXhXjX",
"3X<X3XiXhXvXMXvXgXE ; o . X X X u BXBXBX5.] ] BXBXBX] _ 8 BXBXBXp t p BX@XuXp p t BXBXBXa ) -.BXBXBX~ R :XZXMXVX+.l.:.BXBXX X X X X X BXX.X.k BXCXNXlXAXG.BXBXBX:.k g BXBXBXR W ( BXBXBXf ) X.BXBXBXk d X.BXBXBXS G u.BXBXBXG.a % # ; 4 ` 2XMXhXjXvXvXjXvXMXMXvX",
"vXjXjXjXgXgXjXMXvXE ; o . X X X s.BXo.BXBX] BXBX[ BXBX[ BXBXW BXBXR BXBXJ sXBXt BXBXs BXBX~ BXBXf BXCX:XZXMXf BXBX:.BXBXc X X X X X X BXBXd BXBXf pXvXlXMXCXH.BXBXa BXBXf BXBX) BXBXR BXBXa BXBXf BXBXd BXBX-.BXBXu.BXBXD.BXBXq % # ; 4 ` 2XjXhXMXCXMXMXvXCXCXCX",
"gXgXiXgXhXhXhXMXjXE ; o . X X X s.e.%._ BXBXBX_ _ E BXnXpX9 8 G BXBXBXp ! ! BXBXBXs s p BXBXBXs s R NXZXMXs f s BXBXBXk f X X X X X X 5 BXBXBXd f K dXMXZXlXH.R BXBXpX) f s BXBXBXR ~ *.BXBXBX) k d dXcXBX$.G J BXmXVXb.D.qXBX|.% $ ; 4 ` 2XvXvXvXjXjXvXvXvXvXMX",
"hXgX3XgXjXjXhXMXvXE ; o . X X X s.BXo.BXBX] BXBX` BXBX^ cXBXE BXBX9 BXBXR BXBXs BXBXp BXBXp BXBXt jXZX:XCXBXf BXBXd BXBXs X X X X X X BXBXZ.BXBXs @XcX^ NXZXlXCXBX8 cXnXf BXBX} BXBX%.BXBX$.BXBXc BXcXk BXBXA VXBX4XmXBXD.BXBXW % # ; 4 ` 2XjXgXgXiXgXkXvXvXvXvX",
"jXvXiXjXhXhXhXjXjXE ; o . X X X p BXBXBXd.d.d.BXBXBXy.i.e.BXBXBXG ` ] BXBXBXp f s mXBXBXa s t CXxXtX:Xt s BXBXBXj j f BXBXX X X X X X BX+.#.X.BXBXnXp ~ | NXZXMXt s s BXBXBX) +.+.BXmXBX:.#.;.BXBXBXk a G BXdX-XN.N.F.BXBXBXV.y % $ ; 4 ` 2XvXhXgXiXhXjXjXjXjXjX",
"jXiXhXgXjXhXhXjXjXE ; o . X X X s.BX] BXBXn.BXBXi.BXBXZ.BXBXi.BXBXW BXBX8 BXBX( BXwX[ BXBX( CXMX4XMXCX^ BXBX^ BXdX$.BXBX' X X X X X X BXBX@.BXBXk BXBX%.BXCXlXZXMX+.BXBXf BXBXc BXVXX.BXBX-.BXBX=.BXBXA BXBXX.@XBXm BXBXN.BXBXy % $ ; 4 ` 2XhXvXMXMXCX3X<XjXgXjX",
"jXgXvXvXMXMXvXMXvXE ; o . X X X s.e.' i.BXBXBXZ.n.Z.BXBXBXn.n.n.BXBXBX%.%. .BXBXBXe.e.w.BXCXNXgX4Xd.BXBXBX%.%.e.cXnXBXe.e.X X X X X X 5 BXBXBX@.c c BXBXBXu.i.8XZXMXCXu.) g BXBXBXx c +.BXBXBX| v.~ BXBXBXz l O.BXBXBXb j M BX|.% $ ; 4 ` 2X3XhXjXhXhXiXjXjXjXvX",
"hXvXvXMXjXjXgXjXvXE ; o . X X X s.BX' BXBX7XBXBX8XBXBX>XBXBXS.BXBX7XBXBXA.BXBXA.BXBXA.BXCXkXZXMXA.BXBXZ.BXBXn.BXBXn.BXBXn.X X X X X X VXBX+.BXBX+.BXBX+.BXBXZ.CXNXvXMXCXZ.BXBXl BXBXa BXBX;.BXBX~ BXBX+.BXBXl BXBXb BXBXb BXBXy % $ ; 4 ` 2X<XgXiXgXgXgXgXhXgXvX",
"jXMXvXvXvXgX3XiXvXE ; o . X X X R BXBXBX>X>XS.BXBXBXn.Z.n.BXBXBX>XS.7XBXBXBXn.i.n.BXBXCXgXjX0XCXBXBXA.Z.A.BXBXBXA.A.A.BXBXX X X X X X mX:.@.@.BXBXBX+.+.+.BXBXBX7XlXZXxXCXBXr d d BXBXBX#.x.V.BXBXBX~ H.C.BXBXBXl z l BXBXBXb r % $ ; 4 ` 2XjXhX3XvXjXiXgXvXhX4X",
"jXhXhXhXiX6XgXMXvXE ; o . X X X s.BX' BXBX%.BXBXi BXBXn.BXBXS.BXBXA.BXBXi.BXBXy.BXBXi.NXZX4XCXBXv.BXBXv.BXBXA.BXBXA.BXBX>XX X X X X X BXBXb BXBXk BXBXd BXBXS.BXBX7XMXtXkXCXBXl BXBXl BXBXN.BXBXA BXBX-.BXBXx.BXBX) BXBXb BXBXr % $ ; 4 ` 2XjXvXhXMXjXiXjXjXvXgX",
"hXgXjXjXiXgXjXvXjXE ; o . X X X s.e.' %.BXBXBXi e v.BXmXsX>X>X>XBXBXBX7XqXi.BXBXBXS.lXAXMXCXBXA.Z.A.BXBXBXS.A.S.BXBXBXS.>XX X X X X X 4 BXBXBX+.+.+.BXBXnXf @.V.BXBXCXlXZX2XCXBXBXg s g BXBXBXA ) C.BXBXBXu.V.N.BXBXBXl l k BX|.% $ ; 4 ` 2XhXhXvXhXgXhXjXhXjXjX",
"vXvXjXvXvXvXMXMXMXE ; o . X X X s.BX[ BXBXQ BXBXR BXBXZ.cXBXS.BXBXA.BXBX>XBXBX[ CXNXjXMXCXA.BXnXa.pXBXA.BXBXZ.BXBXn.BXBX;.X X X X X X BXBXV.BXBX;.BXBXf pXcX=.BXBX>XBXCXlXZXMXf BXBXd BXBX7 BXBXN.BXBX;.BXBXt.BXBXN.BXBXp BXBXr % $ ; 4 ` 2XiX3XiXjXvXhXgXCXvXvX",
"vXvXvXjXgXvXvXjXjXE ; o . X X X p BXBXBX' ^ / BXBXBXn.i.| BXBXBXZ.Z.Z.BXBXBXy.E 2XZXMXCXn.S.A.nX@XsXA.n.E BXBXBXE %.[ BXBXX X X X X X BX=.;.;.BXBXBX+.+.+.BXBXBX7X7X7XBXCXNX9X,Xc BXBXBX7 G r BXBXBXx x ;.BXBXBXu.n.v.BXBXBX~ r % # ; 4 ` 2X4XgXvXvXMXgXhX4XiXgX",
"jXvXjXhXgXgXgXjXjXE ; o . X X X s.nX[ BXBXQ BXBX0 BXBX>XBXBX>XBXBXS.BXBXS.BXCXlXZXMXS.BXBXS.BXBXZ.VXBXA.BXBXA.BXBXi.BXBX$.X X X X X X BXBX+.BXBX~ BXBXf BXBX=.BXBXS.BXBXa CXNX5XvXCXg BXBXr BXBXb BXBXx BXBXl.BXBX-.BXBXF.BXBXa % # ; 4 ` 2XgXhXvXhXiXjXjXjXhXgX",
"iX4XgX4XiXhX4XjXhXE ; o . X X X s.5.` R BXBXBXW 0 v.BXBXBX7X7X>XBXBXBX8X7X5XNXZXMXe.t.7XBXBXBXn.n.n.BXBXBXA.Z.A.BXBXBXA.+.X X X X X X 5 BXBXBX) ( +.BXBXBX! ~ y.BXBXBX] W s nX+XpX:XS A BXBXBXm m x BXBXBXx n l.BXBXBXu.v.C.BX|.% $ ; 4 ` 2XjXMXiX3XjXvXvXvXhXiX",
"3XgXgXhXhXgXhXjXgXE ; o . X X X s.VX^ BXBXR BXBX9 BXBXn.BXBXu.BXBXu.BXBXe.aXZX0XCXBXu BXBXR BXBX` BXBX' BXBX' BXBX .BXBX) X X X X X X BXBX) BXBXX.BXBXf BXBXt BXBX9 BXBXW BXVXK pXZX6XCXBXM BXBXd BXBXx BXBXj BXBXv.BXBX-.BXBX) % # ; 4 ` 2XvXjXjXvXjXjXjXhXhXgX",
"gXjXjXMXvXvXjXMXvXE ; o . X X X u BXBXBXW R R BXBXBXy.y.o.wXBXBXn.' E CXNXZX3Xe.e.BXBXBXE / ^ BXBXBXW E [ BXBXBX/ ` [ BXBXX X X X X X BX) +.+.BXBXBXf a a BXBXBX8 W w.BXBXBXp 8 S NXZXMXC C y BXBXBXj j d BXBXBXn N.l.BXBXBXZ. .% $ ; 4 ` 2XjXvXvXvXiXjXjXgXgXhX",
"jXgXgXgXvXvXhX3XjXE ; o . X X X s.BX[ BXBX' BXBX^ BXBX&.uX@X%.BXBX%.CXNXgXMXCX| BXBX5.BXBXE BXBX^ BXBX^ BXBX%.dXBX%.BXBX( X X X X X X BXBX+.BXBX) BXBX} BXnXW BXBXE BXBX^ BXBXS BXCXJ.ZXMXd BXBXz nXpXx BXBXj BXBX#.BXBXv.BXBX/ % $ ; 4 ` 2XgXhXjXjXgXhXvXvXMXvX",
"vXjXiXgXhXMXhXgXvXE ; o . X X X s.o.' i.BXBXBX*.*.$.BXBXcX_ / ( BXCXNX0X5X' BXBXBX/ [ %.BXBXBX^ Q ^ BXBXBX^ ` >.cXBXBX^ [ X X X X X X 5 BXBXBX$.*.$.BXBXBX_ G W BXBXBXW %.' BXBXBXl.b S.ZXMXCXr b m cXBXBXj s d BXBXBXN.N.V.BX|.% $ ; 4 ` 2XgX2XgXhXhXjXjXjXhXvX",
"vXMXvXjXhXiXhXjXjXE ; o . X X X s.BX' BXBX*.BXBX$.BXBX| BXBX' BXCX5XZXMX| BXBX/ BXBX/ BXBX^ BXBX_ dXBXR BXBX^ @XcXQ BXBXQ X X X X X X BXBXt.BXBX&.BXBX/ BXBX^ BXBX .mXcX/ BXBX0 BXBX-.CXNX0XMXCXj BXBXj BXBXx BXdXl BXBX#.BXBX~ % $ ; 4 ` 2XhXiX4XjXvXvXjXvXjXgX",
"MXMXjXvXvXhXiXiX4XE ; o . X X X u BXBXBXe.*.&.BXBXBX%.$.| BXBXCX5XgX5XCXBXBX/ ' ' BXBXBX' &.Q BXVXBX^ ^ ^ BXBXcX/ | ' BXBXX X X X X X BX&.t.&.BXBXBX&.' -.BXBXBX*.&.y.dXBXBX8 u $.BXBXBXl.,X0XMXCXBXx j l BXBXBXX.X.@.BXBXBXN.) % $ ; 4 ` 2XhXjXvXMXMXjXjXvXjXjX",
"jXgXvXjXjXhXgXhXgXE ; o . X X X s.BX' BXBX&.BXBX| BXBX( BXBX| NXZX5XCXpX/ BXBX( BXBX( BXBX( BXBX9 BXBX^ BXBX^ BXBX| BXBX| X X X X X X BXBXt.BXBX&.BXBX/ BXBXl.BXBXC.BXBXS BXBX8 mXcXC.BXBXk NXZX,XCXBXx BXBXx BXwXX.BXBXx.BXBXf % $ ; 4 ` 2XvXjXCXMXMXvXjXvXjXjX",
"iXvXvXjXgXjXjXgXjXE ; o . X X X s.] ' e.BXBXBX| | ( BXBXBX| 5X0XMXCXBX` / | BXBXBX( ( / BXBXBX| R 0 BXBXBXQ ^ Q BXBXBX^ / X X X X X X q BXBXBX&.5.&.BXBXBXG.G.S.BXBXBXS *.qXBXBXbXV.H.x.BXBXCX,X0X,XCXBXBXj d d VXBXBXl @.N.BX|.% $ ; 4 ` 2XgXjXvXvXvXvXjXhXiXiX",
"hXMXgXjXgXjXhXvXvXE ; o . X X X s.BX' BXnX&.BXBX$.BXBX' CXNXgXMXCX/ BXBX( BXBX( BXBX/ BXBX/ BXBX| BXBX^ BXBX^ BXBX^ BXBX/ X X X X X X BXBX*.BXBX*.BXBX' BXBX7XBXBXS BXBXAXBXBX8 BXBXC.BXBXx BXCX,XZXMXc BXBXl BXBXk BXwXx BXBXd % $ ; 4 ` 2XhXvXjXjXjXjXjXjXgX2X",
"jXvX4XiXjXiXgXMXMXE ; o . X X X u BXBXBX5.%.$.BXBXBX' $.5XZXMXCX/ / ^ BXBXBX( / / BXBXBX^ / / BXBXBXu 9 ^ BXBXBXQ ^ ^ BXBXX X X X X X BX*.*.*.BXBXBX$.| } BXBXBX8 A ;.BXBXBXl.G G BXBXBX:.c k BXCXNX0X,X+.BXBXBXc c x BXBXBXn y % # ; 4 ` 2XhXvXjXvXhXgXhXhXvXiX",
"gXiX2XhXhXgXhXjXjXE ; o . X X X s.BX' BXnX%.BXBX' BXCX5XZXMX' VXBX^ BXBX/ BXBX/ BXBX^ BXBX/ BXBX( BXBXu BXBXQ BXBX^ BXBX&.X X X X X X BXBX*.BXBX&.BXBX$.BXVX=.BXBXt.BXBXG.BXBXE BXBXD.BXBXl BXBXx CXNX0XMXCXc BXBXb BXBXb BXBXy % # ; 4 ` 2XjXjXjXjXgXjXvXvXiXgX",
"vXhX4XjX4XiXhXjXjXE ; o . X X X s.' %.i.BXBXBX&.&.e.NXZXMX%.] [ BXBXBX( ' ' BXBXBX' / ( BXBXBX/ / / BXBXBXt / Q BXBXmXE $.X X X X X X 4 BXBXBX$.$.$.BXBXBX_ 8 A BXBXBXV.F.D.BXBXBXb.D.C.BXBXBXd j x CXNXZX,X+.b BXBXBXb b l BX|.% $ ; 4 ` 2XgX4XiXhXgXgXgXgXhXhX",
"jXjXvXvXhXvXvXgXiXE ; o . X X X s.BX;.BXBXv.BXBXv.NXZX0XCXBXv.nXBX-.BXBXt.nXBXu.BXBX-.BXBX-.BXBXu.BXBXv.BXBXE BXBX$.mXdX&.X X X X X X BXBXi.BXBXt.BXBXu.BXnXJ BXBXv BXBXV.BXBX#.BXBXC.BXBXx.BXBX@.BXBXb NXZX,XCXBXc BXBXz BXBXy % $ ; 4 ` 2X4XgXgXgXjXjXhXjXjXjX",
"4XiXhXvXjXjXhXgXgXE ; o . X X X t BXBXBXj.j.h.CXNXZX7Xh.N BXBXBXN N V BXdXnXh.h.N BXBXBXh.h.h.BXBXBXk.k.z.BXBXBX......BXBXX X X X X X BX;.b.m.BXBXBXC.=.G BXBXBXc j n CXBXBXn n #.BXBXBXD.b.N.BXBXBXx x +.NXZXMX+.x c BXBXBXb y % $ ; 4 ` 2XgXMXjXgXgXgXvXjXjXvX",
"gXgXhXhXgXhXhX4XjXE ; o . X X X s.BXh.BXBXj.CXMXqXMXCXN BXBXB BXBXB BXBXV BXBXV BXBXj.BXBXj.BXBXj.BXBXj.BXBXz.BXBXj.BXBXN X X X X X X BXBXz.BXBXj.BXBX8 BXBXv BXBXn #XpXn BXBXn BXBX;.BXBXC.BXBX$.BXBXd BXCX,XZXMX@.BXBXl BXBXy % $ ; 4 ` 2XjXvXvXhXiX3XvXMXjXhX",
"hXiXgXhXjXvXvXvXjXE ; o . X X X s.' h.j.BXCXMXqX8Xj.BXBXBXg.g.h.BXBXBXg.g.g.BXBXBXg.k.g.BXBXBXk.g.g.BXBXBXg.z.z.BXBXBXN N X X X X X X 4 BXBXBXz.B.h.BXBXBXv v c BXBX@XX.n b BXBXBXf ( C.BXBXBXV.V.@.BXBXBX@.V.0XZXMXCXl l l BX|.% $ ; 4 ` 2X2X4XjXjXjXgXvXvXjXjX",
"gXhXjXvXvXMXhXjXjXE ; o . X X X s.BXh.BXCX8XZXNXk.BXBXg.BXBXg.BXBXg.BXBXh.BXBXg.BXBXg.BXBXg.BXBXg.BXBXk.BXBXz.BXBXi BXBXg.X X X X X X BXBXc.BXBXh.BXBX/ BXBXc BXBXn cXnXV BXBXb BXBXR BXBXV.BXBX#.BXBXl BXBXl.CXNX0XMXCXz BXBXr % $ ; 4 ` 2X:X2XgXjX4XhXjXjXhXjX",
"jXMXvXvXMXjX6XgXgXE ; o . X X X u BXBXCXqXlXqXCXBXBXk.k.k.BXBXBXg.g.g.BXBXBXg.h.g.BXBXBXh.g.h.BXBXBXg.g.j.BXBXBXc.g.u BXBXX X X X X X BXx.z.B.BXBXBX/ c.c.BXBXBXn b n BXBXBXm d b BXBXBXV.V.D.BXBXBXc c f BXBXBXk ,X0XMXCXBXO.y % $ ; 4 ` 2X3X<XgXjXgXgXhXhXjXhX",
"hXgXhXjXvX3X2XiXhXE ; o . X X X s.BXA.NXZXlXCXBXD.BXBXD.BXBXD.BXBXD.BXBXH.BXBXH.BXdXZ.BXBXH.BXBXH.BXBXH.BXBXz.BXBXc.BXBXh X X X X X X BXBXB.BXwXJ BXBXB.BXBX>.BXBX5.BXBXo.BXBX_ BXBXw.BXBXz.BXBXG.BXBXF.BXBX*.BXBXSXNXZX,XCXBXy % $ ; 4 ` 2X4XjXvXjXjXhXhXjXjXjX",
"gX3XgXhXgXiXjXjXgXE ; o . X X X s.*.4XkXMXCXBX%.%.%.BXBXBX*.,X7XBXBXBX%.%.*.BXBXBX,.>.&.BXBXBXu.u.u.BXBXBXt.k.z.BXBXBXh.u X X X X X X 4 BXBXBXJ / c.BXBXBX^ G J BXBXBXJ J P BXBXBX>.,.S.BXBXBXi.7X7XBXBXBX>X,X,XBXBXCXlXZXlXCX|.% $ ; 4 ` 2XvXjXvXvXjXjXjXgXjXjX",
"jXhXgXhXjX4XiXiX4XE ; o . X X X s.NXjXMXCXG BXBXf.BXBXf.BXBX7XBXBXe.BXBX%.BXBX^ BXpXG BXBX6 BXBXv BXBXv BXBXV BXBXj.BXBXN X X X X X X BXBXE BXBXc.BXBXz.BXBX8 BXBXt BXBX9 BXBX9 BXBX8 BXBXJ.BXBXl.BXBXl.BXBXb.BXBXD.BXCX0XZXZX=.% $ ; 4 ` 2XMXvXjXhXjXhXjXhXhXjX",
"MXvXMXvXhXiXgXiXgXE ; o . X X X r.ZXZXCX*.%.&.BXBXBXi.i.y.BXBXBXqXi.[ BXBXBXZ.i.t.BXBXBX$.f.V.BXBXBXF.F.C.BXBXBXj.j.j.BXBX$ $ $ $ $ $ BX[ ,.^ BXBXBXB.B.B.BXBXBXE E E BXBXBXE E W BXBXBX( J.V.BXBXBXb.l.l.BXBXBXl.l.l.BXCXZXlXi.% $ ; 4 ` 2XgXiXvXhXhXjXjXjXhXjX",
"jXgXiXgXiXgX<XhXjXE ; o . X X X E s.0 |.|.e |.|.0 |.|.0 |.|.| |.|.u |.|.0 |.|.e |.|.e |.|.i |.|.i |.|.i |.|.h |.|.h |.|.h $ $ $ $ $ $ |.|.0 |.|.h |.|.h |.|.6 |.|.4 |.|.4 |.|.4 |.|.4 |.|.~ |.|.) |.|.f |.|.f |.|.~ |.|.} |.|.^ % $ ; 4 ` 2XjX4XvXjXjXgXgXhXgXjX",
"jXhXhXjXvXjXhXMXhXE ; o . X X X + $ % % % % & & % % % % % % & & % % & & & % % % % % % % % % & & & % % % % % % % % % % % % % & & % % & & & % % % % % % % % % & & & & % % % % % % % % % % % % & & % % & & & % % % % % % % % % & % % + ; 4 ` 2XjXjXvXvXhXhXgXvXjXjX",
"vXvXvXvXvXjXhXjXgXE ; o . X X X + # $ $ $ $ $ $ $ $ $ $ $ $ % % $ $ $ $ $ $ $ $ $ $ $ $ $ $ % % $ $ $ $ % $ $ $ $ $ $ $ $ $ % % $ $ $ $ $ $ $ $ $ $ $ $ $ $ % % $ $ $ $ $ $ $ $ $ $ $ $ $ $ % % $ $ * $ $ $ $ $ $ $ $ $ $ $ % $ + O ; 4 ` 2XvXvXvXMXvXhXiXvXMXMX",
"hXjXhXiXjXvXiXhXvXE ; o o X X X X O O + + + + + + + + + + + + + + + + + + + + + + + + + + + + + + + + + + + + + + + + + + + + + + + + + + + + + + + + + + + + + + + + + + + + + + + + + + + + + + + + + + + + + + + + + + + + O O X ; 4 ` 2XjXvXMXMXvXhXiXjXvXjX",
"hXhXhXgXjXvXjXjXhXE ; & ; ; ; ; ; ; ; ; ; ; ; ; ; ; ; ; ; ; ; ; ; ; ; ; ; ; ; ; ; ; ; ; ; ; ; ; ; ; ; ; ; ; ; ; ; ; ; ; ; ; ; ; ; ; ; ; ; ; ; ; ; ; ; ; ; ; ; ; ; ; ; ; ; ; ; ; ; ; ; ; ; ; ; ; ; ; ; ; ; ; ; ; ; ; ; ; ; ; ; ; ; ; > 4 ` 2XMXMXMXMXhXvXjXhXhXgX",
"vXvXjXhXhXiXhXvXjXE > 4 4 4 4 4 4 4 4 4 4 4 4 4 4 4 4 4 4 4 4 4 4 4 4 4 4 4 4 4 4 4 4 4 4 4 4 4 4 4 4 4 4 4 4 4 4 4 4 4 4 4 4 4 4 4 4 4 4 4 4 4 4 4 4 4 4 4 4 4 4 4 4 4 4 4 4 4 4 4 4 4 4 4 4 4 4 4 4 4 4 4 4 4 4 4 4 4 4 4 4 4 4 4 4 9 ` 2XhXjXhXjXhXjXvXjXgXgX",
"jXhXhXhXjXiXhXjXiXE ` ` ` ` ` ` ` ` ` ` ` ` ` ` ` ` ` ` ` ` ` ` ` ` ` ` ` ` ` ` ` ` ` ` ` ` ` ` ` ` ` ` ` ` ` ` ` ` ` ` ` ` ` ` ` ` ` ` ` ` ` ` ` ` ` ` ` ` ` ` ` ` ` ` ` ` ` ` ` ` ` ` ` ` ` ` ` ` ` ` ` ` ` ` ` ` ` ` ` ` ` ` ` ` ` ` w.2XhXjXjX4XgXjXjXjXiX4X",
"jXvXMXMXhXhXhXgXhX2X2X2X2X2X2X2X2X2X2X2X2X2X2X2X2X2X2X2X2X2X2X2X2X2X2X2X2X2X2X2X2X2X2X2X2X2X2X2X2X2X2X2X2X2X2X2X2X2X2X2X2X2X2X2X2X2X2X2X2X2X2X2X2X2X2X2X2X2X2X2X2X2X2X2X2X2X2X2X2X2X2X2X2X2X2X2X2X2X2X2X2X2X2X2X2X2X2X2X2X2X2X2X2X2X2X2X2X3XvXMXMXhXvXjXjXgXiXiX",
"vXMXvXMXgX3XMXvXjXvXMXhXgXhXgXgXgXjXhXjXhXjXjXhXjXjXjXhXMXvXhXvXhXjXjXjXhXgXgXvXMXMXvXhXiXhXgX2XgXhX4XgXvXvXvXMXiXgXjXiX4XiXiXjXjXiX4XvXvXjXvXgX4XjXjXhX4X3XhXjXjXhXvXjXvXgXgXgXgXgXhXjXvX4X4XjXhXgXjXgXgXhXgXjXgXgXhXhXMXgXhXgXgXgXgXiX2XiXgXvXjXjXvXjXiXgXgXgX",
"jXjXhXjXMX4XhXjXhXjXjX4X4XjXgXhXjXjXjXhXgX4XjXhXgXjXhXgXjXhXhXhXjXjXCXvXvXjXjXhXvXjXjXgXiXhXgXiXhXvX2X3XiXjXjXvXgXiXjXgXgXvXjXhXjXhXiXjXgXiXhXhXhXhXvXvXvXgXjXhXiXhXhXjXvXMXMXvXiX3XgXhXiXjXvXhXjXjXvXvXvXvXgXhXjXhXiXiXjXiX3XjXvXMXhXiXjXhX3XgXgXhXhXiX2XvXjXvX",
"hXjXjXjXhXiXhXjXgXhXgX4XiXiX4XgXjXhXhXhX<XgXvXMXvXjXiXgXgX4XgXiXgXvXjXhXhXhXgXjXvXvXjXjXvXMXMXMXMXjXgXhXgXhXvXvXjXgXjXvXvXvXjXhXhXjXvXjXiX4XgXgXjX4X3XjXvXjXvXjXgXhXgXhXgXjXMXjXgXgXjXhX2XgXgXgXiXiXgXjXjXjXhXjXvXjXgXhXhXhXvXgXiXjX4XvXCXvXiXgXgXhXvXjXiXjXMXMX",
"jXMXMXMXjXvXhXhXMXjXvX4X4XgXhXhXjXjXiX3X4XhXhXhXjXgXhXgXhXjXhXhXhXgXjXgXhXgXhXjXvXvXhX2X4XvXjXjXjXjXhXhXMXMXvXvXjXiXvXjXMXhXvXjXvXvXjXvXvXvXMXMXvXjX<XiXMXjXgXhXhXvXjXjXhXgXgXgXjXjXvXjXhXhXjXjXhX3XhXjXjXhXhXjXvXMXMXjXhXvXjXvXjXhX2XvXvXgXhXMXvXMXvXMXvXvXvXjX",
"hXhXhXjXjXjXvXjXvXMXMXvXjXhXhXhXgXvXvXjXvXvXjXgXjXvXjXhXhXvXvXvXhXiXjXvXjXiXgXhXvXhXvXgXgXvXgXjXjXhXiXhXgXhXhXhXgXgXhXhXgX3XjXgXjXhXvXMXMXMXMXvXvXgX<XjXjXjX3XhXgXjXjXvXgXhXjXgXiXjXvXMXCXvXMXvXCXvXjXMXvXhXjXgXjXvXvXvXMXvXvXjXvXjX4X4XjXhXjXvXMXCXMXvXvXvXjXhX",
"jXhXiXhXgXgXvXiXjXvXgXiX4XjXjXhXhXjXjXjXvXMXMXvXMXCXvXiXhXvXvXMXvXjXgXMXMXvXvXiXjXhXjXjXMXjXjXjXjXjXgXhXjXgXgXiXgXgXhXhX3XiX4X2XgXjXjXgXvXvXhXhXvXhXvXjXjXhXgX3XgXjXhXvXvXjXhXgXiX4XhXgXjXjXhXgXhXhXgXvXvXgXhXhXjXiXiXjXjXjXvXjXvXjXjXhXhXjXjXjXjXMXvXvXjXjXhXjX",
"vXjXgX4XiXhXhXhXhXjXgXjXvXjXjXvXvXvXvXjXjXvXMXvXvXvXgXjXvXhXhXgXhXjXMXMXvXMXjXvXhXjXhXiXjXjXjXvXjXvXvXhXgXgXgX3XgXgXgXhXiXvX6X2XgXgXgX4X4X3X4XiXhXvXvXjXvXjXvXvXhXiXhXgXgXjXjXgXjXjXhXhXhXgXhXjXjXvXvXjXgXiXiXvXjXgXjXhX4XgXvXvXvXMXMXvXgXgXhXjXgXjXjXhXvXjXiXgX",
"vXgX4XgX3XgXjX4X3XjXjXjXvXgXjXjXjXvXvXiXjXvXvXjXvXhXvXvXjXhXhXhXhXjXhX4X4XhXhXjXjXjXjXjXgXhXgXgXhXvXjXhXgXvXvXjX2X3XvXjXgXjXgXgX4X3XiXjXjXgX2X2X3XhXvXvXhXiXjXjXMXjXMXjXvXvXvXMXvXMXjXhXhXgXjXMXvXvXvXvXjXjXvXgXgXhXiXiXhXhXjXjXjXjXjXhXjXhXvXvXvXjXjXgXjXjXhX4X",
"hXMXMXMXvXgXhXhXgXjXvXMXvXjXvXMXvXvXjXjXjXjXvXhXhXvXvXvXvXvXMXMXMXMXvXgXgXhXhXjXgXjXvXvXvXgXhXgXgXhXjXhXgXvXMXMXMXjXvXjXvXvXvXvXgXgX3XgXvXMXMXjX3XhXjXgX3XiXiXjXvXjXhXjXvXhXhXgXjXjXiX3XgXjXjXMXvXvXvXvXjXjXjX4XhXMXhX3XvXMXMXMXMXjXjXhXjXhXjXjXgXjXMXMXvXjXgXjX"
};
