/* XPM */
static char *a8cfdae5beb04bdec6f9c16ca88d46bbVg4CbbVAYXouYVN9[] = {
/* columns rows colors chars-per-pixel */
"128 128 237 2 ",
"   c #151515",
".  c #121518",
"X  c #1D1D1D",
"o  c #191D21",
"O  c #1F2226",
"+  c #232323",
"@  c #232629",
"#  c #25292D",
"$  c #282B2E",
"%  c #2C2F32",
"&  c #282F3B",
"*  c #3A3A3A",
"=  c #333333",
"-  c #303B4F",
";  c #364457",
":  c #3F464D",
">  c #394861",
",  c #464C57",
"<  c #575757",
"1  c #585A5B",
"2  c #4C5053",
"3  c #605F5B",
"4  c #5D6557",
"5  c #64685B",
"6  c #6D735C",
"7  c #6D7553",
"8  c #747C5C",
"9  c #757A59",
"0  c #6E7254",
"q  c #555C63",
"w  c #4A586B",
"e  c #5D6263",
"r  c #5C656B",
"t  c #55636D",
"y  c #53657C",
"u  c #5A6878",
"i  c #536677",
"p  c #646563",
"a  c #6A6662",
"s  c #666B64",
"d  c #6C6B64",
"f  c #6F6F6F",
"g  c #656A6B",
"h  c #726D68",
"j  c #6D7264",
"k  c #6D726B",
"l  c #747563",
"z  c #767C63",
"x  c #7B7D63",
"c  c #74736D",
"v  c #7A756E",
"b  c #7C7D6C",
"n  c #7A7566",
"m  c #626D7B",
"M  c #6B7579",
"N  c #777776",
"B  c #7A7771",
"V  c #7C7A74",
"C  c #757C7D",
"Z  c #7C7D7B",
"A  c #747875",
"S  c #927358",
"D  c #A37D5F",
"F  c #837D6C",
"G  c #9A7D65",
"H  c #837E76",
"J  c #827F7B",
"K  c #897A71",
"L  c #917F71",
"P  c #A17C61",
"I  c #7D845C",
"U  c #7E8A5C",
"Y  c #7B8657",
"T  c #7D894A",
"R  c #7C8362",
"E  c #7A8668",
"W  c #7C837A",
"Q  c #838B5C",
"!  c #858A5A",
"~  c #86925A",
"^  c #949558",
"/  c #848A65",
"(  c #8B8B64",
")  c #84846C",
"_  c #878868",
"`  c #978768",
"'  c #999669",
"]  c #85837C",
"[  c #8A857C",
"{  c #8D897D",
"}  c #888573",
"|  c #948C7D",
" . c #978A77",
".. c #9A9378",
"X. c #8D9268",
"o. c #A2856C",
"O. c #A4896F",
"+. c #A98668",
"@. c #A68B73",
"#. c #A88C75",
"$. c #A3947D",
"%. c #A79979",
"&. c #B79877",
"*. c #B18C6E",
"=. c #ADA778",
"-. c #9AA06B",
";. c #586C81",
":. c #5C758A",
">. c #657C8B",
",. c #6A7987",
"<. c #737F8B",
"1. c #767D83",
"2. c #657F94",
"3. c #697F96",
"4. c #616E80",
"5. c #807F81",
"6. c #74818B",
"7. c #7A8387",
"8. c #678196",
"9. c #6B8395",
"0. c #678399",
"q. c #6C849A",
"w. c #6D899D",
"e. c #728795",
"r. c #748896",
"t. c #7E8996",
"y. c #74869A",
"u. c #798799",
"i. c #738B9C",
"p. c #7C8A9B",
"a. c #7C8794",
"s. c #7D919D",
"d. c #6F848F",
"f. c #6D8AA1",
"g. c #748DA1",
"h. c #7C8EA3",
"j. c #7A93A4",
"k. c #7595AC",
"l. c #7A97AC",
"z. c #7D9AAC",
"x. c #7596AB",
"c. c #739AB4",
"v. c #7A9CB3",
"b. c #6F92AA",
"n. c #78A2B9",
"m. c #848482",
"M. c #8B8683",
"N. c #8C8A84",
"B. c #8C8B8A",
"V. c #858988",
"C. c #938C83",
"Z. c #958E88",
"A. c #95928B",
"S. c #9C948B",
"D. c #9B9387",
"F. c #828C9B",
"G. c #858D93",
"H. c #8A9196",
"J. c #919797",
"K. c #979C9D",
"L. c #9C9A94",
"P. c #A59A85",
"I. c #A39A8D",
"U. c #AB9D8B",
"Y. c #A69787",
"T. c #B39C87",
"R. c #A49B93",
"E. c #AA9E95",
"W. c #A59B96",
"Q. c #A28E80",
"!. c #ABA289",
"~. c #B4A48A",
"^. c #ACA295",
"/. c #ADA39A",
"(. c #A8A99D",
"). c #B5A899",
"_. c #B0B39C",
"`. c #8D95A3",
"'. c #849CAB",
"]. c #8A9DAA",
"[. c #8698A5",
"{. c #929AA5",
"}. c #849EB1",
"|. c #8DA0AE",
" X c #97A2AA",
".X c #8BA3B4",
"XX c #88A6B8",
"oX c #91A6B0",
"OX c #9CAEB6",
"+X c #98ABB4",
"@X c #9EB0B8",
"#X c #A3A6A5",
"$X c #ABACA3",
"%X c #A6AAAA",
"&X c #A9AAAA",
"*X c #A6A7A6",
"=X c #B8ADA3",
"-X c #B3B4AD",
";X c #BAB4A8",
":X c #A3ADB6",
">X c #A7AFB8",
",X c #AEB1B1",
"<X c #A4B4BB",
"1X c #ABB6BC",
"2X c #ABB9BE",
"3X c #A5B0B6",
"4X c #B3B5B5",
"5X c #B6B9B9",
"6X c #BABDBD",
"7X c #BBBEBE",
"8X c #B9BCBC",
"9X c #BCBFBF",
"0X c #BABDBD",
"qX c #B8B8B8",
"wX c #AEB0AD",
"eX c #9FA19E",
"rX c #C4B192",
"tX c #C4B7AA",
"yX c #C2BCB6",
"uX c #C4C2BB",
"iX c #AEBCC1",
"pX c #A8B7C1",
"aX c #B3BDC2",
"sX c #BCBFC1",
"dX c #B6C1C4",
"fX c #BDC1C1",
"gX c #BEC1C1",
"hX c #BFC2C2",
"jX c #BEC1C1",
"kX c #BDC6C8",
"lX c #BFC8C9",
"zX c #C1C3C3",
"xX c #C2C3C3",
"cX c #C1C7C8",
"vX c #C1C9CA",
"bX c #C2C9CA",
"nX c #C1C9CA",
/* pixels */
"8X8X8X4X4X4X4X9X8X5XfXfXfX8X,X4X4X5X5X8X5X8XfXfX9X9X5X9XfX8X8X5X8X5X9X8XfX5X5X8X9X9X9XfX9X,X4XfX5X8X5X5X4X5X5X8XfX5X5X4X4X4X8X9X8X9X4X#X,X&X8X5X5X5XzXxXfX4X&X8X9X8X5X5X8X5X5X8X5X4X5X8X4X4XfX5X4X5XfXxX8X5X8X5X8X9X9X9X8X9X9X8X4X9XfXzXfX5X5XfX5X5X8X8X8X8X8X8X",
"5X4X4X,X4X4X9X9X5X5X5X8X9X4X,X#X,X8X9X8X8XxXxXzX5X5X8X5X9X5X4X4X5XfXzX8XfX8X5X4X,X4X5X5X8X9X,X8X4X4X,X5X8X,X4X8XfX5X,X5XfX8X9X4X,X8X8X4X4X8X4X,X4X5X8X8XfX8X8XfX9X8X8X5X4X4X4X5X5X&X,X5X,X&X5X4X4X8X5X5X4X8XfX9X8X8X8X5X,X4XfX8X8X5X8X5X4X,X8X8X9X8X4X8XfXfX9X5X",
"4X,X8X8X,X8X9X9XfX8X5X4X8X4X8X#X&X8X8X9X9X9XfX5XfX9XfX4X5X5X5X5X8X9XfX9X9X8X,X%X,X4X5XfXzX5X,X4X,X4X4X4X&X4X5X,X4X8X4X8X5X5X8X5X8XfX,X&XfXfX8X9XfX8X9X8XfX9X8X8X8X8X4X5X4XfX8X5X&X4X5X4X5X5X5X4X8X8X8X&X4X5X4X8X4X4X4X4X,X4X9X8XfX5X5X8XfXfX9XfX9XzXfXfX5X5X4X5X",
"4X8XcXxX9X8X8XfX9X5X4X%X5X4X8X9X4X5X4X8XfX5X4X4X8X9X8XfX8X8X5X5X8X5X5X9XfX5X4X5X5XfXxXfXfX8X4X5X8X4X&X8X&X5X,X,X4X9X4X&X,X5X5X5X8XfX4X5X5X5X5X,X4X8X9X4X4X5XfX8X5X5X5X4X8X8X8X8X8X8X5X5X8X5X5X4X5X5X8X5X5X,X&X5X4X5X5XfXfX5X8X5X5X8X8X9XfXfX5X5X5X9X5X8X8X5X8X9X",
"5X9X9X9X8X9X5X4XfX5X%X4X4X5X8XfXfX8X5X5X,X,X%X4X5X5X5X5X8X5X5X4X4X5X9X5X8X8X5X5X5X9XsX4X4X5X,X#X&X4X4X5X5X4X5X8X5X4X5X&X%X&X4X5X4X9X8X4X4X8XfX5X4X5X8X5X5X8XfX8X8X5X5X4X5X8X8X4X4X8X4X5X8X5X4X4X8X5X4X5X8X4X9X5X&X,X5X8X5X4X8X9X5X5X8X9X9X8XfXfX8X5X8X5XzX5X4X4X",
"fXfX9X8X5X4X5X5X4X9X8X4X5X5X8X9X9XfXzX5X5X5X4X4X4X&X&X&X4X5X5X4X5X5X4X9X5X4X8X8X5X4X8X5X5X8X5X5X4X4X5X,X5X,X8X9X5X4X4X&X8X5X4X9X5X4X5X9X8X8X8X9X8X5X4X8X8XfX8X4X8X5X8X5X8X5X5X5X8X5X4XfX9X5X5X9XfX5X4X8X4X5X5X8X4X4X9XfX8X8X8X&X4X8X5X5X9X9X8XxXfXfXfXfXfX8X5X,X",
"fX9X8X8X8XfX8X8X4X5X9X5X,X8XfX8XfX9X9X8X5X,X4X4X&X4X5X,X8X8XfX5X5X,X4X5X8X8X5X5X5X5X8X5X8X8XfXfX8X5X8X5X8X5X9X8X5X5X4X4X4X8X5X8X4X%X5X9X5X8XfXfX8X4X5X8X4X5X5X8XfX5X,X4X5X&X&X&X4X8X5X8X5X8XfXxXfXfX5X4X4X4X,X5X8X8XfXfXxXfX5X&X4X4X5X8X9X,X4XzXzXfX5XfX8X4X5X,X",
"8X5X5XzX9X8X8X8X8X5X5X5X5X5X9X8XfXfX9XfX5X4X4X,X4X9XzXfX9X4X9X5X8X%X&X4X8XfX9X5X5X8X8X5X8XfX9X8X5X4X5X8XfXfX8X8XfX9X5X,X5X8X5X5X4X&X8X5X5X8XfX8X4X5X8X9XfX4X4X5X4X4X&X#X,X8X8X5X&X4X8X8X8X5X4X5X4X8XfX8X9X5X5X8X4X4X8X5X8X8X5X&X&X&X&X5X8X5X5X9XfX5X4X8X4X5X5XfX",
"4X&X8XfX8X8XfXfX9X9X4X4X4X4X5X8X8X5X5X4X4X5X4XfX5X4X5X8XfX5X&X9XfX4X4X8X4XfXzX8X,X4X8X8X8XfXfXzXfX5X4X5X5XfXfXxX9X,X4X4X&X5XfXfX5X4X9X9X5X8X8X5X4X8XfX5X8X5X8X8X8X5X5X8X9X8X4X5X8XfX4X5X8X4X4X5X4X5X4X5X9X9X5X9X8X5X5X5X5X5XfX,X8X5XzXfXfXfX9X9X9X4X,X5X4X4X8XfX",
"5X8X9X5X5XfX9X4X4Xp f f f f f f f f f f f f f f f f f f f f f f f f f f f f f f f f f f f f f f f f f f f f f f f f f f f f f f f f f f f f f f f f f f f f f f f f f f f f f f f f f f f f f f f f f f f f f f f f f f f f f f f f f f p ,X5X9XfX8X8XfX4X4XzXfX",
"5X8X4X4X5X8X4X5X5Xf = * * * * * * * * * * * * * * * * * * * * * * * * * * * * * * * * * * * * * * * * * * * * * * * * * * * * * * * * * * * * * * * * * * * * * * * * * * * * * * * * * * * * * * * * * * * * * * * * * * * * * * * * * f &X8X5X8XzX5X4X4X5X4XfX",
"xXfX5X4X9XfXfXxXfXf * X + + + + + + + + + + + + + + + + + + + + + + + + + + + + + + + + + + + + + + + + + + + + + + + + + + + + + + + + + + + + + + + + + + + + + + + + + + + + + + + + + + + + + + + + + + + + + + + + + + + + + + + < A &X8X4X5X5X5X5X8X8X4X5X",
"5X9X9X5X5X5X8X9X8Xf * +                                                                                                                                                                                                           X = < A &XfX5X4X4X5X8X8X9X5X4X",
"5X8XxX8X9X8XfX8X5Xf * +   o o o o o o o o o o o o o o o o o o o o o o o o o o o o o o o o o o o o o o o o o o o o o o o o o o o o o o o o o o o o o o o o o o o o o o o o o o o o o o o o o o o o o o o o o o o o o o o o o o o o o * < A &X8X4XfX8X4X8X5X8X5X5X",
"8XfX8X5X4X9X8X9XfXf * +   o o o o o o o o o o o o o o o o o o o o o o o o o o o o o o o o o o o o o o o o o o o o o o o o o o o o o o o o o o o o o o o o o o o o o o o o o o o o o o o o o o o o o o o o o o o o o o o o o o o o o * < A &X8X4X5X8XxXfX5X5X5X5X",
"fX9X5X4X5X5X4X4XfXf * +   o o o o o o o o o o o o o o o o o o o o o o o o o o o o o o o o o o o o o o o o o o o o o o o o o o o o o o o o o o o o o o o o o o o o o o o o o o o o o o o o o o o o o o o o o o o o o o o o o o o o o * < A &X&X,X4X5X5XfX8X5X4X4X",
"5XfX5X8X4X4X8X8X8Xf * +   o o o f Z c 5 J.J.J.h h d J.J.J.d d d J.J.J.d d d J.J.J.a a a J.J.J.a a a J.J.J.a a a J.J.J.a p . . . . . . & J.J.J.: , , J.J.J., , , J.J.J., , , J.J.J.2 2 < J.J.J.< < < J.J.J.1 1 q J.J.J.e e p J.f o o * < A &X&X%X,X,X5X5X8X,X4X5X",
"4X4X4X&X8X9XfX&X8Xf * +   o o o J.cX-XcXnX[ nXnX] nXnX] nXnXH nXnX] nXnX] nXnXZ nXnXZ nXnXZ nXnXJ nXnXJ nXnXJ nXnXJ nXnXJ o o o o o o nXnXq nXnXC.nXnXA.nXnXC.nXnXC.nXnXB.nXnXB.nXnXB.nXnXB.nXnXB.nXnXB.nXnXA.nXnXA.nXnXA.zXcXM.@ O * < A &X9X8X8X&X4X8X8X4X4XzX",
"4X4XfX4XxXfXfX9XfXf * +   o o o J.zXcXzX] [ [ nXnXnX] H H nXnXnXH H H nXnXnXH V V nXnXnXB B B nXnXnXH H H nXnXnXH H H nXnXo o o o o o nX- w B.nXnXnXM.M.M.nXnXnXm.] 5.nXnXnXJ J 1.kXnXnXZ 1.5.nXnXnX7.m.V.nXnXnXV.V.G.cXzXcX4XA # @ * < A &X5XfX8X5X8XfXzX8X9X9X",
"fX9X8X5X8XfX,X,XfXf * +   o o o J.cX4XcXzXV.nXnXm.nXnXW nXnXZ nXnXZ nXnX1.kXnXZ nXnXZ nXnXZ nXnXZ nXnXZ nXnX1.nXnX1.nXnX6.o o o o o o nXnXw nXnXj.nXnXj.nXnXj.nXnXg.nXnXg.nXnXi.dXnXi.nXnXg.nXnXg.nXnXk.nXnXk.nXnXv.cXzXaXzXcX>.# @ * < A &X5X9X8X5X8X5X8X8X5X5X",
"fX9X5X5X5X5X&X4X8Xf * +   o o o J.M J.&XcXzXcXi.i.9.aXnXnX9.9.9.nXnXnX9.8.9.nXnXnX9.q.q.nXnXnXw.q.w.nXnXnX0.0.q.nXnXnXq.f.o o o o o o ; nXnXnXc.n.c.nXnXnXc.c.c.nXnXnXc.c.c.nXnXnXc.c.c.nXnXnXc.c.c.nXnXnXc.c.c.nXcXzXaXpXv.nXK.$ @ * < A &X5X5X4X4X&X&X8X8X8X5X",
"9X9X5XcX9X5X&X5X5Xf * +   o o o J.nXH.cXzX5XzXcXi.+X+Xw.nXnX8.nXnXq.nXnX0.nXnX0.nXnXw.nXnX0.nXnX0.nXnX0.nXnXq.nXnXq.nXnX>.o o o o o o nXnXy kX<Xv.nXnXk.nXnXk.nXnXk.nXnXk.nXnXk.nXnXk.nXnXk.nXnXk.nXnXk.nXnXk.nXcXpXcXzXv.nXnX>.$ @ * < A &XfX5X4X8XfX8X4X4X,X4X",
"8X8X9X8X8XzXxXzX8Xf * +   o o o J.nXnXnXa.3X5XzXcX<X8.q.9.nX<XkX9.9.9.nXnXnX9.8.q.nXnXnX8.0.q.nXnXnX0.w.8.dXnXnXq.9.f.nXnXo o o o o o nX- y b.dXnXnXn.k.k.nXnXnXk.k.k.nXnXnXk.k.k.nXnXnXk.k.k.nXnXnXk.k.k.nXnXdX<XaXpXcXnXnXz.>.$ @ * < N &X9X8XfX9X9X5X,X5X&X4X",
"zX5X8X5X5X5X4XzXzXf * +   o o o J.nXG.nXnXs.zXcX3XcXnX9.nXnX9.nXnX9.nXnX8.nXnX8.nXnX9.nXnX9.nXnX8.nXnXq.oX<Xq.nX<Xf.nXnXj.o o o o o o nXnXy nXnX>.nXnXv.nXnXk.nXnXk.nXnXk.nXnXk.nXnXk.nXnXk.nXnXk.nXnXk.nXnXk.3X8X1XcXnXk.nXnX>.$ @ * < N &X4X4X9X8X4X5X&X4X&X4X",
"8X9X8X9X4X&X,X8XfXf * +   o o o J.M G.7.nXnXcX3X5X:XcXnXnX9.9.8.nXnXnX8.2.8.nXnXnX2.2.2.nXnXnX2.8.8.nXnX+X8.8.8.nXnXnXj.n.o o o o o o ; nXnXnXq.q.>.nXnXnXk.k.k.nXnXnXk.k.k.dXiXnXk.k.k.nXnXnXk.k.k.nXnXnXk.<XaXzXcXnXk.k.c.nXK.$ @ * < A &XfX&X4X4X5X4X&X,X5X4X",
"4X8X8X8X&X#X4X,X4Xf * +   o o o J.nXt.nXnXi.nXcX3XcXzXq.nXnX9.nXlX9.nXnX2.nXnX2.nXnX8.nXnX2.nXnX8.nXnX0.lXnX8.nXnXu nXnXk.o o o o o o nXnXy nXnXq.nXnXu nXnXk.oXdXk.nXnXk.nXkXk.nXnXk.nXnXk.nXnXk.nXnXk.cXzXaXzXcXk.nXnXk.nXnX>.$ @ * < A &X9X4X4X5X,X4X,X,X9X5X",
"&X4XfXfX4X,X9X9X,Xf * +   o o o J.nXnXnX<.i.w.nXcXzX2X:Xq.nXnXkX2.8.2.nXnXnX2.2.8.nXnXnX2.2.2.nXnXnX2.0.2.nXnXnXu j.v.nXnXo o o o o o nX; y g.nXnXnXf.>.u nXaXoXk.k.k.nXnXnXk.k.k.nXnXnXk.k.k.nXnXnXk.l.1XcXzXcXk.k.k.nXnXnXz.>.$ @ * < A &X4X9X5X8X4X4X,X4X5X8X",
"8X4XzX8X5XfX8X5X5Xf * +   o o o J.nXa.nXnXi.nXnX9.cXzX1XzXcX2.dXoX8.nXnX2.nXnX2.nXnX2.nXnX2.nXnX2.nXnX2.nXnX:.nXnXv.nXnXk.o o o o o o nXnXy nXnXq.nXnXq.nXnXk.<XlXk.nXnXk.nXnXk.nXnXk.nXnXk.nXnXk.nXcX<XcXzXl.nXnXk.nXnXk.nXnX>.$ @ * < A &X5X4X4X5X5X4XfXxX5X5X",
"xXxXxXxXzX9X8X4X5Xf * +   o o o J.,.6.1.nXnXnX9.9.9.<XzXcX:X9.2.<XkXnX8.8.8.nXnXnX2.2.2.nXnXnX2.8.8.nXnXnX:.u j.nXnXnXk.k.o o o o o o , nXnXnXq.q.q.nXnXnX>.y b.nXnXnXk.k.k.nXnXnXk.k.k.nXnXnXk.x.l.zXcXzXl.k.k.nXnXnXk.k.l.nXK.$ @ * < A &X5X8X4X4X5X5X9X4X4X5X",
"fXfX5X9X9XfX5X,X&Xf * +   o o o J.nX6.nXnXi.nXnX9.nXaX9.zXcX:XcXnX8.nXnX2.nXnX2.nXnX2.nXnX2.nXnX2.nXnXf.nXnXj.nXnXk.nXnXk.o o o o o o nXnXu nXnXq.nXnX3.nXnX>.nXnXXXnXnXk.nXnXk.nXnXk.nXnXk.nXnXl.zXcX1XcXnXk.1XnXk.nXnXk.nXnX>.$ @ * < A &X5X4X8X5X5X5X5X&X4X5X",
"8XfX5X5X5X8X5X&X5Xf * +   o o o J.nXnXnX<.i.w.nXnXnX9.9.q.zXcXzX9.8.2.nXnXnX2.2.2.nXnXnX2.2.2.nXkXnXf.;.t nXnXnXb.k.k.nXnXo o o o o o nX, u w.nXnXkX8.3.q.nXnXnXy f.XXnXnXnXx.k.k.nXnXnXk.k.k.cXzXcX1Xl.l.nXnXnXk.l.k.nXnXnXz.>.$ @ * < A &X8X4X8XfX4X9X8X5X8X8X",
"8X8X8X5X5X4X4X5XxXf * +   o o o J.nX6.nXnXi.nXnX9.nXnX8.nXcX:XcXzX9.nXnX2.nXnX2.nXnX2.nXnX2.nXkX2.nXnXt nXnXk.nX<Xk.nXnXk.o o o o o o nXiXu nXnXq.nXaXq.nXnX3.nXnXy nXnXl.nXnXk.nXnXk.nXnXk.cXzXaXzXcXk.nXnXk.nXnXk.nXnXk.nXnX>.$ @ * < A &X5X&X4XfX8X8X9X5X4X8X",
"fX8X5X4X4XfXfX8X9Xf * +   o o o J.1.6.,.nXnXnX9.9.8.nXnXnX2.9.:XcXzXdX2.2.2.nXnXnX2.2.2.nXnXnX2.w.;.nXnXnXk.k.k.nXnXnXk.k.o o o o o o , nXnXnXq.q.q.nXnXnX3.3.3.nXnXnXf.XXl.nXnXnXk.k.k.nXdX1XaX1Xl.nXnXnXx.k.k.nXnXnXk.l.l.nXK.$ @ * < A &X&X5X5X5X5X9X8X5X4X8X",
"8XfX8X8X&X8XfX8X9Xf * +   o o o J.nX6.nXnXi.nXnX9.nXnX2.nXnX8.cXzX1XOXkX2.nXnX2.nXnX2.nXnX2.nXnX;.nXnXc.nXnXk.nXnXk.nXnXk.o o o o o o nXnXy nXnXq.nXnXq.nXnXq.<XnXg.nXnXw.nXnXl.nXnXk.nXcXoXoXzXz.nXnXx.nXnXk.nXnXk.nXkXk.nXnX>.$ @ * < A &X&X8X,X8X5X,X&X8X8X4X",
"8X9X8X5X,X5XfX9X9Xf * +   o o o J.nXnXnX<.i.q.nXnXnX9.8.9.nXnXnX9.:X1XzXcXnX2.2.2.nXnXnX8.9.w.nXnXnXv.k.x.nXnXnXk.l.l.nXnXo o o o o o nX; y g.nXnXnXq.q.q.nXnXaX9.q.q.nXnXnXXXg.l.nXnXcX1XOX|.cXnXnXk.x.l.nXnXnXk.k.l.@XnXnXz.>.$ @ * < A &X,X5X4X&X&X&X8X5X8X4X",
"8X5X8X4X4X8X8X9X4Xf * +   o o o J.nX6.nXnXi.nXnX8.nXnX2.nXnX2.nXnX9.zXcX:XcXnX2.nXnX2.nXnXw.nXnXz.nXnXx.nXnXk.nXnXl.nXnXk.o o o o o o nXnXy nXnXq.nXnXq.nXnXq.nXnXq.nXnXq.nXnXXXnXnXz.zXcX1XkXnXl.nXnXx.nXnXl.nXnXl.nXnXl.nXnX>.$ @ * < A &X4X8X5X,X&X8X8X8X8X4X",
"zXzX9X8X4X5X9XxX5Xf * +   o o o J.6.<.,.nXnXnXq.9.9.nXnXnX8.8.8.nXnXcX:X1X:XcXnXnX2.2.w.nXnXnXl.v.x.nXnXnXk.x.x.nXnXnXl.l.o o o o o o w nXnXnXy.y.q.nXnXnXq.q.q.nXnXnX3.q.9.nXnXnX}.1XaXzXcXnXl.l.l.nXnXnXk.l.l.nXnXnXl.l.l.nXK.$ @ * < A &X4X8X8X5X4XfX8X5X5X4X",
"fXfXfX4X&X#X9X5X4Xf * +   o o o J.nX<.nXnXi.nXnX9.nXnX8.nXnX8.nXnX2.nXcX:XcXzXq.nXnX2.nXnXu nXnXx.nXnXx.dXkXk.nXnXk.nXnXl.o o o o o o oXkXy nXnXy.nXnXq.nXnXq.nXnXq.nXnXq.nXnXy cXzXaXzXcXl.nXnXl.nXnXl.nXnXl.nXnXl.nXnXl.nXnX>.$ @ * < A &X4X8XfX9X4X5XfX8X9X8X",
"5X4X,X%X&X&X9X4X,Xf * +   o o o J.nXnXnXd.i.9.nXnXnX9.8.8.nXnXnX8.2.8.nXcXzX2X:X9.nXnXnXu z.v.nXnXnXk.k.f.<XnXnXk.l.k.nXnXo o o o o o oX; y h.nXnXnXy.q.q.nXnXnXq.q.q.nXnXnXq.y. XcXzXcXz.l.l.nXnXnXl.l.z.nXnXnXz.z.z.nXnXnX}.>.$ @ * < A &X5X5XfXxX4X5X4X8X9X8X",
"4X5X5X4X5X5X4X8X5Xf * +   o o o J.nX<.nXnXi.nXnX9.nXnX9.nXnX9.nXnX2.nXnX9.cXzX2XzXcXu nXnXv.nXnXx.nXnXx.oX<Xk.nXnXl.nXnXl.o o o o o o dXnXy nXnXy.nXnXq.nXnXq.nXnXq.nXnXq.nXcX>XcXzX9.nXnXl.nXnXz.nXnXl.nXnXz.nXnXz.nXnXz.nXnX>.$ @ * < A &X8XfX8XfX8X5X8X8X5X8X",
"9XfXfX8X8X8X5X8X5Xf * +   o o o J.6.<.,.nXnXnX9.9.9.nXnXnX2.2.8.nXnXnX2.2.3.cXzXcX Xm z.nXnXnXx.l.k.nXnXdXx.k.k.nXnXnXl.l.o o o o o o > nXnXnXy.y.y.nXnXnX9.q.y.nXnXnXq.q.i.zXcXzXp.y 2.nXnXnXz.z.z.nXnXnXz.z.z.nXnXnXz.z.z.nXK.$ @ * < A &X9X8X8XfX5X8X5X5X5X4X",
"8XfXfXfXxXxXxXfX9Xf * +   o o o J.nX<.nXnXi.nXnX8.nXnX9.nXnX8.nXnX2.nXnX9.kXdXi.zXxXiXcXnXx.nXnXl.nXnXl.nXnXl.nXnXl.nXnXz.o o o o o o nXnXy nXnXy.nXnXy.dXoX9.nXnXy.nXnXy.zXcX>XcXnXy.nXnXXXnXnXz.nXnXl.nXnXz.nXnXz.nXnXz.nXnX>.$ @ * < A &XfXfXfX5X8X8X8X8X5X4X",
"4X9XfXfX5XfXfX8X8Xf * +   o o o J.nXnXnXd.i.e.nXaXnX9.9.8.nXnXnX9.2.9.nXnX<X0.y ,.zXcXzXz.l.l.nXnXnXl.l.l.nXnXnXl.l.z.nXnXo o o o o o nX; u h.nXnXnXy.y.y.oXdXnXq.y.y.cXzXcX>Xy.y.nXnXnXy >.XXnXnXnXz.z.'.nXnXnXz.z.z.nXnXnX}.>.$ @ * < A &X9XfX9X8X8X8X9X4X8X5X",
"9X5X5X5X4X5X5XfX8Xf * +   o o o J.nX<.nXnXi.nXnX9.nXnX9.nXnX8.nXnX9.nXnXw.<X+Xm nXcX1XcXzXz.nXnXl.nXkXl.nXnXl.nXnXl.nXnXz.o o o o o o nXnX;.kXnXy.nXnXy.nXkXy.nXnXy.cXzX2XzXkXq.nXnXy.nXnXu nXnX.XnXnX'.nXnX'.nXnX}.nXnXz.nXnX>.$ @ * < A &X4X4X5X5X8X8X9X5X9X8X",
"9X5XfX8X4X4X8XfX5Xf * +   o o o J.a.<.,.nXnXnXe.9.9.nXnXnX9.8.9.nXnXnX9.w.i kXnXnXj.z.1XzXfXcXl.l.l.OXnXnXl.l.l.nXnXnXz.z.o o o o o o > nXkX@Xi.y.y.nXnXnXy.y.y.nXcXzX2X>Xp.kX2XnXy.y.q.nXnXnX>.XX.XnXnXnX}.}.'.nXnXnX}.'.'.nXK.$ @ * < A &X8X9XfX5X8X9X8X9X9X5X",
"4X5X8X8X5X4X8X8X4Xf * +   o o o J.nX<.nXnXj.nXnXe.nXnX9.nXnX9.iXnX9.nXnXi nXnXz.nXnXl.cX1X<XzXcXz.nXkXz.nXnXz.nXnXz.nXnX'.o o o o o o nXnX;.lXnXy.nXnXy.nXnXy.nXcX>XcXzXp.nXnXy.nXnXy.nXnXi.nXnX:.nXnXz.nXnX'.nXnX'.nXnX'.nXnX<.$ @ * < A &XfXfXfX4X8X9X8X8X8X8X",
"8XfXfX8X5X5X8X9X9Xf * +   o o o J.nXnXnXr.g.i.nXnXnX9.9.9.nXkXaX9.y.i.nXnXnXz.l.l.nXnXnX'.1XaXzXcXnXz.z.z.nXnXaXz.z.z.nXnXo o o o o o nX; ;.[.nXnXnXy.y.y.nXnXcX>X5X>XcXnXnXy.y.y.nXnXnXy.y.y.nXnXnXXXXX'.nXnXnX'.'.'.nXnXnX.X<.$ @ * < N &X8X8X5XfX9X8X5X4X5X4X",
"8X9X8X8X8X5X5X5X4Xf * +   o o o J.nX6.nXnXg.nXnXe.nXnX9.nXnX9.nXnXq.nXnX.XnXnXl.nXnXl.nXnXz.zXcX1XcXnXz.nXnXl.aXkXz.nXnXz.o o o o o o nXnXu nXnXy.nXnXy.nXnXy.zXcX>XcXnXy.nXnXy.nXnXy.nXnXy.nXnXh.nXnXXXnXnX}.nXnX'.nXnX'.nXnX<.$ @ * < N &X9X8X,X8X5X8X8X,X4X4X",
"5X9X4XfX8X4X9X4X&Xf * +   o o o J.t.6.,.nXnXnXe.e.9.nXnXnX9.9.y.nXnXnXXXz.z.nXnXnXl.z.z.nXnXcX2XaX1XcXnXnXz.z.z.nXnXdXl.'.o o o o o o > nXnXnXp.p.p.nXnXnXp.>X5XzXcXnXy.y.y.nXnXnXy.y.y.nXnXnXy.i.h.nXkXiXXX'.'.nXnXnX}.'.}.nXK.$ @ * < A &X4XzX4X,X5X5XfX8XfXfX",
"5X9XfXfX8X9X8X4X4Xf * +   o o o J.nX6.nXnXi.nXnXe.nXnX9.nXnXi.nXnX,.nXnXz.nXnXz.nXnXz.nXnXz.nXcX1XcXzX'.nXnXz.nXnX'.OX+X'.o o o o o o nXnX;.nXnXp.nXnXy.5XzX5XzXcXu.nXnXy.nXnXy.nXnXy.nXnXy.lXOXy.nXnX4.iXnXXXnXnX'.nXnX].nXnX<.$ @ * < A &X4X5X5X4X4X8X8X4X8X8X",
"8X,X5X8X5X%X4X5X9Xf * +   o o o J.nXnXnXr.j.p.nXnXnXe.e.e.nXnXnX<.XXz.nXnXnXz.z.z.nXnXnXz.z.z.nXcXzXaX1X'.nXnXnX'.'.j.OXnXo o o o o o nX; u [.nXnXnXu.p.+XcXzXcXy.y.y.nXnXnXy.y.y.nXnXnXy.i.y.oX2XnXy.h.,.nXnXnX'.'.}.nXnXnX.X6.$ @ * < A &X&X4X4X8X9X5X5X5X4X9X",
"5X4X8X4X&X&X,X4X8Xf * +   o o o J.nX6.nXnXs.nXnXr.nXnXe.nXnXt nXnXj.kXnXz.nXnXz.nXnXz.nXnXz.nXnXz.cXzXaXzXcX'.nXnX'.nXkX].o o o o o o nXnX;.nXnXp.nXcX3XcXzXp.nXnXp.nXnXu.nXnXu.nXnXu.nXaXp.lX+Xy.nXnXp.nXnXu nXnX].nXnX|.nXnX6.$ @ * < A &X X4X9X9X8X5X4X5X5X8X",
",X8X4X8X5X5X8XzX8Xf * +   o o o J.G.6.1.nXnXnXr.r.r.nXnXnXt <.XXnXiXkX'.z.z.nXnXnXz.'.'.nXnXnX'.'.z.cXzXcX1X'.'.nXnXnX].'.o o o o o o > nXnXkXp.p.F.zXcXzXp.u.p.nXnXnXu.u.u.nXnXnXu.u.y.2XlXnXy.p.p.nXnXnXh.,.u nX<XdX.X.X.XnXK.$ @ * < A &X,X5X5X5X8XfX8X8X8X5X",
"4X8X4X5X8X8X4X5X8Xf * +   o o o J.nX7.nXnXs.nXnXr.nXnXe.nXnXXXnXnX'.nXnX'.nXnX'.nXnX'.nXnX'.nXnX'.nXnX].5XfX2XcXnX].nXnX].o o o o o o nXnXu kX2XF.zXcX3XcXnXp.nX<Xp.nXnXp.nXnXp.nXnXp.nXnXp.nXnXp.nXnXp.nXnX[.nXkXi.<XnX|.nXnX6.$ @ * < A &X4X9X5X5X5X5XfX8X5X8X",
"5X4X&X%X5X8X5X%X4Xf * +   o o o J.nXnXnXt.p.p.nXnXnXe.i 6.nXlXkX'.'.'.nXnXnX'.'.'.nXnXnX'.'.].nXnXnX].].[.8XcXzX|.].].nXnXo o o o o o nX; 4.`.cXzXcX,XF.F.nXnXnXp.p.p.nXnXnXp.i.p.nXnXnXp.p.p.nXnXnXp.F.F.nXnXnX<.;.j.nXnXnXoX6.$ @ * < A &X4X9X9XfX9X9X&X4X8X5X",
"5X5X5X5X5X8X9X8X4Xf * +   o o o J.nX7.nXnXp.nXnXs.nXkX9.nXnXj.+XnX'.nXnX'.nXnX'.nXnX'.iXnX'.nXnX'.nXnX'.nXcX5XcXzX].nXnX].o o o o o o nXnXm cXzX5XzXcXt.nXnXt.nXnXp.nXnXp.nXnXe.nXnXp.nXnXp.nXnXp.nXnXp.nXnXp.nXnX<.nXnX<XnXnX6.$ @ * < A &X5X5X4X8XfXfX5X8X5XfX",
"8XfX8X%X4X9XxXxXfXf * +   o o o J.G.7.M nXnXnXs.e.t nXnXnX].j.i.nXnXnX].].].nXnXnX].].j.nXnXnX].].].nXnXnX].].5XcXzXdX[.].o o o o o o ; nXcXzX5X,XF.nXnXnXt.t.F.nXnXnXt.p.p.nXnXnXp.p.p.nXnXnXp.F.F.iXnXnXp.p.F.nXnXnXu [.<XnXK.$ @ * < A &X8X4X,X4X5XfX&X8X8XfX",
"8XzXxX8X8XxXxX8XfXf * +   o o o J.nX7.nXnXp.nXnXr nXnX].nXnX[.dXnX'.nXnX[.kXnX].nXnX].nXnX].nXnX].nXnX].nXnX].cXzXsX8X2X|.o o o o o o nXcX%XcXzXF.nXnXF.nXnXt.nXnXF.nXnXt.nXnXt.nXnXp.nXnXp.nXnXp.nX<XF.nX<XF.nXnXF.nXnXm nXnX6.$ @ * < A &X5X5X8X8X5X5X5X8X&X5X",
"5X4XfX8X8X8XfX%X8Xf * +   o o o J.nX<XkXs.[.6.nXnXnX].].[.nXnXnX[.].].nX2XdX].[.].nXnXnX[.].].nXnXnX].].].nXnXnX|.5XsXzXcXo o o o o o cXH.4X2XdXnXnX`.`.`.nXnXnX`.`.`.nXnXnX`.`.`.nXnXnX`.`.`.nXnXnX`.`.{.nXnXnX{.{.].nXnXnX{.G.$ @ * < A &X9X,X5X5X8XxXzX5X&X4X",
"8X4X8X8X8X5X4X4X5Xf * +   o o o J.nXM nXnX6.nXnX+XnXnX].nXnX].nXnX].nXnX].nXnX].nXnX].nXnX].nXnX].nXnX].nXnX].nXnX XzXcX5Xo o o o o o zXcX{.aXdXu nXnXu nXnXm nXnXm nXnXm nXnX4.nXnX,.nXnX,.nXnX1.nXnX<.nXnX<.nXnXa.nXnXB.nXnXM $ @ * < A &X8X8X8X8X,X5XzXfX4X4X",
"5X4X&X5XfX8X4X9X5Xf * +   o o o J.#XZ 7.nXnXnXiX@X@XnXnXnX@XOXOXnXnXnXOXOX@XnXnXnX@X@XOXnXnXnXOX<X:XnXnXnX:X3X:XnXnXcXfXxXo o o o o o cXzXcXnX- - - nXnXnX; ; ; nXnXnX; ; ; nXnXnX; ; ; nXnXnX; ; ; nXnXnX; ; ; nXnXnX, , , nXK.$ @ * < A &X8X4X5X8X&X8XfX5X5X4X",
"8X9X4X,X4XfXfXfXfXf * +   o o o . o o o o o o o o o o o o o o o o o o o o o o o o o o o o o o o o o o o o o o o o o o o o o o o o o o o o o o o o o o o o o o o o o o o o o o o o o o o o o o o o o o o o o o o o o o o o o @ + $ @ * < A &X9X8X,X4X8X5X4X4X5X5X",
"fXfX8X8X&X9X8X4X,Xf * +   o o o . o o o o o o o o o o o o o o o o o o o o o o o o o o o o o o o o o o o o o o o o o o o o o o o o o o o o o o o o o o o o o o o o o o o o o o o o o o o o o o o o o o o o o o o o o o o o o @ + $ @ * < A &X5X4X5X5XfX5X&X5X5X8X",
"8X8X5X9X9X4X&X5X%Xf * +   o o o . o o o o o o o o o o o o o o o o o o o o o o o o o o o o o o o o o o o o o o o o o o o o o o o o o o o o o o o o o o o o o o o o o o o o o o o o o o o o o o o o o o o o o o o o o o o o o @ + $ @ * < A &X9X9XfXzXfXfX4X8X5X8X",
"4X4X5X9XfXfXfX8XfXf * +   o o o . o o o o o o o o o o o o o o o o o o o o o o o o o o o o o o o o o o o o o o o o o o o o o o o o o o o o o o o o o o o o o o o o o o o o o o o o o o o o o o o o o o o o o o o o o o o o o @ + $ @ * < A &XfXzXfX8X,X,X5X5X8XfX",
"5X&X4X9X9XzXfX5XfXf * +   o o o . o o o o o o o o o o o o o o o o o o o o o o o o o o o o o o o o o o o o o o o o o o o o o o o o o o o o o o o o o o o o o o o o o o o o o o o o o o o o o o o o o o o o o o o o o o o o o @ + $ @ * < A &XfXzX8X4X4X8X5XfX8X5X",
"4X8X8X9X9XxXfX8X5Xf * +   o o o . o o o o o o o o o o o o o o o o o o o o o o o o o o o o o o o o o o o o o o o o o o o o o o o o o o o o o o o o o o o o o o o o o o o o o o o o o o o o o o o o o o o o o o o o o o o o o @ + $ @ * < A &X5XfX8X4X5X9X8XfX8X8X",
"5X4X8X8X5X8X9X5X5Xf * +   o o o J.nXf nXnXf nX1X,.kXnXM.nXnXm.nXnXA nXnX1.nXnX7.nXnXH.nXnXJ.kXoXG.nXnXJ.nXnXJ.nXnXJ.cXzX9Xo o o o o o cXzXT.nXnX#.nXnXo.nXnXO.nXnXO.nXnXR.nXnXW.nXnXY.nXnX..nXnXD.nXnXI.nXnX).nXnX=XnXnX).nXnXq $ @ * < A &X8X8X8X5X4X5X9X8X5X5X",
"8X4X5X8X4X5XfX8XxXf * +   o o o J.Z c Z nXnXnXM ,.7.nXnXnXM.B.A nXnXnXg g M nXnXnXc A ] nXnXnXZ 1.B.nXnXnXM.B.S.nXcXzX5X4Xo o o o o o K.zX5XcX#.#.#.nXnXnX#.@.#.nXnXnX@.G L nXnXnXL.S.D.nXnXnX( S.R.nXnXnXU. .Y.nXnXnX} ).U.nXK.$ @ * < A &X5X4X8XfX4X5X8X5X5X4X",
"8XfX5X4X5X5X8X9X9Xf * +   o o o J.nXN nXnXV.nXnXf nXnXM.nXnXB.nXnXW nXnXg nXnXk nXnXd nXnXk nXnXc nXnXJ nXnXW dXcX*XcXzXM.o o o o o o cXsX%XzXcXU.nXnXU.nXnXY.nXnXU.nXnXK nXnX .nXnX_ nXnX).nXnX..nXnXY.nXnX .nXnX^.nXnXC.nXnXd $ @ * < A &X5XfX9X8XfX9X8X,X4X8X",
"8X8X8X5X9X8X4X,X5Xf * +   o o o 1 nXnXnXV.7.V.nXnXnX] N J nXnXnXd j j nXnXnXk j k nXnXnXj s s nXnXnXj l } nXnXcX$X-X#XcXnXo o o o o o nX} wX4XzXcXnX` ` ..nXnXnXP.P.&.nXnXnXx R _ nXnXnXQ #.| nXnXnXI ' T.nXnXnX=X).T.nXnXnX{ F $ @ * < N &X9X5XfXfX5X8X8X4X&X5X",
"8X8XfX4X4X5X8X5X8Xf * +   o o o J.nXZ nXnX7.nXnX] dXnXA nXnXA nXnXj nXnXB nXnXj nXnXj <XnXs nXnXj nXnXs nXnXE zXcX#XcXnXx o o o o o o nXnX} zXcX;XcXnX .nXnX%.nXnX$.nXnXH nXnX6 nXnXz nXnX_ nXnXR nXnXI nXnXQ.nXnXtXnXnXu nXnXn $ @ * < N &X9X4X5XxX4X4X4X5X5X8X",
"8X5X,X5X&X4XfXfXxXf * +   o o o J.M.Z Z nXnXnXC Z M nXnXnXg g d nXnXnX5 j W nXnXnXj a g nXnXnXj 6 l nXnXnX) $X-XzXcXnXb z o o o o o o < nXnXcX$X-X-XcXnXnXC...T.nXnXnX&.K v nXnXnXz z z nXnXnXR R R nXnXnXU.Q.U.nXnXnXr C.tXnXK.$ @ * < A &X9X4X4X9X5X4X4XfXfXfX",
",X&X#X,X,XfXfXfX8Xf * +   o o o J.nX] nXnXC nXnXZ nXnXp nXnXf nXnXa nXnXk dXnXj nXnX5 nXnXb nXnXn nXnXl cXzX-XzXcX) nX<X) o o o o o o nXnX/ nXcX$XxXzX^.nXnXI.nXnX .nXnXK nXdXr nXnXx nXnXl nXnX8 nXnXI nXnXE.nXnXg nXnX).nXnXx $ @ * < A &XfX9X5X5X4X4X5X5X5X8X",
"&X%X&X4X5X9XzXfX4Xf * +   o o o a nXnXnX7.C C nXnXnXZ A e nXnXnXs p s nXoX<Xj 5 5 nXnXnX6 b | nXnXnXn j (.cXzXcX)  .} nXnXo o o o o o nXb E R nXcXzXyXyX).nXnXnX} R 6 nXnXnXc d b nXnXnXl x b nXnXnXR 8 R nXnXnXr r C.nXnXnX).l $ @ * < A &XfX5X8X9X9X8X9XfXzXfX",
"9X8X8X8X5X4X8XfXfXf * +   o o o J.nXZ nXnXC nXnXC nXnXN nXnXg nXnXd nXnXm 2XnX5 nXnXj nXnXc nXnXl nXcX#XcXzXz nXnX} nXnXR o o o o o o nXnX8 nXnXz 1XsXyXzXxX~.nXnX6 nXnXx nXnXx nXnXh nXnXd nXnXz nXnX8 nXnX} nXnXC.nXnX!.nXnX4 $ @ * < A &X8X5XfXxXfXfXfXxXxXxX",
"4X4X4X4X5X5X5XzX8Xf * +   o o o J.N.W A nXnXnXA A f nXkX<Xp e p nXnXnXs j j nXnXnXj j 5 nXnXnX6 l k zXcXzXj z 6 nXnXnXR z o o o o o o < nXnXnX8 z M 2XzXxXyX~.c nXnX2Xb l l nXnXnXd c [ nXnXnXb R 8 iXdXnXH r u nXdXlXY.^.tXnXK.$ @ * < A &XfX9XfX9X8X9X9X9XfXzX",
"5X4X&X4X8X8X5XzXfXf * +   o o o J.nXZ nXnXZ nXnXA nXnXA dXnXf nXnXp nXnXj nXnXj nXnXs nXnXs nXnXs 8XcX(.cXnXl nXnX8 nXnX6 o o o o o o nXnXR.nXnXl oXdXc zXcXyXcXnXe dXkXx nXnXb nXnX] nXnX} nXnX_ nXdXR nXnXt nXnXwXkXnX^.nXnXd $ @ * < A &X8X5X5X,X4X8X9XfX9XfX",
"9XfX4X8X5X5X5X8X8Xf * +   o o o d nXnXnXA.A.A.nXnXnXN.A.M.nXnXnXp A Z nXnXnXs l j kXnXnX6 6 5 xXsX3XeXa l nXnXnX9 Y z nXnXo o o o o o nX) X.E nXnXkXs c J zXcXzXs z z nXnXnXz ) ) nXdXnX}  . .nXnXnXR 6 r nX2X+X-.=.~.nXnXnXP.5 $ @ * < A &X9X5X4X4X5X8X8X8X8X8X",
"8X4X5X5X8X5X5X8X8Xf * +   o o o J.nXZ nXnXL.nXnXA.nXnXL.nXnXA.nXnXd nXnXq nXnXB nX@XB nXnXb xXzX4XzXcXc nXnXc nX2X) nXnXV o o o o o o nXnX_ nXnXR nXnXJ nXcXyXcXzX) nXnXz nXnX/ nXlXE nXnX} nXnX} nXnXt nXnXE oXnX! nXnX' nXnX7 $ @ * < A &X5XfXfXfXxX&X#X8X5X8X",
"8X5XfXfXxXzXfXxXfXf * +   o o o J.M.V Z.nXnXnXR.I.I.nXnXnXI.S.S.nXnXnX] ] Z nXnXnXM.M.m.nXcXzXqX-XA.nXnXnXJ J M.dXkXnXm.m.o o o o o o < nXnXnX( _ R nXnXnXC.A.4XcXzXcXC.b 9 nXnXnXI I ) nXnXnXH S.c nXnXnXU E E nXnXnXQ Y T nXK.$ @ * < A &X&X5X8X5X5X4X8X8X8X9X",
"5XfX9XzX8X8X5X8X9Xf * +   o o o J.nXV nXnX=XnXnX=XnXnX/.nXnXE.nXnX).nXnXE.nXnXE.nXnXR.nXcXqXcXzXE.nXnXR.nXnXI.nXnXS.nXnXI.o o o o o o lXnX/ nXnX_ nXnX_ nXnXR.cXzXyXzXcXR.nXnXI nXnX6 nXnX..nXnXc nXnXF nXnXR nXnXQ nXnX~ nXnX7 $ @ * < A &X#X5X4X4X4X4X5X5X4X9X",
"8XzXfXfX9X4X&X4XfXf * +   o o o d nXnXnX/./.^.nXnXnXL.R.S.nXnXnX/.^.=XnXnXnXS.A.S.nXnXcXqX0XqXcXnXnXR.R.E.nXnXnXE.E.E.nXnXo o o o o o dX} ( / nXnXnX_ _ ) nXnXnX).yXuX8XkXnX4 8 8 nXnXnXX.' %.nXnXnXc ~.~.nXnXnXI U R nXnXnX/ 5 $ @ * < A &X8X5X&XfX8X4X4XfX5X,X",
"8X5X5X5X4X#X4XzXfXf * +   o o o J.nXV nXnX] nXnXd nXnXS.nXnX^.nXnXR.nXnXC.nXnXC.nXnXA.zXcXwXcXnXZ.nXnXD.nXnXR.nXnXR.nXnX/.o o o o o o nXnX( nXnXR nXnX9 nXnX/.nXnX).zX3X5XcXnXI nXnXI nXnX%.nXnXt nXnX| nXnX%.nXnXz nXnX~ nXnX5 $ @ * < A &X8XfX5XxX8X4X9X8XfX5X",
"5X4X8X9X4X5X8X9X8Xf * +   o o o J.m.V Z nXnXnXd a D.nXkX2X/.).).nXnXnX=XtXA.nXnXnXE.qXuXzXcXnXE.L.R.nXnXnX^.E.E.nXnXnX/./.o o o o o o < nXnXnX_ ) _ nXnXkXz _ I.nXnXcX0XxX#XcXnXnX6 6 6 nXnXnXt x =.nXnXnX| P.%.nXnXnXR U R nXK.$ @ * < A &X5X5X9X5X4X5X8X5X8X8X",
"fXfX8XfX9XfXfXzXxXf * +   o o o J.nXN nXnXh nXnXh nXnXR.dXnX^.nXnXE.nXnX/.nXnXV cXzX0XzXcXE.nXkXG.2XnXE.nXnXR.nXnXR.nXnX| o o o o o o nXnX!.nXnX .nXnXx 2XdX} nXnX).nXcXyXcXzXz nXnX8 nXnXq nXnX=.nXnX..nXnX| nXnX%.nXnXd nXnX5 $ @ * < A &X4X&X4X8X9X5X5XxXfXfX",
"9X9XfX8X5XfXfX8X9Xf * +   o o o d nXnXnXV v B nXnXnXS.A.Z nXnXnXL.R.R.nXnXnXC.A *XcXzXcXD.^.R.kXoX2XE.I.f nXnXnXc ] N nXnXo o o o o o nX] |  .nXnXnXF F _ nXnXnX=X=X=XnXcXzX-X(.Q nXnXnXq r 5 nXnXnX! ! ' nXnXnXC.S.$.nXnXnXz 4 $ @ * < A &X,X4X9XfXfX5X5X,X,X4X",
"8XfX8X5X4X4X4X8X8Xf * +   o o o J.kXN nXnXc nXnX1 nXnX/.nXnX/.nXnX/.nXnX^.nXcXqXcXzXE.nXnX^.nXnXR.lXnXE.nXnXR.nXnXA.nXnXW o o o o o o nXnX) nXnXl nXnXl nXnX] nXnX^.nXnXj cXzX%XfXcX9 nXnX5 nXnXQ nXnXI nXnX..nXnX{ nXnX~.nXnXl $ @ * < A &X4X5X9X5X4X8X9X8X5X5X",
"4X,X4X,X4X5X,X8X5Xf * +   o o o J.7.A k nXnXnXa 3 D.nXnXnX=X).).nXnXnX;X=X$XzXcXzX[ M.).nXnXnXI.I.I.nXnXnXE.R.E.nXnXnXE.) o o o o o o < nXnXnXb b } nXnXnXj c C.nXnXnXZ k j kX|.3X(.r t nXnXnX! Q ! nXnXnX! ' ..nXnXnX| D.P.nXK.$ @ * < A &X9XzX4X&X8XfX9XfX5X4X",
"&X5X4X5X5X5X5X8X5Xf * +   o o o J.nXB nXnXh nXnXp nXnXS.nXnXC.nXnXC.nXnX[ 1XcX4XcXnXp nXnXh nXnXB nXnXV nXnXV nXnXJ nXnXb o o o o o o nXnXb nXnXx nXnXl nXnXa nXnXa nXnXg nXlXM 3XcX XcXnXT nXnX8 nXnX! nXnX9 nXnXD.nXnX{ nXnXb $ @ * < A &XfX8X8X9X8X8X8X5X5X4X",
"4X8X8XzXfXfX8XfX9Xf * +   o o o a nXnXnXa d d nXnXnXB.N.W OXnXnXL.Z f cXzXxX&XM.[ nXnXnXf N c nXnXnXd f N nXnXnXN N N nXnXo o o o o o nXb R ) nXnXnXx d d nXnXnXe s [ nXnXnXs e r zXcXzX^ ^ 7 nXnXnXY I 8 nXnXnX^ %...nXnXnXL.J $ @ * < A &X8XfXfX9X4X8X8X4X5X5X",
"8X5X4X5X9X9X5X&X8Xf * +   o o o J.nXN nXnXV nXnXB nXnX] <XoX] nXnX] cXzX4XzXcXJ nXnX7.nXnXA nXnXc nXnXc nXnXJ aXnX] nXnXV o o o o o o nXnX) nXnXb nXnXb nXkXd nXnXf nXnXB nXnXe nXcX_.cXzX8 nXnXU kX1XQ nXnX9 nXnX' nXnXD.nXnXV $ @ * < A &X4X5X8X8X5X5X9X9XfXfX",
"fX8X,X4X5XzX5X4X9Xf * +   o o o J.Z V C.nXnXnX[ [ H nXnXdXM B B nXcXzX4X$XV nXnXnXB C ] nXnXnXB c B nXnXnXc A M aXnXnXv B o o o o o o 2 nXnXnX] [ ] nXnXnXM g s nXnXnXs ] V nXnXnX$.! (.cXzXxX5 ~ Q dXnXnXI 9 8 nXnXnX%.%.P.nXK.$ @ * < A &X4X%X4X5X5X8X8X8X5XfX",
"fXzXfX8X5X4X5X8X9Xf * +   o o o J.nXZ nXnX[ nXnXH nXnXZ nXnXV nXcX&XcXzXH nXnXB nXnXB nXnXc nXnXA aXnXc nXnXA oXdXc nXnXc o o o o o o nXnXM.nXnX] nXnXV nXnXc nXnXZ kXaXB nXnX1 nXnX| nXzX-XzXxXI nXnXI nXnXQ nXaXR nXnX' nXnXn $ @ * < A &X5X4X&X8XfXfX8X9X9X4X",
"fXfX9XfX9X5X4X4X,Xf * +   o o o a nXnXnX{ [ ] nXnXnX] H H nXnXcX$X4X&XcXnXnXv V V nXnXnXV ] c nXlXnXc c B nXnXdXB Z V nXnXo o o o o o nX[ { ] nXnXnX] V { nXnXnX[ [ C.aXnXnXe d } nXnXnX..(.-XzXcXnXU Y I nXnXnXW E _ nXnXnX..x $ @ * < N &X5X8XfXzXfX9X8XfX8X8X",
"8X4X9X8X8X5X5X5X4Xf * +   o o o J.nXZ nXnX] nXnXH nXnXV nXnXZ zXcX$XcX2Xv nXnXV nXnXV nXnXV nXnXp nXnXc nXnXc nXnXV nXnXH o o o o o o nXnXC.nXnX] nXnXB nXnX$.nXnXY.nXnXt nXnXe kXdXU.nXnXI zXxX(.cXnXU nXnXU nXOXE nXnX' nXnXn $ @ * < N &X9X8XxXxXfXfX9X9X8X9X",
",X9X9X8X4X8X8X4X8Xf * +   o o o J.Z Z { nXnXnXH H V nXnXnXJ $X4XzXcXnXA B V nXnXnXV V V nXnXnXH d 1 nXnXnXc c c nXnXnXc v o o o o o o < nXnXnX[ 7.[ nXnXnX).~.^.nXnXnXr { tXnXnXdXP.~.' nXnXcX_.-X(.cXnXnXI 8 8 lXnXnXR X.' nXK.$ @ * < A &X4X8X9XfXfX9X9X5X4X4X",
"5XfX5X8X5X9X5X9XfXf * +   o o o J.nXZ nXkX] nXnXJ nXnXV cXzX4XzXcXv nXnXV nXnXV nXnXv nXnXB nXnXH nXnXB nXnXc nXnXv nXnXB o o o o o o nXnX{ nXnX[ nXnXV nXnX=XnXnXe nXnXuXnXnXe nXnX~.nXnXU nXcX$XcXzX) nXnXI nXnXR nX@XQ nXnX9 $ @ * < A &X5X9X8X8X8X8X8X8X4X%X",
"9XfX,X4X8X4X4XfXfXf * +   o o o a nXnXnX7.] ] nXnXnXV ] &XcXzXcXB B v nXnXnXV v B nXnXnXc v v nXnXnXa p c nXnXnXc c v nXnXo o o o o o nX{ { { nXnXnX} H F nXnXnXe r | nXnXnX..s p nXnXnX( / z nXcXzX-X(.) nXnXnXR I Q nXnXnXX.7 $ @ * < A &X5X9X8XfX5X4X5X5X9X4X",
"5X4X%X5X5X4X5X8X8Xf * +   o o o J.nXZ nXkX] nXnXZ nXcX$XcXzXV lXnXv nXnXv nXnXv nXnXc nXnXv nXnXV nXnXa nXnXc nXnXc nXnX[ o o o o o o nXnX{ nXnX[ nXnXH nXlX} nXnXM.nXnX).nXnXf nXnXU.nXnXI nXnXQ cXzX;XzXcX( nXnXQ nXnX~ nXnX7 $ @ * < A &X8X8X9X8X4X8X9X9X4X4X",
"fX5X,X8X,X4X5X8X9Xf * +   o o o J.V [ A.nXnXnX[ [ N.zXxXzX] Z C nXnXnXB V V nXnXnXV B V nXnXnXv B V nXnXnXp B c nXnXkXf H o o o o o o < nXnXnX] ] H nXnXnXM e t nXnXnX%.~.!.nXnXnXY.U.!.nXnXnX9 I Q cXzXcX$X_ Q nXnXnX~ ~ I nXK.$ @ * < A &X4X,X4X5X4X4X5X5X5X5X",
"8X8XfXfX5XfXfX4X4Xf * +   o o o J.nX| nXnXY.nXnXD.zXcX;XcXnXD.kXnX| nXnXM.kXnXC.nXnX| nXnX| nXnXC.nXnXD.nXnXf nXnXH kXaX[ o o o o o o nXnXA.nXnXC.nXnXZ.nXkXu nXnX( nXnX%.nXnX' nXnXU.nXnX..nXnXX.nXnX~ zXcX$XcXnX/ nXnXU nXnX7 $ @ * < A &X,X4X4X4X9X8X5X8X8X8X",
",X4X5XfX8X8X5X5X5Xf * +   o o o a nXnXnX+.+.+.cXzXcX=Xo.P nXnXnXP P o.nXiXkXo.o.G nXnXnXo.o.G nXnXnX@.@.#.nXnXnXL L L nXnXo o o o o o nX .Y.$.nXnXnXT.} g nXnXnXQ I ( lXnXnX^ ^ X.nXnXnX!.$.%.nXnXnXQ Q / zXcXzX_ I / nXnXnX/ 7 $ @ * < A &X4XzX8X5X4X4XfX8X8X9X",
"4X4X5X5X4X5X5X,X8Xf * +   o o o J.nX` nXnX+.cXzXtXzXcXP nXnXD nXnX+.nXnX+.nXnX+.nXnX+.nXnX+.nXnX+.nXnX*.nXnX*.nXnX+.nXnXG o o o o o o nXnX*.nXnXO.nXnXe nXnX( nXnX( oX<X^ nXnX' nXnX .nXnXP.nXnX} nXnX8 nXcX$XxXzX/ nXnXU nXnX7 $ @ * < A &X8X9X9X5X4X&X9XzX8X5X",
"5X4X4X5X8XfXfX9X8Xf * +   o o o J.Z ` *.nXcXzXtX=XO.nXnXnXO.o.o.nXnXnXO.o.O.nXnXnXO.@.O.nXnXnX@.O.O.nXnXnX@.#.#.nXnXnXG G o o o o o o < nXnXnX#.&.` nXnXnX` ( ( nXnXoXE ' ( nXnXnXz b P.nXnXnXP.P.X.nXnXnX_ P.;XcXzXcXY 8 I nXK.$ @ * < A &X%X,X8X8X8X4X9X9X8X8X",
"4X5X8XfXfXfX5X8X8Xf * +   o o o J.nX` nXcX;XxXzX@.nXnXo.nXnX@.nXnXo.nXnXo.nXnXo.nXnX@.nXnXo.nXnXO.nXnX@.nXnX#.nXnXd nXnX .o o o o o o nXnX&.nXnX` nXnXv nXnX/ nXnX~ aXkX' nXnX! nXnXj nXnXP.nXnX' nXnXR nXnX%.cXzX-XzXnXU nXnX4 $ @ * < A &XK.%X4X8X,X5X8X8X5X8X",
"8XfXfX9XzX8X#X4X4Xf * +   o o o a nXnXcX;XyX;XcXnXnX@.#.#.nXnXnX@.O.o.nXnXnXo.o.o.nXnXnXo.o.o.nXnXnXo.o.o.nXnXnX&.O.a nXnXo o o o o o nX .&.&.nXnXnXv &.&.nXnXnX^ ~ ^ nXnXnX! 9 ! nXnXnXP.P.!.nXnXnX/ / x nXnXnXR _.;XzXnXnXE 7 $ @ * < A &X&X#X4X9X4X4X5X5X8X5X",
"5X5X5X8XfX&X%X4X5Xf * +   o o o J.nXI.zXcXyXcXnXE.nXnX^.nXnXU.nXnX~.nXnX~.nXnXT.nXaXI.nXnX~.nXnXT.nXnXT.nXnX%.nXnX*.nXnXG o o o o o o nXnXrXnXOXu nXnX&.nXnX,.nXnXW nXnXW nXnXC nXnXW nXnX%.nXnX).nXnX!.nXnX[ nXnX' zXcX(.cXnX7 $ @ * < A &X,X8XfX9X8X5X5X8X8X9X",
"4X&X4X5X4X4X9X8X4Xf * +   o o o J.[ wXqXzXcXnX] ] ] nXnXnX[ ).=XnXnXnX] ] [ nXnXnX1.1.] nXnXnXC.C.C.nXnXnXC.#.*.nXnXnXG d o o o o o o < nXnXnXu v &.nXnXnXB t m nXnXnXm m m nXnXnX4.1./.nXnXnXB.).).nXnXnX(.$X(.nXnXcXuXuX0XcXK.$ @ * < A &X9X9X9XfX8X8X8X5X8X8X",
"8X5X4X5X8X,X4X4X,Xf * +   o o o J.zX0XzXcXs nXnXV.nXnXV.nXnX).nXnXN.nXnXW nXnXA nX<Xr nXnX< nXnX` nXnX` nXnX+.nXnX+.nXnXG o o o o o o nXnXf nXnX&.nXnX&.nXnXe nXnXa nXnXp nXnXp nXnXe nXnXrXnXnX$.nXnX$.nXnX$.nXnXU.nXcXqXcXzX} % @ * < A &XzXfX8X5X8X5X8X5X5X8X",
"zXfXzXfX5X4X4X4X4Xf * +   o o o m.cXzXcX[ ] [ nXnXnXA.A.B.nXnXnXtXC.N nXnXnXL.A.M.nXnXnXH N.P.nXnXnX!.~.!.nXnXnX*.*.+.nXnX# # # # # # nXC C A nXnXnX&.&.&.nXnXnXf f f nXnXnXf f g nXnXnXb rXP.nXnXnX$.....nXnXnX..$.$.nXcXzXyXC.% @ * < A &X4X4XfX5X5X8X8X8X5X8X",
"8X4X,X4X4X4X#X5X8Xf * +   o o o A J.5 K.K.a K.K.5 K.K.3 K.K.H K.K.a K.K.5 K.K.5 K.K.5 K.K.h K.K.d K.K.d K.K.S K.K.S K.K.S # # # # # # K.K.e K.K.G K.K.S K.K.< K.K.1 K.K.1 K.K.1 K.K.1 K.K.n K.K.n K.K.n K.K.n K.K.n K.K.F K.K.B % @ * < A &X8X,XfX8X8X5X5X5X4X8X",
"8X5X5X8X9X9X5XfX5Xf * +   o o o O # % % % % % % % % % % % % % % % % % % % % % % % % % % % % % % % % % % % % % % % % % % % % % % % % % % % % % % % % % % % % % % % % % % % % % % % % % % % % % % % % % % % % % % % % % % % % % % # + * < A &X8X8X9X9X5X5X4X9X9X8X",
"9X9XfX9XfX8X5X8X4Xf * +   o o o O @ @ # # # # # # # # # # # # # # # # # # # # # # # # # # # # # # # # # # # # # # # # # # # # # # # # # # # # # # # # # # # # # # # # # # # # # # # # # # # # # # # # # # # # # # # # # # # # @ + O * < A &X9XfXfXzX9X5X,X9XzXfX",
"5X8X5X4X8XfX4X5X9Xf * + + o o o o O O O O O O O O + O O O O O O O O O O O O O O O + O O O O O O O O O O O O O O O O O O O O O O O O O O O O O O O + O O O O O O O O O O O O O O O + O O O O O O O O O O O O O O O + O O O O O O o o * < A &X9X9XzXfXfX5X4X8XfX8X",
"5X5X5X4X8X9X9X9X5Xf * = * * * * * * * * * * * * * * * * * * * * * * * * * * * * * * * * * * * * * * * * * * * * * * * * * * * * * * * * * * * * * * * * * * * * * * * * * * * * * * * * * * * * * * * * * * * * * * * * * * * * * * 2 < A &XfXxXxXfX5X9X8X5X5X5X",
"fXfX8X5X5X4X5XfX8Xf , < < < < < < < < < < < < < < < < < < < < < < < < < < < < < < < < < < < < < < < < < < < < < < < < < < < < < < < < < < < < < < < < < < < < < < < < < < < < < < < < < < < < < < < < < < < < < < < < < < < < < < < < p A &X5X8X5X8X5X8XfX8X4X4X",
"8X5X5X5X8X4X5X8X4XA A A A A A A A A A A A A A A A A A A A A A A A A A A A A A A A A A A A A A A A A A A A A A A A A A A A A A A A A A A A A A A A A A A A A A A A A A A A A A A A A A A A A A A A A A A A A A A A A A A A A A A A A A A m.&X5X8X8X,X5X8X8X8X4X,X",
"8X9XzXzX5X5X5X5X5X&X&X&X&X&X&X&X&X&X&X&X&X&X&X&X&X&X&X&X&X&X&X&X&X&X&X&X&X&X&X&X&X&X&X&X&X&X&X&X&X&X&X&X&X&X&X&X&X&X&X&X&X&X&X&X&X&X&X&X&X&X&X&X&X&X&X&X&X&X&X&X&X&X&X&X&X&X&X&X&X&X&X&X&X&X&X&X&X&X&X&X&X&X&X&X&X&X&X&X&X&X&X&X&X&X&X&X&X&X9XxXfX5X9X8X8X4X4X,X",
"9XfX9XzX5X&XfX9X8X9XfX5X4X5X4X4X4X8X5X8X5X8X8X5X8X9X8X5XzX9X5XfX5X8X8X8X5X4X4X9XfXzXfX5X,X5X4X%X5X5X,X4X9XfXfXzX4X4X8X4X&X4X4X8X9X,X,XfXfX8XfX4X,X8X8X5X&X&X5X8X8X5XfX9X9X5X5X4X4X4X5X8X9X,X,X8X5X4X8X5X5X5X4X9X4X4X5X5XzX4X5X4X5X4X5X4X&X4X4XfX9X8X9X8X,X4X5X4X",
"8X8X5X8XfX,X5X9X5X8X8X,X,X8X4X5X8X8X8X5X4X,X8X5X4X8X5X4X8X5X5X5X8X8XcX9XfX8X8X5X9X8X8X4X4X5X4X4X5XfX%X&X4X8X8XfX5X4X9X5X4X9X8X5X8X5X4X8X4X4X5X5X5X5XfXfXfX5X9X0X4X5X5X8X9XfXzX9X4X&X5X5X4X9X9X5X8X8X9X9X9X9X5X5X8X5X4X4X8X4X&X8XfXfX5X4X9X5X&X4X5X5X5X4X%X9X8X9X",
"5X9X8X8X5X4X5X8X4X5X4X,X4X4X,X4X9X5X5X5X#X4X9XfXfX8X4X5X4X,X5X4X4X9X8X5X5X5X4X8XfXfX8X8XfXfXxXxXzX9X4X5X4X5XfX9X8X4X9XfXfXfX8X5X5X9X9X8X4X,X4X5X9X,X&X8XfX8X9X8X5X5X4X5X4X8XfX8X5X5X8X5X%X4X4X4X4X4X5X8X8X8X5X8X9X8X4X5X5X5X9X4X4X9X,XfXxX9X,X4X5X5X9X8X4X8XxXzX",
"9XfXzXzX8XfX5X5XzX8XfX,X,X4X5X5X8X8X4X&X,X5X5X5X8X4X5X4X5X8X5X5X5X5X8X4X5X5X5X8XfXfX5X%X,XfX9X8X8X8X5X5XfXfXfXfX8X4XfX9XfX5XfX8XfX9X8XfXfXfXfXfX9X9X#X4XzX8X4X5X5XfX8X8X5X5X4X5X8X9XfX9X5X5X8X8X5X&X5X8X8X5X5X8XfXfXfX9X5XfX8XfX8X5X%XfX9X4X5XzXfXfXfXfXfX9X9X8X",
"5X5X5X8X8X8X9X8XfXxXzX9X8X5X5X5X5X9XfX8X9X9X8X4X8XfX8X5X5XfXfX9X5X,X8XfX8X4X4X5X9X5XfX4X4X9X4X8X8X5X4X5X4X5X5X5X4X4X5X5X4X&X8X5X9X5X9XzXxXzXzX9XfX4X#X8X9X8X&X5X4X8X8XfX5X5X8X4X4X8XfXfXxXfXxXfXxXfX8XzXfX5X8X5X8XfXfX9XfXfX9X8XfX8X,X,X8X5X8XfXfXxXxXfXfX9X9X5X",
"8X5X4X5X4X5XfX4X8XfX5X4X,X8X8X5X5X8X8X8XfXxXfXfXxXxX9X4X5X9XfXxX9X8X5XfXxXfXfX4X8X5X8X9XfX8X8X8X8X8X5X5X8X4X4X4X4X4X5X5X&X4X,X&X4X9X8X4XfX9X5X5XfX5XfX9X8X5X4X&X4X8X5X9X9X8X5X4X4X,X5X4X8X8X5X5X5X5X5X9X9X5X5X5X8X4X4X8X8X8X9X8XfX8X9X5X5X8X8X8X8XfXfXfX9X8X5X8X",
"9X8X4X,X4X5X5X5X5X8X4X8X9X8X8XfXfXfX9X8X9XfXzXfXfX9X4X9XfX5X5X5X5X8XfXfX9XfX8X9X5X8X5X4X8X8X8X9X9XfXfX5X4X5X5X&X4X4X4X5X4X9X#X%X4X5X5X,X,X&X,X,X5XfX9X8XfX8XfXfX5X4X5X5X5X8X8X5X8X8X5X5X5X5X5X8X8XfXfX8X4X4X4X9X8X4X8X5X,X5XfXfXfXxXzXfX4X4X5X9X4X8X8X5XfX8X4X4X",
"fX4X,X5X&X4X8X,X&X8X9X8XfX4X8X8X8X9XfX4X8XfXfX8X9X5XfXfX8X5X5X5X5X8X5X,X,X5X5X9X8X8X8X8X4X5X4X4X5X9X9X5X4X9X9X8X&X&X9X9X5X8X4X4X,X&X4X8X8X4X%X&X&X5XfX9X5X4X8X8XzX8XfX8XfXfX9XfX9XxX9X5X5X4X8XfXfX9XfXfX9X8X9X4X5X5X4X4X5X5X8X8X8X9X8X5X8X5X9X9X9X8X8X5X8X8X5X,X",
"5XfXzXzXfX5X5X5X5X8XfXfXfX8X9XzXfX9X9X8X8X9XfX5X5XfXfXfXfXfXzXzXfXzX9X4X4X5X5X8X4X8XfXfXfX5X5X4X4X5X8X5X4X9XzXzXfX8X9X9XfXfX9X9X4X4X&X4XfXxXzX8X&X5X9X4X&X4X4X8XfX8X5X8XfX5X5X5X8X8X4X&X5X8X8XxXfXfXfX9X9X8X8X,X5XzX5X&X9XzXzXzXfX8X8X5X8X5X8X8X5X8XfXfXfX8X4X8X"
};
