/* XPM */
static char *_e9a6c74daf049749f86114cb3ccddf64dWVgAzP8kjd8o1f[] = {
/* columns rows colors chars-per-pixel */
"128 128 73 1 ",
"  c #9A9D9D",
". c #9A9E9E",
"X c #9C9F9F",
"o c #9DA0A0",
"O c #9EA1A1",
"+ c #9EA2A2",
"@ c #9FA2A2",
"# c #A0A3A3",
"$ c #A1A4A4",
"% c #A2A4A4",
"& c #A2A5A5",
"* c #A2A6A6",
"= c #A3A6A6",
"- c #A4A6A6",
"; c #A4A7A7",
": c #A5A7A7",
"> c #A5A8A8",
", c #A6A9A9",
"< c #A6AAAA",
"1 c #A7AAAA",
"2 c #A8ABAB",
"3 c #A9ABAB",
"4 c #A9ACAC",
"5 c #AAACAC",
"6 c #AAADAD",
"7 c #AAAEAE",
"8 c #ABAEAE",
"9 c #ACAEAE",
"0 c #ACAFAF",
"q c #ADB0B0",
"w c #AEB0B0",
"e c #AEB1B1",
"r c #AEB2B2",
"t c #AFB2B2",
"y c #B0B2B2",
"u c #B0B3B3",
"i c #B1B3B3",
"p c #B1B4B4",
"a c #B2B5B5",
"s c #B2B6B6",
"d c #B3B6B6",
"f c #B4B6B7",
"g c #B4B7B7",
"h c #B5B7B7",
"j c #B5B8B8",
"k c #B6B8B8",
"l c #B6B9B9",
"z c #B7B9B9",
"x c #B7BABA",
"c c #B8BABA",
"v c #B8BBBB",
"b c #B9BBBC",
"n c #B9BCBC",
"m c #B9BDBD",
"M c #BABDBD",
"N c #BBBEBE",
"B c #BCBEBE",
"V c #BCBFBF",
"C c #BDBFBF",
"Z c #BDBFC0",
"A c #BDC0C0",
"S c #BDC1C1",
"D c #BEC1C1",
"F c #BFC1C1",
"G c #BFC2C2",
"H c #C0C3C3",
"J c #C1C3C3",
"K c #C1C4C4",
"L c #C1C5C5",
"P c #C2C5C5",
"I c #C3C5C5",
"U c #C3C6C6",
"Y c #C4C6C6",
/* pixels */
"nnnuuudBncSSSnrugllnlnSSBBcBSnnlnlBnSccnBBBSBruSlnlldllnSlldddnBnBg*r6nlllSLSd9nBnllnccnldlnudSlulSLncncnBBBnBBngBSHSlcSccnnnnnn",
"ldgrudBBlllnBgr-rnBnnLLHlcncBludlSHnSnlgrgllnBrnuurlnrdnSlrlSnBdrnndgndrucnnSnnSBnnlgdull6rlr9lgdnlcdnSBnnncrgSnnlncdrnnBndnSSBl",
"grnnrnBBSnldndn-6nnBBBScSBSdclllnBSBBnr,rucSHlrdrgdu6ulrgngnllnlnSr6SSnBSnBnSBnnnngluSnc6ulglllunnn6dlundddgrgBnSllnSSBSBHSSclgl",
"unYLBnnSBld,lgnBglgnScddnBnSnnclnlcBSlgllSLSSndlnd9n9lrrdBd6rlllnSglcccrdnBddcSnllcdnnnnnnlcblldlcnllr6lgllSSlnllnnBSSclcnlnncnB",
"lBBBnBcgSl,dulnSSnclrr,dllllncldgcBcnncllBZdulu-6duclgcnldc3,9gcgBnggnSldcnccnSnnlldlnnuungcncggnldlnuBl6rgnldnBllnBBnSSnlncHcdg",
"SSBncglluBndllnBBSHlllddd636dlldlcgBcgnnldnlcnclgglrlrnBldg6nluBlglBnnnBnlunnSndnlncncclnluSBclBScdnullndgBSnnn9gnclBBnLSSSSSnlr",
"SBnnnSnnulBlrnSnSBBnlrgd6glrnnSllrdlnnllllncnnSSnlnlnlBnlcduunlnd,lBlnSSndcndlcnSlrdc693dnlnlnSLSScdddrcnnSSLSl6dulnBrgHHSlSndlr",
"nclHBnnnnclclcBnSSBScddruBHSBgBcn,6unSBlcnnlnSBnldlnSSnnSBcrlnlld9nclnSnglnBSdulgg6-rnnl3dnnncdldnSnBllnddnlnnc6696lnllBSldndclS",
"g6nSnnSSBBdugdcnnccddlgSldlnSl9BSgungSHnrdnnnSSHScdllSSLBrdd6cSScdBBcnnlgnSlnlnnnllnBndlnSdlndulgldlBBcBncllclSrnlHSSSBBBgrlgdnS",
"lnBllSBdulndrdnnrnnd6rBBncdlnldnnSSBllSlgSSLSSHHSncnnSncnBLScSSdllnBBSSLBSllBncnnrBLLBBHLncnd,@lSSHLLcudnnldBSSgndSBSncBSnnSgdHS",
"lnddlndllBdd6ddnrdnnndnSnnnlrlBnnBnndBSnngcglSSnSBdnnBluBSSSnlgd3ucnnSSSBScddlndnrnnHSBLlcSSSnBSSBSnnnndlnnuBnllBdlllnnlnHcduluS",
"LSlgBSSLSlcnnnBSBcnBBldSHBnclBSSlrdBnnnlllnugnglBncdSnlclnd6r6dHB6unlccnScldulnr6lldnnBBSSLBnSScndlBllcllddrlrlnlcnBnBndllllnnul",
"lBBlllnBngdgSSHHBnlcnBdnLrnSdlcnlBccnSncSHnclrglbnggnBr#ludrdd3cSLSll9 *6nlcnllSllur6rlSSSBnnnndlcnSSnlBBgllrrl69nSSLLScgdlnnBld",
"lnLnBnSnlldg6,lSHHBBSBBSndcgdgdnnnglBSndBBSSBSBlngSnnnruSSBclrrdSlSSBBd,r6udu9lBSn,dnddBnnSnnSBSnlgnnnllSnnlrgurlnnnnSngSndnlncl",
"nSnlgBnBSlSBSddu6uSYSgSncncrBSSLSBu9BSBlcnnncnc96rrnldnSSSHSSclnnlBBdnBSSBngn6lgglrlBBgnnnlgBcuucddgldulncclSHSBBcllllndcnLSlccc",
"SBcdllddSnldnLdugcnlllSrlcndlSHccSdcSSnnnnBSllc66llllldlnnnSnBglgnSS6ucllnHlnulnnlndclnnnnBSSd,urnncgrglnSnlnlcHBllgdg6rdlcSnldg",
"cSlnugnnnBclnlggBSr9dnnnnlSSnnSlg6dcSSSSllBSu6glnnnlcnnllnBBBcBSSSBnn36clgnBcnudnBngllnSnLLLnud9,dnBndSSBcnlldgnBlllcn6,rrlcnrdl",
"dgd6bBS9nnBBSnldnnnn-rdnnnnnllnnBluSBnBSncnnnSlglnSggnnnBlHSBnBlrnSnBddBlnggnnnlcBllrrrHrnnBHSnd6nHLSnnnlcnrcdrllBlnddBnn6dnndgH",
"ggSdLSSBSlcSdrdullSu6lSllclldurdlBScBnnlddBSLldlnclBBSSSllScnncurclcnlBncllrrglcnlnBnnulll6dglnndnBnnnldd-,lcnnnnllu,dcSncnSHnBB",
"SBnlnSrrSSnBrucll33dcnBSnlngllldnBSnSBnndrnBg6dlnnuuclnnnBnSSncdrgnllnlr6dr9und9cnnnnnBnBgd,*dlduunndcBcS36nBBSBcnndlrlBnlnlnnll",
"SBlcll9unlnunlnSBn-gnnnLSnncLLnnnldcSBlnSBcu@ucddlnddBlnulncSSBSBHSnnnnl93d6lll6lllcddllurSglSll*3lnlnLHSddnSnnglnnnBllldu69nnnl",
"BBcYBl9lcdr3lSSdLSclSngncSnSHBSHBndrlnldBLSncln,,rnBrgHBlcBldlSHSSSLLBSnnr6-cnBdru9SlrcnrddnBnnngr,dulcBlnSllncnlgBBSSSldnSnugru",
"nnBnnHLHnnnBSlllSSunndundlncclnBSSlgllSdnSScSSl@,lrnnlnBrdu3ddl9nnSLHdlllclglnglldulnud36ugnnlSHLBgddd6rrlnnlncSglBBSLBnSBBcrc6d",
"HcnllcgHHnnnlBlulddBSnnBLSBSlnlBSScSSSSrrnnl6d96gn*#6lSndgclu6drrddln6,ruSSldnlnlgr3rdllndnnnlnSHnllnglrldgcducdg9llnnguBndl6d9d",
"nBnBg6rnSnSnlSncr6uBHSBnBnYB6grnSnBBlddndcllldllcrddlcnngduBn9cHB,l-3dcggunSBnnSSn,dgnngglnnnlBl6rlllllBr6nnlud,9dlcBSS6ddld3rld",
"unnn9-drdndlclSnd6lBBnlBduSnrndlllludldndcgldlncnrcdnlnlSludud6cn,BncldclgdlnnlBSnncnSSlnnBgdcdlcdulnnlgnnSnduulcBLLnBBggcrdrrBl",
"6dSSurBBrdBnnlllc6nBnSBnclu6rSHnSHSnnduBrdScBBnSBdBSBdcddlnddgld*cSBSSBcSSnlllnBBllnSnnnnBcbuggrnldSSSldnng,6lgLHBSnBlgBlngdrdln",
"ndHnlSncllBnBScnn6rnnSSBBBnldnHncHggBcddn9dSnncnBlnlnlgllcldlnBd,dggdlclnlSl3gnncnllSnBSBnnlcgcnSnrdrur,,6rrr6lSlulgnBlddccgSLll",
"LLLLHBnglgBnSunSnnnncSSSSLSnHnSBunSdlB66nncldgnBclSlcScnnccnllldr*udu,3lcgnndgrudclcBnBnSBllnllSScr*l,dBg6c63rldnldgcBlngdllBdgl",
"SSlBBScr6uBnBlcBnnnBlSSnBSSBLSnldnnddlnnnBHnddddlnBnBnSnSBnlldccSnlddnSclnncduulrnnnr6ddnBBSBnSLnnl@Slrlr669SlrrBSnBSSldnlllc9uc",
"nSllcnl3lnSnSlndlgcnBllnnSSBnBScdlcr9dclnSSldSnruucSSdl3dclnlcllnnBSHSSBcgudcllSgcHBdrrlclnnlnSSnccgBnlnnd9SLSnSBnllnnndnSgBnlnn",
"nnnlldglLLHcl6nllnncdudnSngSBnnSBrclud6,cSSSSLSSSncnBcd,,nludSSSBBllnnSngnnlngclndSHHSn3ducnd,3gcdSldllnnldnnSSBSBdgdnl6dSnnBlgn",
"SncddSSnBn9grrlSncnlcBSgurgBnnllBdlHndllllggnnSSnSSnnclu6rldgnnnnnngdrlnSLSBlgnddrdng699gBSSBrurn9ru6dSdBnnllnndl9dll66lllcBnlun",
"nSnn6nBnBnlnnl6uSHnnBHLldSdlldcSddncllnSBnlgclnncBSSSnnBc6dnudnnldg,*,rcBnBSlSSlrcddrrudlBnSdnSldurln,ddddnglcnSBnBSL-9nrnlr6nng",
"nBncrlSBBnnBBSSSSSrgclnldnlu6*9nccBddSSBSSnHLSnnnnc96nlSn6u,dlnnBSnBBBSHngr,@nndluglSnHHScnlldlBBcSLHdlBc6ddnBSlcLSBd9rcu963ncnd",
"nlnddnnBdlnnluucrcnnnnBnrnncrl3rSSSlnncnScSSSHSSnncuuglnldlulrBBBlnunBclu6d,3gr6cdlnnrSBcnc96lglddgnSnBHnnBcdgnBBSglcduncr6nnnnd",
"HHBngcBLccllgdrdcdgSgulnnBgurdBnSSBSHBcSngnnglSLLg9dcnBnnlcBccgnSlSn,ur-uBBSLrlnlrrnu,nnrSSSgdllBccgnnnlcnclgrdnnnudrgunnlgSnlld",
"SSSu6-Bld6ddgdnnSlgn6rldnBrddnnBgnSnnnlncgSSdd3dnl6*6nglSdlcnllSSSnHcgnnBBnBngSSnlnlu,lnlnSSHBnnSSnBBBSllnl6rcrlldlnulunSBulSnBn",
"lgr,36BgrgLHncdScgnc969dSdcd36clllllnBldSBdBBcugg6,*6nddnunncncBHcddnndggrludnBHHBSSHSlcnddcBLHBdnnlccBr9llrSnr6lllldllcSLgldnBn",
"dlldlldnccSSndudgdlnd,cl,6cnlllldldSnulgBScnSnBclcglBncdcdnncBcBdnnnBBBncgucBnclgunHSSSBnSncncSLBSHHldrdgdglBBgudnScnnnSnSnlnnln",
"BSSnnncnllngcnBlnnncllnS9duBSlllldrdrgHrrndrnSBllnBlccBBcnBnnnnScnSBSldnBddgSSclddllBSSnnLHSSnludcSrlSlnd6lccnclSlSSSBBnnSlnclcg",
"nSSSLLLSBSBnclBLcSLSSnnBnngunSBSllBd@lnldu3dnSnB99LllBnnBSBSSSHSndddcBcBncccnlnnncldlnBnnBnnnSllBlgdSnSncnlnnrd9lnnnSHSSSlnnnnlu",
"gBSSlSSnnnSSnnncBHBSSggSulSurccSlBBSdccSHBdlBBl6dlSgnSluSlnSSnnlgu6lnnSSBdlnlSSlSnnLLLldgBl,lBndSncBSnllSnnnnrdSlnggcBBSBnnnBgnl",
"BclldllSncSnSBnclBnnBBddlccnglnLdrHSBcSSSSulBn6d66Bllngdc,lcSHSBlncBSBcBBSSBrcluclnnSBSSn6durrddcnllln6cBlnldllclnncllddllnnBcBn",
"BcSndgnScngSSllSBllgrBSgdudccrcS6dBSBcBclurlcnn6u69lllgduulllBSSSBnllBlrgdnSScnddBnnSnBSnu6SSu,,dSnlcnlSnnlgrgnlducBLSnBSlnBnBBc",
"gcnnlgnnd6dBSlgSBncLSSSlccBnBnu,#ScgnnnnnllldnBrd6,6cBBnndglnlddBncllcldnglnBcnlclnBnldlcdldnHLgdBclnnSdlSnlBncBlcSBngSSSgnBnnnn",
"nSSnllnBBlrcBB,gSBlBSBdnnnHSSSnu3ndulnBBlnnBglBdulldSLLYBclcndnBnBBldunBSndddSHLLnnnnnBcnlndgSLHBnlSBnc9nBSHSSnnlSnndrnnlSBncgcd",
"nBnnnlccggnnnlgdlncnldddrdSlSSLBgdrddSLHnSSSnrln69llnLSndlgnnldlBnBnlgBScnnglBnBnlnlnnnBBnSndnBScdlSndBrddlnddlnlglllnBnrnlnnrud",
"lBdSndBd6rnLclSllnnSBnnSHunnuncnlggdnSllnHSBndnSlrdcunldu6dSlSSu9cldlldnSnSSBSldc9dlllSSnlnBdgnngrrnBnlu,dnBcrdcnllBlddSgrclSnSS",
"lBSSnBnuudlnllnBnSlcHSnlgdrclcnlrudgSBndBSglnddlddulnncu*9lndlBc6gnBSrlndnSSBnnnL9dLHlnlgdBBBncnlBnnnnldlnnSdnnnnBlcBBglldgbndnn",
"nrlnl,dlBSnlcnnSndBlnHSr6dgcnnHHSBnlddd,lnl9nr69lSnlllldlSnSnlnlnnSBBnBSrrddBnSllncHncnSnclcBlunBBcnllllnBngluBnHHc9rd9ddnBclldB",
"ldnd69rgnSSLLncnd-rlcgllglScr,dLlnnSddr6rnl6lldldSLBnBlgHLLLHBglnnnSSHSnndcdSSHccBBnnSBSnBSn9lBnBSSSnSBlnnBnndnnHBBr3-@gBBnlulcn",
"rnunllnHnrHSSl6696rBclguldnng6gcdlLSclBnSSSnlnnlnnclnLrlnnBSSSnnlnnnddSlclSSSSBBSSSdnnnlSBBLnlnBl6dBnnndSBBllnBnldcd6drlllnSnnnl",
"unglnngcn6rdBdddS6dBSB6ldldddSldlundncllgnncnBSSlld,BndLLnnSBSlSgdd6llcBnlllnlldccnrlnculdlSnBlnl-dlnllldnngllnrdcrgdddBlclcSnln",
"lg9,lnc,d9-9ndlllnnnnndnlSd6ulldddrdlluldl6durlndulnrlBSSLSBSnnd6r6nnlSSndnnBncnnnnBSSSBulld6BuBSnc3rlgdddnSLHrrdldclguBBSBB6dnl",
"llclcnBndnlnnrcBlnlcnlclgBddlnSBgldBnSlnSSdrcgllddddlcndlrdlnnBgnrrlncBSngccnnncHln6*lngdnnddlnrnnSddd6nndSLSndglulSndlcgnSScnlS",
"nSn,dBLLSBnSBcnSSBlcnnlcBSSldSlndBSlnHSlnnl6dSudnSBrSSlcBgglnSnBLnlllllnnclcnlllBHndrnnBcSLHLrguurLnnnBYYndnSnu6dlndnSnurugS6nnS",
"nHLnnLLnSSlucSSSnnSSlndcngcSSSBlcSgu9gurlnBnlu6lSnHSnd6nSnllnSnlBSBrluglnSnBSlnSSSnnSdlSScSSnrnlldldnHHBLSclBnd,,ugllHclnnccln9l",
"lgSnnnS,nSlldlllScBSnSSnSnnnlnHBBllcl9*rglcdlndclBnSBcl9nncBncncnnr*rllSLcdnllnBSSSlrudlldnHBBBlnBnnnlSdlLSSnBngnSSSnSBrllnHHc6d",
"ndnnncddlcdlgddlldgndlSSBnnnnldcrnlnnBrulnSlrnnnSSnlcl,dllnHnBBrdB366BnBBBBldnnlnHnddglnnBSBnSHdnSgSBrgBcccBdlncBLLBuunnnnrcHSdd",
"cd6lSndBlunHLScBclnlr6lSBHSSnrul6lnSSSnld6BlnlnSScSSn-dBlBBlrSgdLnSSlBndndnnndnBllncBBlSHBBddldrnndBnSccBnnnlllndcSncBndln6nSccd",
"nBdrdSSSSSHHLSnclnndnrulBSSnr6nrunSSBlrlBuccgndnn6nSHnncnnddnllBBnHBurndlllBd6dnBrgnBdrllBng,6nnnngBSSguSSHBBnluddnBSBBcruncddlc",
"SSnn6BndrlgnnlnnSBdunllllBnr6dr9,rSSBddnnnBBrr6ucnlBHScSBrBBrdnlrllrrldnlBnc636nSBrSSllggugllBBcndcnnnlcncHLHSBBcncnnBcdclSc6lln",
"nnlBBu6l,-*uccBBSSl3gnnBBSScdnd6lnlndlSSSBnBlnnnrddSSnnLBulngcBurrrllnlSncrurlldnB3*dldBSnnnlnglurduBBnBSlnScBLLSnSBBnBBSHSSdnln",
"ddlBSSSnSulnnnlBnnnrrcnBBSgBBSdllnSScSngld9ncSLLBnnnnllBclldnnlSd9rHBllnnllnBHdudrn33dSSHLBBnlnnuSngBHBBHdln66dBLnSHSSSHSnrrllnS",
"c9uBBHSlSlBSLSlBlnldBHSSSndgdnclBSLHHBddB6gdBnSSnBLSu39gcddrSB6ng-dcHngllrnHBBcllrldd6dSSnddlgndcnBSnnclngcgl9udllBnlnSHnddncSnl",
"dnnBBLSnlSBSgu6ddururlSBnlu6rlBngnSlcncnngrnSBcnnnBSl6nBBSnlBB99l6rnnSHndgnnBgcnnBncBnlSBSlBnlSlHSSBlggnu9SgSd9nBHLnldlSnglBnSnn",
"ldnncnBllHScdcnnrdudd9ncBnr6Snd6gdglnnlurlrnnlnlgSlgrdBnBSd*du69dnddndnnBSl6nnldcgBLBldSSHBBSSdnBlclgHlucBBlnllncnBcnlnnnlucBncl",
"ndcnglSnLBudLnSHlrcnBBulnBc9gnglnnnnlSBnlu3lSBl,lllBcllnlldrdlnBSnl6grBSSBSdldcdulSBd6rdSSnBllnSndl6,dSnnnBnSnlBncllldlgnSglnlcd",
"nSlgclnBBgrdLdd,,nSlgnddudrcdlSSlcSBnSnSBlulul9uBcnBHHnnddndlddlSSBSldlcnnlnnnclrlBnnd6#rggdgdrrucl6l6dlnnSSSHccSBludllSBnSBnrdn",
"nnncBndrcldnlnu6uBSd,gdglSlnl6rlnllllglnLLSndd9nlcndlLHLLLncndlBBnSnnSnldcgdnBlnSnBSSBr,-grunlu,9uuuuuldurglcBSlBngu3dBcSSlnnd9l",
"nnSdglncnnlnclgcBSnldlBLLLrdl6ldgdrdSndgBHSSnddcnBBllSBBSlldnnSnlSScSSSnldnBdlnBBndrBllBunSLLLSBSSr*ullnnlglr6uln96udnBdcLuddlcn",
"nlrc6dSSLd9SBdnnnllllgBSBLdrllddrgllnnlrlcnln6lHSSBnBSndr@rdlcu9cSSnSnlnSnnllllulSl6gddnrrBBSBcngccudl6rSLLSB3uulg6lllBudBldgSSS",
"r6*rrSSSnllBSBnnrugSnnnnrglu6lBBnnrdlgdlnnSSlSSSBnclnnBl366unSllnlnBnlrlHnlggSSlnnnd6lBrldSnnldlrd9rlluudlnLLBBl,rrSBdSBclgdclcn",
"6,6ucBHSdBrlHclB@ruBdcBBddcunSSngccludlgnnLd9HBnnnlcdundlnddlglllllllBcSSSdd,lHnncldldSrSddclgnBrgndSSSldddBSLHBr*,6dnSlnBBnBSHS",
"BnnnldnSSl3lcnrrrBulnBBBSHBBSncllBSLBgnnlcnllnnSSnBLlrBdBBlBglllnnglcSBBSSBSlrlSSc*dlSlnBBlddcnBldldSnSBnld6drrcnBgd6lnlSLSSSLLL",
"dguglllHnllnnnrgBlurnSgnBngnBSulucHndllSBdulnddcdllnrddnnlnHdSSnd6dnSBBSSLBBncdBSd-ldlccBSSLlllcnnlrnBdBSdu63@lnclnB3lSBSBnBBBSH",
"cg6dnnlHScnBnScSnnlrdBl,rugLLcrdSHSSggrBBcdlg-d6lnrdunBSBdlScnugr 9ldnlnSSgrllgnnncdnndBnl6r66clnlngclllnnngS3unnl9ucnnllrgnBSBS",
"BSuncccnnBncdnBnnSnglBSl6r66ulrdcncngnrBSSBnd,c9,dlnnLLHSnnlcnlnBHHHcBncSSSdlnBnSLSSSHnnnludnHBBcBnBBSSBSSndlclcnldgnnBlgulnnnnn",
"ndllnllnnHSBnnSnnnSulnnSBlnngnncllgddnBSSSSnl6ud6llnllcBSncgcnnBdSSHnSSSSc6lnSSncSBnnnd-dlcSnnSBclSnnlBBSncn9lcnlcBncnlSSSL6-nln",
"nlSSLHSLSlLBSSSBgrcBnSnnnnnBlgBSSHSlcgnlnldnndrur,uBnlnlnnBcnHSSnlnlgnnBSgrcnnldlndurlldlngncnndd6nnllSBnnnngnccBSSlBn6lnllunnnB",
"lSBHnnlnBnncnBSSruurnBBcgllulcldcHSlnll6ugrnlcd3,unnnnSndHggncSLSnncllBSnnSSnlBdlSnlnnddncnScnld,,lSlcLSnnlcnBnnlBLnl,-luddgllgB",
"nHSSBd6dSddnrrdg-rdudLSurdccSBngdnnddnlddlnllnngdlnBBlnBBnd366rulBBSglSSSSSHSgSSllBBSddcBnlBnndlndgSSSSnSSnndBSdldld,*nc6SnudScr",
"nlllu*dHSndlr,66rdnn6nlBdlLLnlnnndnnnnllndrcc,lclndBSndllddrgllgnBcBddSncrnBBHlnHBBSc,6nnnuSSnllHnnHScdlSHnnnBSlnlnlgSnScLnuBnSl",
"ldnBulnBnSBBndulHSBn6uBHluHcd6llnlSSSnBnSddBSg,d9ldndg6dlu3cBSHdBnlnBndrrlcllSu6dlSSngdluncgcnnnlrdnnnSSlrccncnnnldBnllcBldlnlnn",
"SSnSBSSHLBlBnndrunScnlnnlgSBnlllnnnnnnnBSnnlnSSd3cnldlndnSrdcnLddLSSnldulBngSHSZggncu9nlclclgrddcgruBndBrdBcnSnlSn9gSSd3dnBllLSS",
"BBSnlSSnBBnSBBBr6nHSnncBnBnnnBBldlluuncbBSSSngnurnnSSHLlBn6dgrnndrcSBllgBnnBSSSlSLYggluncSBSLrdlllnlnnnBdlnnglSnldnBdurgBSSllrrd",
"nSncdgdnnBrdSnBn,dnllnnnBSSBgBLnlBlu6rlnnlnSS6r9ncBSnBdnncg-,lcncrunBgduldddlnBncnnncllcgnllndScnLSBn6lulrulrdBndcddgrdlBcdnBnll",
"drgrulrncBgunSSSuulccBSgnSSnnllnBSSng,6SSncBclguHHSBSrru99nBSHScddgdBccBrgnnnnSngulSHlluldglnndrgBnlrrgdlcnullSnlul9rSBHu6nSBScu",
"6ldlllcnlBSnBSnnBnlnHSHl-dnnSddlcclnlrlnnlBcrcBllBrdggngrlBdlSSnBlncru9lndSBSllnSnBBcunlrrgllc6llngclnHnlnnrldn6r3ucdBSnnBnnnlcg",
"dnnHSSnSBcnSSlnnSSBnnnSllnnnnddd6cnncnnSurSBnBcSnSdnnlrSlndd6lBnrlnnBdllndull-ugnnBnnnLllL6unSnnHBndddBSudlcguld6u*lddnSSBunndlc",
"nldlBBl6nSSLSdlnSnucnnBlnSBBddgddllnSnncnnnllnSnnSdrBn3rSBnBlSnn,rdBHduldlcBr6l,6dSSdSndBlg3nrSBSBnnlgln,,,rnSSSlnnncnglnnllBBSS",
"SnrdlHldBnBnnlgcBSnBSBBnnndunnnnldrlcSSnnllgdldnBSnlnlrrnSSSBSnuSn9nBS66gBSBHcSldgSSnndd6nBddunBcnlncBlBnr-ddcnnnBndnnd,dllnnnlS",
"SHSnldcnBnnBBSnnnuldSdgurnngcgllBr6lddSHBnlccSgdlnSSBSllcccBnllnSndu9cg6unBndnSSddcddnSddnSlllrlllcSlcddnndc,llullrcBnlu9nSSnBBg",
"SSBSBcddrlBSllgdBdc-3dl6rBLnlldnSulnnrgdclBSnSSldnclulnnBSnnSllnnclru6udlBnrdlllBlcd9dddBlnlnHulcnSlgg6dl9rd9nBrdcllnlcnSHSBnSnn",
"ndBnncllgdnnSd6rrrSl,gSSclSBcnddBllgglcdSnlHlnnllgdlSnnl6llclllnr6dnlcrdcdlnlr9nSBSSludldgrnBBngrgBnd6uLSS9rSBSlnSndcgBnLLSSBBnB",
"rBBngnndnBccng-ngllnBSndnBnBnScllldgcHSdnSBSdlnnlrBSnlSrrlSSn3llulllnBcSBr,lcllluSSnnSdlln6dnSnl6dBccnnBnSu69lnnnunnBdgnBSSBBcud",
"cSlnlBlBSScndcrdLnSllYSndcBnnSBdgldlnBBBSBncgdHSSSBduBSldldLnrSBBnnLnrnSncr,6dlncdlllddnlggggncndBnndlBnnndn3*6nldlBnBcBnnnnnnd,",
"BSrunudSSSnllld6ngnnllLLdnBglSBSHBSncSSnSSnnnnBSSccdcHBud3ulnnBnluHLndSSSnndcrdnSubBncBLLSgnBBSBSnnlcHncBSnllu,rddldnnlBnScglcBd",
"lu,cldcnnclcnnllnlndddnScdBcBnllcnnggnBlccdnnSnlnnSrlHBgd9dnnHndgullddnBBScnSBnnScnnnBlcldnSSSnnSHSBd,un6dnnnSnlBlgdllnnBndnBBdg",
"SlrnrdlnBcgBBSnSSnnl,nLHBlddBllcllnclnnnnllnnllllcBl,dcnBBSLndnnccrudlBBnBBcnBlnnnSScBBu,3rcdllBBSdnSnSl63ddcSlnBSnlnldruldgllll",
"nnSSlSSgdnullcnlLLcg6lnnBBggnnnllnlnSlglnBnlSruBBSBddudlnnnSncggnnnlrglnnSd96gnlllSSSu66llnHSlddcBlnHBlHLnllcllnSBcnldrdddBnlnnn",
"rulSnnllldlBBdgdnLSn9dlnnldnSSn9lSlSBcdBndSdnnlSBBS6lSSSSnBcdnnBBSSnludcngrrddgSSnlndruglBnBLSBHLdg6,l6lSnlnSlllSBnllldSnlgdSnnB",
"gdllglcrnSrnLSl#,BSnrnBBcuunBBBr,ndlSSBgSdlrnSBBcdldrnnSndSg3cnBSnSBnllrr9ugSnlHLHSBllgldnnBndSlguu,rlgucg6glgSdndndulnBBld6BHnl",
"cudlnSSBnSlrdlBBnBBngdnnBBSnnlnlldrdnrnclullrSBnlllcnddndrBuXrcglrunnldlclnSnnddlLSulB6ddnBnddS3,cllncnnlrdl3lBdlnnlll,rnnngBBnn",
"dlnSSSlnngu,gSSSBSBSSncnccnBnldlulnnSrnSnnBnnBSSnBnug9lBl6ldBnudrdulllgBB,lnnndudng3uruHSSncrundddnSdnnlBnSldnnBBnnnn* ,gnrlnnln",
"nSSBHn*dd6,unnlnllSHBBBnnnLBSBdlluncnBnnnngllcSBlrgl6,66rddcncgnlBrlSncBBrdccdlcnlurdgBlnlludgcrdnlldnclBSHcSSBScllcnl3-gBdglcnc",
"lllnS6,ullc,6rnlduBlndududllccnnBSnlncllBnSS9nSBlBrdg9r6gnScllndnlu,,gnnncdBnggcndcnnSnllc,-rdllBSllulnllSHSSSSSLnBncdrnSBnllnnB",
"g6dlddBndlcudrgdrdBgnlru6SndcBnnnunnndrcSBBgrSSHnBBdlcudrlSBcBnnlgld6lBllnBnBcr,ulnlcSBBScllncnddnccSSnnLSnglBclSBSYSnBBBSnbnlnn",
"nlglnrdurdnBllnBlSllllgllSSdcSlgBl36gdcglgg9lnnBnSnnBScdBdl6ulldggndrgllnnnnnnSlrgcclBBnBnllnSBlldlcSSSnBndurdnnnBnSglHSncnlncln",
"HSHSluddglnllnnBnlBdgdldggnSnBBdrd6,dlSldlBnnSnnnldlnHHnclddnngllggdSBBBnlnnguHBSLLSlnndncSllSnldlBclBBnBBgu,llnd,S93lddSclnnnln",
"ndrgdg-lnlBrdndl6,nSSSgdrdBnlnSndru-uclllgldgnSBnrnlcnSlnclSBnddBSd6SLrrSSdlnnBgnSSSnuugc,nnHHnnncndulg*uScd9nunnlnu6lnrSnnlllgn",
"nllnBBlSllnl6l6nlSnBSBnLnldndldlSnl,gnddnlldgnBlrunlnBBllldBSSnnclddlurBBc9nBLnBlllSLSnHc9ludlncSnnrBdruBSnngngBSBlnBdnnBBlcdBBn",
"BBSBSnlngBSBrurndgBBclSSBnnllSBBHLSnd96lSnnllcnBdnnlld,66*rnnBcnSSudndnSnnSBcnlnBndrlSBBdlSBBggBnlScnllSSBSSncgBrcBndlBSSHBlrBHS",
"lnldnSdlSSSncuuddglll3dSSSnldnHSBlcnldcnc6uSllnllBnnnddlu9gBnuBBBBldBlldddlnndnSLnu6rlnluccBSlllunBgclnBnnSnBnccdndrcSBBHSScdnSn",
"cllgnBBBlnSSl*lcnnudcddnnnddcnBScgBSBunnr-dBdunllncnudnSHnnLgrnnrnncnlddul-lSncBgdnllullddddnScdglSunnncnScnBcnnBnurnBSLLScBnlll",
"SSnllucSnSSnudSnnlru9gnBSBHldggdlnBSSl,cnccllgruddnudglgnnSSnuclSlnngldBgBSSnllSdrclSnnn*llrulnnc3lnBHnnncgnnclBnBSndlcncnlnSngd",
"nlclnulnddlrrnLSLddlBSBHSSSclrgdldnBclldculdru@9rllnLBl*6nBnBnBnBru966gnHSclnBSBlcdnlgnnundlcSnlBnlnHu9nnncnnclnnBSBLnlnnrlnnnur",
"nBHHlllllcglrHLnS9rclnnBBSBSLnBnlgdlBllnSlBd6glnSSnSLBncrnglnllnllBBLLnddlgglnddcBlngllBBBlllnSncBlnS6gnSSSSBcHBnnnnlSBLSlBnndur",
"BSBHl6SBnBSldcddgnlnlnncnBnlHBcScnnncggBSSSlrld,lcrgBSSHugnu9uunBrrSSnSdrnnl96lnncSBBllgddlnBrrncdnllldBgdllHdcdldld3ddSBnBnrdlg",
"nncnSrlBcnnrrnglnnnldrncdnldnlclnnLBSnnlBnngulgulS,6dnnSluBldBncnlungucllcSSSlBcuccnBSHBd6lldBBcnnBBBBlcnlddnu6nSScdBl6dllld,BnB",
"cBnnldlndldrdurgBlll*dBSSndldrludBnllcdnSSnnSSLLHBglglSBndBSSSnllBBnurglBr6nSnBnllgcgnSnllnl,ddguulnnnlnBndlccBduBrSLBrgllBndnLH",
"BSHHnSclHnSrrdlcnnd6rlllngldlnllllndlllnSSl,rSBnnnllSSSSndSBScSnSBnSSSSSBB-uHndllSnnllglnBSBlcnnl6cnnllnSSSBlSnSnl,SBglHSSSSSBBn",
"lccnnnBnSLHBnllclBSnBBngnSnllSSBcrnSnuglBcSdgBdnnlulgcclddlcd6nlBcBHLHHBSd*nBn9ldnnSlcndunSSLSLSLSnHSlnlnSSBSSBnSnrrnlnSSLLSSBBl",
"nluldlSunSldrnnllnnnSLSSLLBucBSLBnlSLSSdnlnBSnnnnnlcngddgdlc6dr3gBndSBllScSBncg6dncBBnldurlgnncllclBBllcnddnnnBnSnBllnnnnSSSBnln",
"BndruclllndnBnnSSSBnBSHSSBdBSclllnSSBSnBcncdnnnBBSSlgll6dddcdB#,dllrr6rrlSBnSnSSldcllnnlnnlllllnnSSngudBngnlrlSSSLHSdglBdnnlSnud",
"Sdrl6dnr6nBnSdnnnBSunSSnBcSSnlcllncrrllBnnnndlggcBBcgBBn36BBlngdr6dnnd,33lSBlunnSnSnSSBSBLBccdnSSBSSBnBdlcuullnnnBnlnlBBBnnlnnlr",
"cSHSSllllnSSSnBHSBBnnBSlcSSSSSHHSHBdgclndnSSSllddlncgBHHSnBBSSBBgg6gBHHn3lBd6dunSncnSlllnnu6lnnLSSSBBnnrcHl6BHHHSnncncnnlnSSSngn"
};
