/* XPM */
static char *d50a5b2c399f418684c376248b7085f3zR2mk6abS4P1fMPj[] = {
/* columns rows colors chars-per-pixel */
"128 128 87 1 ",
"  c #C1C5C5",
". c #C2C5C5",
"X c #C2C6C6",
"o c #C4C8C8",
"O c #C5C9C9",
"+ c #C6CACA",
"@ c #C7CBCB",
"# c #C8CBCB",
"$ c #C8CCCC",
"% c #C9CDCD",
"& c #CACECE",
"* c #CBCECE",
"= c #CBCFCF",
"- c #CCCFCF",
"; c #CCD0D0",
": c #CDD1D1",
"> c #CED1D1",
", c #CED2D2",
"< c #CFD2D2",
"1 c #CFD3D3",
"2 c #D0D4D4",
"3 c #D1D4D4",
"4 c #D1D5D5",
"5 c #D2D5D5",
"6 c #D2D6D6",
"7 c #D3D7D7",
"8 c #D4D7D7",
"9 c #D4D8D8",
"0 c #D5D8D8",
"q c #D5D9D9",
"w c #D6DADA",
"e c #D7DADA",
"r c #D7DBDB",
"t c #D8DBDB",
"y c #D8DCDC",
"u c #D9DDDD",
"i c #DADDDD",
"p c #DADEDE",
"a c #DBDEDE",
"s c #DBDFDF",
"d c #DCE0E0",
"f c #DDE0E0",
"g c #DDE1E1",
"h c #DEE1E1",
"j c #DEE2E2",
"k c #DFE3E3",
"l c #E0E3E3",
"z c #E0E4E4",
"x c #E1E4E4",
"c c #E1E5E5",
"v c #E2E5E6",
"b c #E2E6E6",
"n c #E3E6E6",
"m c #E3E7E7",
"M c #E4E7E7",
"N c #E4E8E8",
"B c #E5E9E9",
"V c #E6E9E9",
"C c #E6EAEA",
"Z c #E7EAEA",
"A c #E7EBEB",
"S c #E8EBEC",
"D c #E8ECEC",
"F c #E9ECEC",
"G c #E9EDED",
"H c #EAEDED",
"J c #EAEEEE",
"K c #EBEFEF",
"L c #ECEFEF",
"P c #ECF0F0",
"I c #EDF0F0",
"U c #EDF0F1",
"Y c #EDF1F1",
"T c #EEF2F2",
"R c #EFF2F2",
"E c #EFF3F3",
"W c #F0F3F3",
"Q c #F0F4F4",
"! c #F1F5F5",
"~ c #F2F5F5",
"^ c #F2F6F6",
"/ c #F3F6F6",
"( c #F3F7F7",
") c #F4F8F8",
"_ c #F5F8F8",
"` c #F5F9F9",
"' c #F6F9F9",
/* pixels */
"FFFgggcTFBTWTFsgcBBFBFTTTTBLTFFBFBTFTBBFLTTTTsgTMFBBcBMFWBBccgFTFTc-sqFBMBW(TgsFLFBBFBBFBgBFgcTBgBW(FBFBFTTTFLTFcT((WBB(BBFFFFFF",
"BccsgcTTBcBFTcs>sFTFF(((BBFBTcgcB((FTFccscBMFLgFggsBFsgFWBscTFTlsFFccFcsgBFFTFFTLFFBccgcBqgMssBccFBBcFTLFFFBscTFFBFBlsFFLFcFTTTB",
"csFFgFTTTFBlFcF>qFFLTTTBTTTlBBcBFT(TLFs3sgBT(BslsccgqgBscFcFBBFMFTsqWTFTTFTFTLFFFFcBgTFBqgBcccBgFFFqlBgFccccscTFTBBF((TTT(TTBBcB",
"gF'(TFFWTcc3ccFTcMcFTBcgFLF(FFBBFMBTTBcBBW(TTFcMFgtFtMsggTcqsBccFTcBBBBgcFLccBTFBBBcFFFFFFMBSBMcBBFBMgqMcBBTTBFBBFFLWTBBBFBFFBFL",
"MLTLFTBcTB3cgcFTTFBBss3cBBMMFBclcBTBFFBBBTTcgBg>qggBccBFMcB33tcBcLFccFTccBFBBFTFFBccBFFggFcAFBccFcgBFgTBqscFBcFLBBFTTFTTFMFB(Bcc",
"TTLFBccBgTFlBBFLTT(BBMcclq3qccBcBBcTBcFFMgFMBFBBccBsBgFLBccqFBgLBcMLFFFTFBgFFTFcFBFBFBBBFBgTLBBLTBcFgBBFccLTFFFtcFBBTTF(WTTWTFcs",
"TTFFFTFFgBTBgFTFTTLFcsccqcBsFFTBcscBFPBBBBFBFFTTFBFMFBLFBBcggFBFc3MTBFTWFcBFcBBF(BslBqs3lFMFBFT(TTBcclsBFFT((WcqlgBFTsc((TBTFgBs",
"FBB(TFFFFBcBBBLFTWTTBccsgT(TTcTBF3qgFTTMBFFcFTTFMcBFTTFFTTBsBFcBctFBBFTFcBFL(cgBccq>sFFB3cFFFBlMcFTFLBBFglFBFFBqqsqMFcBLTMgFcBBT",
"cqFWFFTTTTcgclBFFBBccMcTBccFTBsTTcgFcT(FsgFFFT((TBcBMTT(TggcqBWTBcTTBFFBcFTBFBFFFBBFTFccFTccFcgBcBgBTLBLFBBBBB(sFB(WWTLTTcgBclFT",
"BFTcBTLlgBFcgcFFsFFlqsLLFBccFccFFTTTMBTBcT(((W((TFBFFTFBFL(TBTTcBBFTTTT(TTBBLFBFFgL((LT((FBFc3@BT((((BgcFFMcLTTcFcTTTFBTTFFWcc(T",
"BFcccFcBBTglqlgFslFFFgFTFFFBsBTFFTFFlTTFFcBcB(TFTLcFFLBgTTTTFMcc8gBFFTTWTTBccBFcFsFF(WT(BBT(WFTTTLTFFFFccFFgLFBcTlBcMFFBF(BlgBgT",
"(TBcTTT(TBBFFFTTTBFTLMcT(LFBBTWTBscTFFFBcBFgcFcBTFBlTFBBBFcqsqc(LqgFMBBFTBMcgMFaqBBcFFTT(T(TFTTBFgMTBBBcBcggBsBFBBFTFTFcBccBFFgB",
"BLLBcBFTFclcTT((TFBBFLcF(sFTcBBFBTBBFTFBW(FBMscMSFccFLs%cgcscc8B('TBBt -qFcBFBMTBBgsqsMTTTTFFFFcBBFTTFBLLcBBsgBqsF(W((TBccBFFTBg",
"BF(FTFWFMBgcq3BT((TTTTLWFlBcgcgFFFcBTTFcTTTWTTLBFcTFFFggTWTBBsgcTBTWTLg>sqgggtBLTF3cFccLFFTFFTLTFBcFFFcBTFFBscgsBFFFFTFc(FcFBFBB",
"FTFMcLFTTBTLTllgqgT'TcWFBFBsTTT'WTgtTTLBBFFFBFBtqsgFBlF(T((TTBBFFBTTcFTWTLFcFqcccBscLLcFFFBcLBggBclcBggBFBBBT(TTTBBMBBFlBF(TMBBB",
"TLBlBBgcTFBgF'cgcBFBBBTsBBFlBT(BB(cBTTFFFFTTBBBqqMMBBBcBFFFTFLcccFTTqgBMBF(BFgcFFBFgBBFFFFLTTc3ggFFBcscBFTFMFBB(TBBcccqslBBTFBcc",
"BTBFgcFFFTBBFMccTTsslFFFFBT(FFTBcqcBWTTTBBLTgqccFFFMBFFBBFTTLBLTTTTFF8qBccFTBFgcFTFcBBFTF(('Fggt>cFTFcTTLBFBBccFLcBBBFq3ssBBFgcc",
"gccqSTWtFFTT(FBgFFFF>scFFFFFcBFFLcgTTFLTFBFFFTBcBFTccFFFLM(TLFTBsFTFLccLBFccFFFBBTBcsgs(sFFT((FgqF((TFFFBBFsBlgBBTMFgcTFFqcFFgc(",
"ccTc((TTWcBTlslgBMTgqcTBMBBBcgsgBTTBLFFBllLT(BcBFBBTTTTWcMWBFFBggBBBFBLFBMMgsccBFBFTFFgBBBqcccFFcFTFFFBcg>3BBFFFFBBg>cBWFBFW(FTT",
"(TFBFTssTTFTggBBB88lBFLWFBFcBBBgFLTFTLFFcgFTcqcBFFggBBFFFTFTWFBcgcFBBFBsqcssgFctBFFFFFTFTcc3>cMlggFFcBTBT8qFTTTLBFFlMscTFBFMFFMB",
"TLBBBMsgFMFgFBFTLF>cFFF(WFFB'(FFFBcBTLBFWTBg#gBgccFggLBFgBFBTTTTL(TFFFFBt3lqBMBqMBBBlgBBgsTcBTBc>8MFBF(((ccFTFFcBFFFLBMMggqsFFFB",
"TTB'TBsBBcs3B(Tc((BcTFcFBTFT(TT(LFcsBFBlT(TFBBF33sFTgc(TcBTBcB((TWW((L(FFsq>BFLcggtTBsBFsccFLFFFcg3ggBBTMFWMBFBFMcTTTTTBgFTFgcsg",
"FFTFF(((FFFLTBBMTWgFFggFlMFBBBFT(TBcBBTgF((BTWB%3MsFFMFTggg8ggctFFT'(cBBBBMcBFcMBcgBFgc8qgcFFBT(/TcgggqssBFFMFBTcBLTT(TFWTTBgBqc",
"(BFcBBc((FFFBTBgBgcLTFFT'TLWBFBLTTBTT(TssFFBqcsqcF>%qBTFgcBMgqcssggBFq3gg((BcFBFBcs8slBBFcFFFBFT(FBcFcBsBlcBcgBgctBBFFcgTFlMqgtl",
"FLFTcqsFTFTFcTFBsqgT((LFTF'TqcsFTFLLBcgFcBMBMccBBsggBBFFclgLFsB(L3M>8cBccgFTLFFTTF3gcFFccBFFFMLBqsBBBBBTsqFFBgg3sgBBTTTqlcMl3sBg",
"gFFFt>cscFccBBTFlqMTLFcFcgTFgFcBBBBggBlFgBcBcBFBFgBgFBFBTBglggqBF3TFBMcBBclBFFBLTFFBFTTBFFLccBgMBcgBFFBcFFTFcggBBT'(FTTccBscssLc",
"qcTTgsTTslTFFBBBBqFTFTTFBMgqsT(FT(TFFcgTscTBTLFTTlTTTcBgcBFgccBl>BTLTTTBTWFBBBLLTMcFTFTFFTBSgccsFBcTTTBgFFc3qBc((TTFTccTBFcgscBF",
"Fc(FBTFBBcTFTTBFFqsFFW(TTTFcgF(FB(ccTBggFtgTFFBFTMFBFBccBBMgBFTc>ccccBBcFBTB3cFFBFcBTFTTLFFBBcBFTFscsgs3>qsggqBTBgMcFLBgcBBcT'BB",
"(((((TFcBcLFTgFTFFFFBWWT((TF(FTTgFTcBLqqFFBcgcFTBBTBB(BFFBBFBBBcs>gcg33BBcFFgcsgcBBBTFTFTTBmFMBTTBs%c3gTcqBq8sBcFBgcBTBFcgBBLccB",
"TWBTTTBsqgTFLBBTFFFTBTTFLTTT(TFccFFlgBFFFL(FlcgcBFLFLFTFTLFBcgBBTFBglFTBBFFBcggBsFFFsqgcFLLWTFW(FFc@(BsBsqqsTBssTTFTTTBcFcBBBsgB",
"FTBBBFc8MFTFTMFcBcBFTBBFFTTTFLTBcBBsscBBFWWBcTFgggBTTlB8lBBFBBMBFFTT(T(TAcgcBBcTcB(TgssBBcFFBFTTFBBcLFBFFgtT(WFWTFcBFFFcFTcTFBFF",
"FFFMMccB(((BBqFBBFFBggcFWFcTTFFWTsBcgcq3B((TT'WTWFBFLBg3>FBgcTTTTTcBFFTTcFFBFcBBFgT((TF3cgBFg38cBgTBcBBFFBgFFTTTTLgccFBqgWFFTMcF",
"TFBlcTTFTFscssB(FBFBBTTcgscTFFBBTcM(FlBBBBccFFT(FTTFFBMgqscccFFFFFFcgsBFT(TTBcFclscFcqtscTTTTsgsFtsgqlTcTFFBBFFlcsgBMqqMMcBLFMgF",
"FTFFqFTFTFBFFBqgT(FFT((BlTgcBlBTccFBcBFTTFccBMFFBT(TTFFTBqcFgcFFBcc3-3sBTFTTB(TBgBcgssggBLFTcFTccgsBF3gccgFcBBFTTFTT(>tFgFBsqFFc",
"FTFBsB(TLFFTTTW(W(scBBFBlFBgq-sFBBTggTTTTTF(((FFFFBtqFc(Fqg3cMFFTTFTLTW(Fcg3@FFgBgcBTF((TBFBBcBLTBT'(gBLBqggFT(BB(TTcsgBgsq8FBFl",
"FMFccFFLcBFFBggBsBFFFFLFgFFBsB8sT(TMFFBF(BTTW(WTFFBggcBFcgBgBsTLLBFgFTBcgqc>3csqBcBFFsTTBFBsqBcclccFTFT(FFLBgcFTTTcMBggFBgqFFFFl",
"((TFcBT(BBcBccscBgcTcgBFFTcgscLF((TT(LBTFcFFccT((ctgBFTFFBBLBBcFTBTF3gg>gTTW(sBFBssFg3FFsWWTccBcTBBcFFFBBFBBcscFFFglgcgFFMcTFBBl",
"TTTgq>TBgqclccFFTBcFqsccFLsgcFFTcFTFFFBFBcTTgl8gFcq-qFcBTgBBFBBTTTF(BcFFLLFTFc(TFMFcg3MFcFTT(TFFTTFLTTTBBFBqsBsMBcBFgBgFWTgcTFTF",
"Mcs33qTcsc((FBgTBcFBtqtlTgBl3qBMMBBBFTMcWLcTTBgccq3>qFccFgFFBFBL(BccFFgccgBgcFT((LTT(TBBFclBT((TcFFBBBTstBBgTFsqMBBBcMMBT(cccFTF",
"ccMlcBcFBBTTFlgcccBFc3BB3qBFBBBMcccTFgBcT(BFWFTBBBcBLFBcAcFFBTBTlFFFTLTFBcgBTFBBcgF(TTTTFTFBFBT(TT((MlsccgcBLTcgcFTBFFFTF(FBFFBF",
"TTWFFFBFBcFcBFTMFFFBBBFTscgTTBBBMcggsc(ssFcsFTTcBFLBBBLTBFLFFFFTBFTTTBcFTclc(TBMglMBTT(FF((T(FBgcBTsc(BFgqBBBFBBTMTTTTTFFTBFBcBc",
"FW((('(WLTTFBBL(BT'TWFFTFFcgFTTTBcLc#MFBcg8lFWFLss(BBTFFTTLTTW(TFlccBTBLFBBBFBFFFBBlMFTFFTFFF(BMTMcgTF(FBFBFFsgtBFFFT(TTWBFFFFBg",
"cTTTBT(FFFTTFFFBL(TTTccTgB(ggBB(BLTTgBBT(LgBTLBqgB(cFTcgTBFTTFFBcgqMFFTTTcBFBTTMTFF(((BccLB3BTFcTFBTTFMBTFFFFsgTBFccBTTTTFFFTcFB",
"TBBBcBBTFB(FETFBBLFFLLlcBBBFcBF(gs(TLBTTTTgBTFqcqqLBBFclB3BBT(TTBFBLTTBTTTTTgBBgBBFFTTTWFqggggccBFBBBFqBTBFMcBBBBFFBMMgcBBFFTBTF",
"LBTFccFTBFcTTMcTLMBcgLTccgcBBsBTqcTWTBTBBggBBFFqgqscMBccggBBBLTTTLFBBLBsccFTTBFccTFFTFTTFgqWTg33cTFBBFBTFFBcgcFccgBL'WFTTBFTFTTB",
"cBFFBcFFcqgTTBcWLFB(TTTBBBTFTFg>%TBcFFFFFcBBgFTscq3qBTTFFccBFBcgTFBcBBMgFcMFTBFMBBFTFBcBBccgF((ccLBcFFTcBTFBTFBLBBTTFc(TTcFTFFFF",
"F(TFccFTTBsBTT3cTLBLTTcFFF(((TFg3FlgMFTTBFFTcBTcgcBgW(''TBcBFgFLFTTclgFTTFcccT('(FFFFFTBFBFgcT((TFBTTFBtFLW(TTFFBTFFcsFFBTLFBcBc",
"FTFFFMBBccFFFBccMFBFBgcggcWBTT(TcgscgT((FTTTFsBFqtcBF(TFcBcFFBlBLFLFBcTTBFFcBTFTFMFMFFFTTFTFcFTTBcMTFlTgcgBFcgBFBcBBBFTFsFMFFsgc",
"BLgTFcLcqsF(BB(BcFFTTFFT(gFFgFBFMcclFTBcF(TTFcFTBslBgFBggqgTBT(gtBBcMBlFTFWTTTBcBsgBBB(WFBFTlcFFcsgFLFcg>cFTBscBFBBTBcc(csBBTFTT",
"BLTWFLFgglMFBBFLFTBB(TFBccsBBBFMsggcTTFcTTcBFllBccgMFFBg%tMFcBTBqcFTTscFlF(TLFFF(tc((BFMccLTTFBFBLFFFFMgBFFTcFFFFTcBTTcBcgcSFcFF",
"FsBFB3gBLTFcBFFTFlLBF(TgqccBFF(((TFBlcl3MFMsFsqscTFccBBcB(FTFMFBFFTLTFTWgsgcTFTBBFB(FBFTFBBBLBgFTLBFBBBBFTFcMgLF((BtsltgcFTBMBcL",
"BcFlqtscF(T((FBFl>sBBcBBcBTBs3c(BFFTgggqsFBqBBgMcW'LFTBc(((((TccFFFWT(WFFgBcTW(BBTLFFTTTFTTFsBLFTWWTFTTBFFTFFcFF(TTg3>@cTTFcgBBF",
"gFgFccF(Fs(T(BqqsqsLBBcgccFFcqcBcB(TBBTFT(TFBFFBFFBBF(sMFFLWW(FFBFFFgcTBBB(TWTLTTTTcFFFBTLL(FBFTBqlTFFFcTLLBcFTFBcBgqlscBBF(FFFB",
"gFcMFFcBFqscTclc(qgLWLqBcccgcTBgcgFcFBcBcFFBFTTTcBc3LFc('FFTTTcTcccqMBBLFBMBFBBgBBFsBFBgBgcWFTBFB>cBFBMMcFFcBBFslBgcccgLBBBBTFBF",
"Bct3BFB3ls>sFcBBBFFFFFcFBWgqgBBgglscMBgBcBqcgsBFggBFsBTTT(WLTFFcqgqFFcTWFgFFLFBFFFFLTTTLgBBgqTgTTFB3sccccgFW((sscBgBBcgLTTTTqgFB",
"BBBMBFTFcFBFFsBTBFBBFBBBcLcgcFTTcBcLFTBFTTcsBcMBccggBBFcBslBFFTcFgsMFBLTFcBBFFFB(BFq%BFccFFgccFsFFTgccqFFgT(WFgcMgMTFcMBcFTWBFBT",
"FTF3gT('WTFTTBFWTLBBFFMBLTTBlTBFlLWBF(TcFFcqgTglFTTgTTMBTccBFTFL'FMBBMcFFBBBFcBMT(FgsFFTB((((scggs(FFFT''FgFTFgqcBFlFTFgsgcTqFFT",
"F((FF((FTTcgBTWTFFWTBFcBFcBTWTTBBTcgscgsBFTFBgqMTF(TFcqFTFBBFTFBTTLsBgcBF(FTTBF((WFFTlBWTBTTFsFBBgcgF((T'WBBTFc>3gcBM(BBFFBBBFtB",
"BcTFFFT3FWMBcBBBTBLWFTTFTFFFBF(TLBBBcs%gcBBccFcBBLFTLBcsFFBTFBFBFFs%sBBT(BcFBMFTT(WBgggBBcF(LTTBFTFFFBTlB(TTFLFcFTTTFWTgBBF((Bqc",
"FcFFFBgcBBccclcMBccFcBTTTFFFFBcBgFBFFLsgBFTBsFFFTTFBBc3cBMF(FTTscL3qqTFTLLTBcFFBF(FcccBFFTTLFT(cFTcTTscLBBBLgMFBT'(TggFFFFsB(Wcg",
"BcqBTFgTMgF('WBLBBFBsqBTT((TFsgBqBFTTTFBcqTBFcFTTBWTF>cTcLTBgTcl'F(TBLFcFlFFFcFTBBFBTTcT(TTggcggFFcTFTBBLFFFBBcFcBTFBLFcBFqFTBBg",
"FLgscT(WTT(((TFBBFFgFsgBLTTFsqFsgFWTTBscTgBBcFcFFqF((FFBFFgcFBMLTF(TgsFcBMBTcqgFTscFTcsMBTFc>qFFFFcTTTcgTW(TTFcggcFTTTLBsgFBlcBB",
"TTFFqLFgsBcFFBFFTLggFBBBBTFsqgst3gTWTgcFFFLLsgqgBFMT(TBTLsTTscFBsBBgsBgFBTFBq3qFTTsT(BBcMgcBBTTBFcBFFFMBFB(((TTTBFBFFTBgBBWBqBBF",
"FFMTTgqM3>-gBBTTTTc8cFFTTTTBcFcqBFBFgBTTTLFLBFFFslcTTFF'LgBFcBTggssBMFBTFBsgsBMcFT8%cBcTTFFFBFcMggcgTTFTTMFTBT('(FTTTFLLT(TTlFcF",
"cgBLTTTFTgBFFFBLFFFggBFTT(cTTTcBBFWTBTFcBcsFBT((TFFFFMBTBBMcFFBTgss(TBBFFBMFL(ggcsF88cTT((LTFBFFgTFcL(LL(cBFqqcL(FT(TTT(TFssBBFT",
"BtgLT(TBTBTT'TBLBFccT(TTTFcccFBBTT(((TclLqccTFTTFT(Tg3tcBccgTTqFc>lB(FcBBsF(LTBBBsBllqcWTFclBcFgBFTTFFBMFcBcMsglBBTFBFT(FclFB(FM",
"cFFLT(WFcTLTcgqccgsgsB(LFBgqsBTFcFTBBFBFFcsFWTBFFFTTcqFLTTFBLTsscqsFFW(FccFFTcBFFLFBLFBTTTMTFBTB(TTTBccFgsTcTcsFL((FBgBTFcBTFWFF",
"BgFFBFLBc((BgBFFggggcsFBLFsq(FgqcgccFFBgsBsFFBFBcTBcslTFLTg>cgqscFccFcFFT(BqFFBcBcT'TBl(W(LTW(cFTBBcc(BgBLTBFBBFBFTBFcFFFBgBTFBB",
"FcBFcMTF(Lgg'FW(BsBFLTgBFLBtcFccFFFFBTTFBg8BTTB3BBBLBBMFMBlgcBFTTFMqcgTWWTTlBcBggBTTlqsgTTFLBBFTFccq3cTFFFTFTFBTFBcMBcBcFTccFMBc",
"FTccBBFTLcsg'cl33FWBcFcggggBgMTTBB(TFTFTTBgMgBsgTBFT((FFgcFgcccBT(TTBcBBFFBFFFBBsBTFFcq%scclclssgBBqBqgBFFTT((BBTLBggBBTLFTTFsgF",
"FFFBLFlsBMcFcFgqgTWc3cccBTBFBqsBFBcBMcBF''TFgltFBBFlB(((''FBFccLLFTFFTFclBccFTBFTFT(TTs3>csgFBg3tgggggBgggcBBL(MTFcg8cLBTTBFFcsB",
"FFTccBFBFFBFBBcBLTFBcBL(((sgcqBgcggcTFlcT((TFggBFLLBBTLTTBBcFFTFMTTBTTTFBcFTcBFLTFgsTcMLgFT(((TT(Tg>gBBFFccBgqgMFsqggFTcB(ggcBBF",
"FBsBqcTT(gs(TcFFFBBBBcTTT(lsBBclgccMFFBsMBFcFqB(TTTFTTFcg@sgcBgtBTTFWFBFTFFBcBBgBTBqcgcFggTTWLBFcBBgcBqsT('(T8ggBcqBBBLgcLcgcTTT",
"sq>ssWTTFBBLTTFFsgcTFFFFscBgqBTLFFsccccMFF(TcT((TFBcFFTB8qqgFTcBFMFLFMsc(FBccWTBFFFcqBTsBcTFFMcBsgssBBgggBF('TLB3ssTTcWTBBccBBBF",
"q>qgBT(TcLsB(BcT#sgTgBTTccBgFTWFcBBBgcMcFF(cs(LFFFBBcgFcBFcgMccBMcBBBTBTT(gg3B(FFBMgccTsTggBMcFLscFgT((BgccL('(Ts>>qgF(BFTTFT((T",
"TFFFccFWTM8BAFsssLgMFLTLW(TL(FBBBTT(TcFFBBFMMFF(TFL(BsLcTLBTcBBMFFcMBWTLTWT(BsB((B%gcTBFTTBggBFLBcccTFTTFBcqgssBFTcgqBFBW'((T'''",
"ccgcBBB(FMBFFFscTBgsFTcFTFcFTTgMgB(FcBMTTcgBFggBgBcFslgFFBF(gTTFcqgFWLLTT(TTFBcTTl>MccBBLWT(MBBBFFBgFLcTTggq8@cFBBFL8BTTTLFTTTT(",
"BcqcFFB(TBFLFTBTFFBscTB3sgc((BsgT(WTccgTTBgMc>cqMFscgFLTTcBTBFgcs sBcFBFTTcgBBcFFFBlFFcTFBqgqqBMFMFcBBBBFFFcT8gFFBtgBFFccgcFTTTT",
"LTgFBBBFFTFBcFLFFTFccLTcqsqqgMslBFBFcFgLW(TFg3Bt3cBFF('(TFFcBFBFL(((BTFBWTTcBFLFT((TW(FFFBglF(LLBLFLLTTT(TFlMBcBFMccFFTBcgBFFFFF",
"FgBBFBBFF(TTFFTFFFTgBFFTTBFFcFFBBBcggFLTTWWFBqglqMBFBMBTTFBcBFFLlTT(FT(WTBqBFTTFBTLFFFg>cBBTFF(TBBTFFBTTTFBFtBBFBBLFBFBT(('q>FcF",
"FcTT((T(TB(TTTTTcsBLFTFFFFFLccTT((EBBcFMFMcFFlsgs3gLFBFBFFTBF(WTFcFBcFFTTcgBFFBcBFcgsBMgBFcFBFFclqFFBMWTFFFFcFBBTTTBLFqBFBBgFFFT",
"BTT(FFcFTFFBFLTTsgggFLLBcMBgBBBcA((BFBBqgcsFBBc33gFFFFWFc(ccFBT(WFFBBBTTFFTWFBLcBTFBFFccFBFWAFBc33MTBB(TFFBBFTFFBL'Fc3>cglcccBcT",
"F(TTTcqgTccFsscc>sggg(TgslBBTTFcgFFlcFBcgBFBMFFccMFTTBFTTFc3qqsgcTTTcBTTTTT(TcW(BBTTTgcBTFBTFFlBFcc(TTTFTTFFcTWcBgBg3>FBqTFgcTBs",
"FBBBg%c(TFccg>qqglFFqFBTcB('FBFFFcFFFFcBFcsBB>MBcFcTWFcMBcgscBBcFLBTccTFBsFLL(BF(LTTB3qFFFgT(FBB(FF(TBgBT(FFFL(BFBFMcTFTB(FgLFTc",
"BcFLgcFTFTLTFcgB((LFqgT(Bg(BgqBBFBTTTFTFTlcLTc3gtBcFlcqcBg8BL((cTFBFLFcssBBBBTgqgBTTFcgMgFBcBFFFBsgFFFT(csBBFBFFFBgLFBBBTBcBFBFF",
"TTFTTT(((LBTFFlsgFWBFBFFBcTLFBMBFFFFFFFTTFFBFWTc8BFBgcFgFTscBF(lc'ETFBcgBTFc((WTccFBgtFBBBBBcgllBcsgTFcTsgTBFTFBTFtcTWg8gFTBM'TT",
"TTTFcTTFLTFTTTTgqF(WFFBLFLFFFLLBlBcggFBSTTTTFcFgsFFTT((MTFqccsFFgsAWTBccTFFTWTTMW('ccBgFBTTW(sgcBcFBFFFTgcFFcBTFBcFLcgscTT(MBsgc",
"FTFBcccFFTscTFLF3cFBcFFFTTWLcL(FBLBgqsBFFMFTWqgtFBTTFTcFFBc>3BBFBsgFTclgBcccBFTFBFFFBBcBcFBcFcTBF(TTFqBgcsgcslTFgBcgcscBTBgFLFBM",
"gscsgBsFBLcgFTTTggBBBTTcFTTFFMBFTTTFc3qTTFBTBBcg((TTTgsgtsFTW(TBccccLBBLscFFFFWFcgcT(cMgBccBFFgscTFBsgccBBFgMBTFBgBssTL(gqFTTTBg",
"qccBBcBFMTTFTTFFLFBF(((B>cFFTgccBBBFBscFFMTBsBTcBTsgccFcscTgBTTFTBFBsgtBFcTLTBBFTFLLBgFBsscBBBqMBFcBBF(FBFFgMcFqs8gBcTTFFTFFFBBc",
"cFF(TTFWTBFTTcFFTTLFFFTBBFFFFcccqBFFBFFTggWTFTBTFTgFFcsTBFcgqMTFsBFFTcBBFggBB>gcFFTFFF(Bc(qgF(FF(TFlccLTggBBcgBgqg%BlgFTTTgFFcMB",
"FclMTTBqFTT(TlBFTFgBFFLMFTLLgccglBBFTFFBFFFBMFTFFTcsTF8gTLFLBTFF3glT(lgBccBTsqB3qgTTcTFlTcc8FsTTTTFFBcBF333sFTTTBFFFBFcBFFMBTTWT",
"TFgcB(BcTFTFFBcBLTFLWTTFFFcgFFFFBcsBBTTFFBBcgBlFLTFBFBgsFTT(TTFgTFtFTTqqcTTL(BWBgcTWFFggqFTgcgFLBFBFBLBTFg>ccBFFFLFcFFc3lBBFFFBT",
"T(TFBgBFLFFTLTFFFgcgTccgsFFcBccBTsqBgcT(LFBBB(ccBF(WTTBcBBBTFBBFTFcgtBcqgFTFcFTWccBcgFTclFTBBBscBMBTBBggFFlB3cBgMBsBTFBgsFTTFTLc",
"W(LTTBggscTTBBccLcB>8cBqsT(FBBcFTgBFFsccBMTTFTTBgFBBgBFFTTFFTBBFFBBsgqgcBLFsgBBBLBBlscgcTMFBF(gcBFTBccqgBtscsFTsgBBBFBBFT(WLFTFF",
"FcTFFBcBcgFFTcqsssTB3cTTBB(TAFclTBBccMBcTFB(MFFBMccBTFFBqBBBcBBFsqgFBBsgBcBFBstF(L((BggBccsFTTFcscLFgqg(TTsgTT(cFTFcBcTF'((TLTFL",
"gTTFcFFcFTBBFc>FcBMFTTFcFLFLFTBcBBgcB(WcFTLTcBFFBgTWFBTssBWTF8cBgBBBFTBTTs3BBBMBgTTFFTcBBFqcFTFBqlLBBFFTFTgqsBFFFgFFTccFTTTTLBgg",
"BWMFcLBTTTBFgBgg(FTBM'TFgBLFFTLccBlBFTTLTTFBcg(TW(TggTTBcBc(FsTLLFF(FgFTFBs3qlBFBlBBBccFcccccFBFcLFFgBLFFFcF3%qFBcBTFTBTFFFFFFc3",
"LTsgFgc(WTFBMBctFcFFBB((cFTcBWTT(TTFBTTFTWFFFFLTTBBgB(Tgg8gBFFTFBg((FcTWTFFcBscFTgSTFBL''TcFTTTL(FFBB(FBTWFBMg3slgMcFFBTFTBcBBTg",
"cg3BBcBFFBBBFFBBFBFlgcFWBgTBLFcBBFFccFLBBBgFFTFBFF(sB(LcgscFF(FccgBBccFLLTBFTLFF(BFFFLcBBcFTWTFFT((Tg3gFqlFFFWFMTMclccFFLFlFTTgc",
"TBsFsgBFLBcLTTFTWFFB>F((TBcgLMBBBBFBBFFFFBMFFBccMBTB3gBFTLT(FgFFBBgglBTTFTTBFTBFFFTTBTTg38sBcBBLLWcFTFTBq8lcB(BFTTFBFccsgBccMMBB",
"FFTTBTTcgFgBBBFB('BcqBFFTLccFFFMcFBFTBcBFLFcTsgTTTLccglMFFFTFBccFFFMsccFFTcsqcFcBBTWTgqqBcF(TBclBLBF(TB((FMBBBBF(TBFBlscccLFBFFF",
"sgBTFFBMccMTLccgF((FtgBFFMgFT(FtcTBTTBgTFcTgFFBTTTTqBTWTTFLBcFFLTT(FBgcBFcssclcTTFBFlggcMTFT'WL((ccq3MqBTFBFTMBBWTFBBBcWFMccTFFT",
"ccBBcBBsFTsF(TB%3LTFgFTTBggFTTLg3FcBTTLcTcBsFWTTBcBcsFFTFlTc8BFTTFTTFMBgstgcTFB('(TTBBcMcFFTFgTBcgg>sBcgBcqcMcTlFcFcgBFTTBgqT(FB",
"BgcBFTTTFTBscBTLFTTFccFFLTTFFMFBMcgcFsFBcgMMsTLFBBBBFccFcsLg@gBcMsgFFBgBBBFTFFcgB(TgMTqlcFLFcgT83BBBFBFFBscB3MTcBFFcBB3sFFFcTTFF",
"cBFTT(BFFcg3cTTTTTTTTFBFBBFTFccBgMFFTgFTFFLFFLTTFTFgcsBTcqMcTFgcgcgBBBcLT3BFFFggcFc8gsg((TFBsgFgcgFTgFFBTFTMcFFLTFFFF% 3cFsBFFBF",
"FWTT(F%ccq>gFFcFcBT(TLTFFF'L(TgBBgFBFTFFFFcBBBTLcscMq3qqsccBFBcFBTsBTFBTTsgBBcBBFcgslcTBFBBgccBscFBccFBBLT(BTTTTBBMBFB8>cLccBBFB",
"BMBFTq3gBBB3qgFBcgTBFgglggBBBBFFTTFBFBBBTFTTsFTTBLsgctsqcFTBBBFcFBg33cFFFBlLFccBFgBFFTFBMB3>scBBL(MBgBFBBT(TWWTT(FTFBlsFTLFBBFFL",
"cqcBcgLFcMBgcsccscTcFMsgqTFgBLFFFgFFFgsBTLTcsWT(FTLccBggsBTLBLFFBcclqBLBBFLFTBs3gMFBBTTTTBMBFBFccFBBTTFF(WFcBTBcTTW'TFTLTTFSFMFF",
"FBcBFsggscFTBBFLBTBBBBcBM((lBTBcTB3qclBcBccsBFFTFWFFTTBgTgMqgBBcccFcscMBFFFFFFTcscBBBTLFTFBcFTTBBlBBTWTFTFcgslFFFTF(cB(TFBFBFBBF",
"(T(TBgcgcBFBBFFTFBTgclBcccFTFTTcsgq3gBTBcBTFFTFFFBcBF((FBBlgFFcBBcccTTTLFBFFcg(TT((TBFFcFBTBBTFcgcTBBTTFTTcg3cBFc3Ts8BcgTBBFFFBF",
"Fcgcgc>BFcLscFcBq3F(WWccsgLFBF(Fgsg>gBBBBcBgcFTTFaFBBFTBFBBTTFglTTcqT(ssTTcBFFTcFWTWFggcB3FF((FFFBFcgMc-gTBctFgFFcFgqMFsTFFMMBcF",
"FBBFTLB(BBFcqMqFcTFT(TF(FccFcBcB(FB3cFccFBcccFLcagFBFTTMBBcL((FFBBcgBgsTTBtFT(FLBBBT(TF(BtBggMFBTFFgLcsgT(FFcFcTTTBFTcFFTTBBcTLF",
"TTTTTFBFcLTTsgsFccLLBBTTTFFMBTLT((TFgsqB(FFBcBFTgFFBBg3qq-sFFLBFTWgcFgFTFFWTBFBFLFcgBWTLcM(TTccTFBTBFBBTTTTTFBcLsBLFgcTTT(TBgT((",
"BFBgFTgBTTTFBgglgcBBc8cTTWFBcF((TBBFBcBFBqgTBBFBMTFFFgcBgscTFgLTTLBcLBMlgcMFFgFT(FgqsBFBgBBTTBBBgFLcBBFTFFTFLFBBcFcsBTLT((TBgFTF",
"BBBcFTLLBF(TB%BBFFgcBccFFFccBFLTBcT(LgFFs>cLcgFBBFBFgcFT(FF(csFFsFFBFBccgB>BTFBTcgFcBgBMgcllFTBlcBWgFFFBFWBFTBFFLFgsFT(((WBTFBBc",
"TTFBBgBTFT(FggTFFBsgtcFTTT(BcccccFLTTB3BFBBBBcsgllFglcccFFTWFgBBTMFFcBcLcLTTFBBWgsBBTFFF-MBggBFFB8BFT(FFFBcFFBMLFLTFcBBFBFBFTFcl",
"FBBBFgBFgcBssF(T(lcBTTT(TTTBBscgBlFLBBBcBgBgsg@tsBMF(LB%qFTFTFLFTsgtqqcF(TBBFTWTBBgFBcFFgFgBB(FBTFcF(gsFFFBFFBBFFT(T'FBFFsMFFFgs",
"FT((BBBMBBcBs((FTsgBBFFTTTTT(FTFBccBTBcFTBTgqcBFT(FT(TFBsFccFBBFBMTT((FccBccBFccBTcFcBBLLLBBBFTFBTBFTqcFTTTWTB(TFFFFBTT(WBTFFlgg",
"T(T(cq(TFT(BcBcccFBFBFFBFLFB(TBTBFFFBccTW(TBgBc3MBscTTT(gcFgsggFLgsTTFTcsFFBsqBFFBTLTMccccBFTssFBcFcMBlLccBB(cBcMlMg3gcTLFTFgccc",
"FFBF(sBLBFFssFcBFFFBcsFBlFBlFBBBFF'TTFFBTFFcgBcgBT3qgFFTMgLMcTFBFBgFcgBBBBTTTcLBgBBFT((TgqMBgLTBFFTTTTMBFBggFgqFTWBgLBqlcBBg3TFT",
"BLFFBgBFlBcsggscLBBB>cTWTFgccsMgcTFBBBcFTTFFTW(((LcBcBTTFcLTTTFBBLTFgscMLsqFTFTFcBcBcF(FMcFB3lccggcFFFBFTFcBBBTcgLsT'TgccBTFgF((",
"L(((FTBB(FTsscBBFFgqsBBBFcBcBFBBBMFcBcBFTTB3sTLFFFBB((TTFgTLWBTFTTFTTTW(TL>g(FcBBTFFBMcMFLTLBBFFBqBFFBBFTW(LBTFTFB3TTcB(T(T(TTTF",
"BBBFFFTFT((TFBBBcTTFTTFcFTFBBTTTBgFTFgcBTBTccTcFFBgBcBBBccBBcqFMLBT((((TTc>FLFtBcFFTcBFcgFT('T(T'TF(TBFMFTTTWTTFTFssFBFT('(TTTLB",
"FBgBccTgFTMgsFFBBFFFT((T('TgBTT(TFcW(TTgFBFLWFFFFFMBFccgccBBqgs3cLFcTTBBTBTLFBcqcFBTTFBcgsBcFFBMBBMTTcBBFggFFFTFTFLBBFFFFWTTLFBF",
"TFcsgBBBBFcFTFFTTTTFLT(TTTlLTBBcBF(WTWFTBFBgFFFTLTTBccMqcccBgT%3cMMssqsgBTTFTFTTBgBcMFFMFFBBBcBFFTTFcggTFcFBsMTTT((TccBLcFFBTFgl",
"TcscqcFsqFLFTcFFFTTgFTTFTBTTFBBBBFBssBBLFFFFcBccBTLBcTTF3qTLcFccsqgFFc338BTTBgFF(F(FTTTWT(LBBcF(TTTTLFTcMBggBBFFFLFBFBTTTFFcFFBs",
"BW(WTMBBMFT(TFT(TTLFFLTBBTTTTT((W(TccBBFcFTTTmBclBFBcT((WFTLTTTTccqcT((F8BLlqggFWFBFTBBMFFgqcFF(TTTTLFFsB(BqT((((FFBFBFFcFWWTFcF"
};
