/* XPM */
static char * NO_xpm[] = {
"64 64 84 1",
" 	c #9C9C9C",
".	c #9A9A9A",
"+	c #232323",
"@	c #383838",
"#	c #686868",
"$	c #393939",
"%	c #4D4D4D",
"&	c #646464",
"*	c #323232",
"=	c #5D5D5D",
"-	c #7A7A7A",
";	c #888888",
">	c #8F8F8F",
",	c #949494",
"'	c #898989",
")	c #7D7D7D",
"!	c #616161",
"~	c #373737",
"{	c #8A8A8A",
"]	c #2A2A2A",
"^	c #717171",
"/	c #3C3C3C",
"(	c #787878",
"_	c #999999",
":	c #434343",
"<	c #7E7E7E",
"[	c #636363",
"}	c #6D6D6D",
"|	c #6E6E6E",
"1	c #818181",
"2	c #262626",
"3	c #9B9B9B",
"4	c #6F6F6F",
"5	c #7B7B7B",
"6	c #4B4B4B",
"7	c #535353",
"8	c #626262",
"9	c #939393",
"0	c #8C8C8C",
"a	c #868686",
"b	c #6B6B6B",
"c	c #585858",
"d	c #2C2C2C",
"e	c #8B8B8B",
"f	c #2B2B2B",
"g	c #575757",
"h	c #656565",
"i	c #5B5B5B",
"j	c #989898",
"k	c #666666",
"l	c #7F7F7F",
"m	c #757575",
"n	c #6A6A6A",
"o	c #848484",
"p	c #919191",
"q	c #979797",
"r	c #2F2F2F",
"s	c #929292",
"t	c #313131",
"u	c #7C7C7C",
"v	c #727272",
"w	c #4A4A4A",
"x	c #292929",
"y	c #444444",
"z	c #969696",
"A	c #878787",
"B	c #2D2D2D",
"C	c #494949",
"D	c #3B3B3B",
"E	c #242424",
"F	c #808080",
"G	c #424242",
"H	c #404040",
"I	c #828282",
"J	c #8E8E8E",
"K	c #858585",
"L	c #474747",
"M	c #959595",
"N	c #454545",
"O	c #595959",
"P	c #525252",
"Q	c #272727",
"R	c #737373",
"S	c #515151",
" ............. ........................  .......................",
".++++++++++++++++++++++++++++++++++++++++++++++++++++++++++++++.",
".++++++++++++++++++++++++++++++++++++++++++++++++++++++++++++++.",
".++++++++++++++++++++++++++++++++++++++++++++++++++++++++++++++.",
".++++++++++++++++++++++++++++++++++++++++++++++++++++++++++++++.",
".++++++++++++++++++++++++++++++++++++++++++++++++++++++++++++++.",
".++++++++++++++++++++++++++++++++++++++++++++++++++++++++++++++.",
".++++++++++++++++++++++++++++++++++++++++++++++++++++++++++++++.",
".++++++++++++++++++++++++++++++++++++++++++++++++++++++++++++++.",
".++++++++++++++++++++++++++++++++++++++++++++++++++++++++++++++.",
".++++++++++++++++++++++++++++++++++++++++++++++++++++++++++++++.",
".++++++++++++++++++++++++++++++++++++++++++++++++++++++++++++++.",
".++++++++++++++++++++++++++++++++++++++++++++++++++++++++++++++.",
".++++++++++++++++++++++++++++++++++++++++++++++++++++++++++++++.",
".++++++++++++++++++++++++++++++++++++++++++++++++++++++++++++++.",
".++++++++++++++++++++++++++++++++++++++++++++++++++++++++++++++.",
".++++++++++++++++++++++++++++++++++++++++++++++++++++++++++++++.",
".++++++++++++++++++++++++++++++++++++++++++++++++++++++++++++++.",
" ++++++@######$+++++++%######&++++++++++*=-;>,>')!~++++++++++++.",
".++++++%      {]++++++^      ,++++++++/(_         .):++++++++++.",
".++++++%       <++++++^      ,+++++++[_             .}+++++++++.",
".++++++%        |+++++^      ,++++++(                 12+++++++.",
".++++++%        3=++++^      ,+++++4                   5+++++++.",
".++++++%         _6+++^      ,++++7                     8++++++.",
".++++++%          9$++^      ,++++0        abc#1        9d+++++.",
".++++++%           ef+^      ,+++g       .h+++++ij       k+++++.",
".++++++%            l+^      ,+++-       m+++++++n       o+++++.",
".++++++%             4^      ,+++p      qr+++++++2s      _+++++ ",
".++++++%             3{      ,+++_      {+++++++++1       ~++++.",
".++++++%                     ,++t       u+++++++++v       w++++.",
".++++++%       3             ,++x       1+++++++++(       y++++.",
".++++++%       43            ,+++z      >+++++++++A       B++++.",
".++++++%       6}            ,+++{      3C+++++++Dj      9+++++.",
".++++++%       6+)           ,+++4       'E++++++F       -+++++.",
".++++++%       6+x'          ,+++G3       'H+++~I        7+++++.",
".++++++%       6++~s         ,++++5        .J10_        K++++++.",
".++++++%       6+++Lq        ,++++@M                   jN++++++.",
".++++++%       6++++O3       ,+++++%j                 3O+++++++.",
".++++++%       6+++++n       ,++++++P,               q=++++++++.",
".++++++%       6++++++-      ,+++++++$I             ;G+++++++++.",
".++++++%       6++++++QA     ,+++++++++w<z       qIP+++++++++++.",
".+++++++++++++++++++++++++++++++++++++++++%[}R}&S2+++++++++++++.",
".++++++++++++++++++++++++++++++++++++++++++++++++++++++++++++++.",
".++++++++++++++++++++++++++++++++++++++++++++++++++++++++++++++.",
".++++++++++++++++++++++++++++++++++++++++++++++++++++++++++++++.",
".++++++++++++++++++++++++++++++++++++++++++++++++++++++++++++++ ",
".++++++++++++++++++++++++++++++++++++++++++++++++++++++++++++++ ",
".++++++++++++++++++++++++++++++++++++++++++++++++++++++++++++++ ",
".++++++++++++++++++++++++++++++++++++++++++++++++++++++++++++++ ",
".++++++++++++++++++++++++++++++++++++++++++++++++++++++++++++++ ",
".++++++++++++++++++++++++++++++++++++++++++++++++++++++++++++++ ",
".++++++++++++++++++++++++++++++++++++++++++++++++++++++++++++++ ",
".++++++++++++++++++++++++++++++++++++++++++++++++++++++++++++++ ",
".++++++++++++++++++++++++++++++++++++++++++++++++++++++++++++++ ",
".++++++++++++++++++++++++++++++++++++++++++++++++++++++++++++++.",
".++++++++++++++++++++++++++++++++++++++++++++++++++++++++++++++.",
".++++++++++++++++++++++++++++++++++++++++++++++++++++++++++++++.",
".++++++++++++++++++++++++++++++++++++++++++++++++++++++++++++++.",
".++++++++++++++++++++++++++++++++++++++++++++++++++++++++++++++.",
".++++++++++++++++++++++++++++++++++++++++++++++++++++++++++++++.",
".++++++++++++++++++++++++++++++++++++++++++++++++++++++++++++++.",
".++++++++++++++++++++++++++++++++++++++++++++++++++++++++++++++.",
" ++++++++++++++++++++++++++++++++++++++++++++++++++++++++++++++.",
" ................     .................     ................... "};
