/* XPM */
static char * SO_xpm[] = {
"64 64 100 2",
"  	c #9C9C9C",
". 	c #9A9A9A",
"+ 	c #232323",
"@ 	c #242424",
"# 	c #565656",
"$ 	c #737373",
"% 	c #858585",
"& 	c #8D8D8D",
"* 	c #929292",
"= 	c #939393",
"- 	c #8B8B8B",
"; 	c #828282",
"> 	c #787878",
", 	c #6C6C6C",
"' 	c #424242",
") 	c #323232",
"! 	c #5D5D5D",
"~ 	c #7A7A7A",
"{ 	c #888888",
"] 	c #8F8F8F",
"^ 	c #949494",
"/ 	c #898989",
"( 	c #7D7D7D",
"_ 	c #616161",
": 	c #373737",
"< 	c #696969",
"[ 	c #676767",
"} 	c #3C3C3C",
"| 	c #999999",
"1 	c #434343",
"2 	c #333333",
"3 	c #6F6F6F",
"4 	c #636363",
"5 	c #6D6D6D",
"6 	c #272727",
"7 	c #383838",
"8 	c #818181",
"9 	c #262626",
"0 	c #7F7F7F",
"a 	c #7B7B7B",
"b 	c #9B9B9B",
"c 	c #969696",
"d 	c #4F4F4F",
"e 	c #535353",
"f 	c #626262",
"g 	c #404040",
"h 	c #808080",
"i 	c #393939",
"j 	c #4D4D4D",
"k 	c #6B6B6B",
"l 	c #8E8E8E",
"m 	c #8C8C8C",
"n 	c #868686",
"o 	c #585858",
"p 	c #686868",
"q 	c #2C2C2C",
"r 	c #515151",
"s 	c #525252",
"t 	c #575757",
"u 	c #656565",
"v 	c #5B5B5B",
"w 	c #989898",
"x 	c #666666",
"y 	c #484848",
"z 	c #3F3F3F",
"A 	c #757575",
"B 	c #6A6A6A",
"C 	c #848484",
"D 	c #2B2B2B",
"E 	c #838383",
"F 	c #919191",
"G 	c #979797",
"H 	c #2F2F2F",
"I 	c #505050",
"J 	c #8A8A8A",
"K 	c #797979",
"L 	c #313131",
"M 	c #7C7C7C",
"N 	c #727272",
"O 	c #4A4A4A",
"P 	c #292929",
"Q 	c #444444",
"R 	c #878787",
"S 	c #2D2D2D",
"T 	c #5E5E5E",
"U 	c #777777",
"V 	c #494949",
"W 	c #3B3B3B",
"X 	c #343434",
"Y 	c #2A2A2A",
"Z 	c #595959",
"` 	c #747474",
" .	c #4B4B4B",
"..	c #5C5C5C",
"+.	c #3A3A3A",
"@.	c #959595",
"#.	c #454545",
"$.	c #909090",
"%.	c #7E7E7E",
"&.	c #646464",
"  . . . . . . . . . . . . .   . . . . . . . . . . . . . . . . . . . . . . . .     . . . . . . . . . . . . . . . . . . . . . . . ",
". + + + + + + + + + + + + + + + + + + + + + + + + + + + + + + + + + + + + + + + + + + + + + + + + + + + + + + + + + + + + + + . ",
". + + + + + + + + + + + + + + + + + + + + + + + + + + + + + + + + + + + + + + + + + + + + + + + + + + + + + + + + + + + + + + . ",
". + + + + + + + + + + + + + + + + + + + + + + + + + + + + + + + + + + + + + + + + + + + + + + + + + + + + + + + + + + + + + + . ",
". + + + + + + + + + + + + + + + + + + + + + + + + + + + + + + + + + + + + + + + + + + + + + + + + + + + + + + + + + + + + + + . ",
". + + + + + + + + + + + + + + + + + + + + + + + + + + + + + + + + + + + + + + + + + + + + + + + + + + + + + + + + + + + + + + . ",
". + + + + + + + + + + + + + + + + + + + + + + + + + + + + + + + + + + + + + + + + + + + + + + + + + + + + + + + + + + + + + + . ",
". + + + + + + + + + + + + + + + + + + + + + + + + + + + + + + + + + + + + + + + + + + + + + + + + + + + + + + + + + + + + + + . ",
". + + + + + + + + + + + + + + + + + + + + + + + + + + + + + + + + + + + + + + + + + + + + + + + + + + + + + + + + + + + + + + . ",
". + + + + + + + + + + + + + + + + + + + + + + + + + + + + + + + + + + + + + + + + + + + + + + + + + + + + + + + + + + + + + + . ",
". + + + + + + + + + + + + + + + + + + + + + + + + + + + + + + + + + + + + + + + + + + + + + + + + + + + + + + + + + + + + + + . ",
". + + + + + + + + + + + + + + + + + + + + + + + + + + + + + + + + + + + + + + + + + + + + + + + + + + + + + + + + + + + + + + . ",
". + + + + + + + + + + + + + + + + + + + + + + + + + + + + + + + + + + + + + + + + + + + + + + + + + + + + + + + + + + + + + + . ",
". + + + + + + + + + + + + + + + + + + + + + + + + + + + + + + + + + + + + + + + + + + + + + + + + + + + + + + + + + + + + + + . ",
". + + + + + + + + + + + + + + + + + + + + + + + + + + + + + + + + + + + + + + + + + + + + + + + + + + + + + + + + + + + + + + . ",
". + + + + + + + + + + + + + + + + + + + + + + + + + + + + + + + + + + + + + + + + + + + + + + + + + + + + + + + + + + + + + + . ",
". + + + + + + + + + + + + + + + + + + + + + + + + + + + + + + + + + + + + + + + + + + + + + + + + + + + + + + + + + + + + + + . ",
". + + + + + + + + + + + + + + + + + + + + + + + + + + + + + + + + + + + + + + + + + + + + + + + + + + + + + + + + + + + + + + . ",
"  + + + + + + + + + + + + @ # $ % & * = - ; > , ' + + + + + + + + + + + + ) ! ~ { ] ^ ] / ( _ : + + + + + + + + + + + + + + + . ",
". + + + + + + + + + + @ < *                       / [ ) + + + + + + + } > |                   . ( 1 + + + + + + + + + + + + + . ",
". + + + + + + + + + 2 /                               3 + + + + + + 4 |                           . 5 + + + + + + + + + + + + . ",
". + + + + + + + + 6 -                               . 7 + + + + + >                                   8 9 + + + + + + + + + + . ",
". + + + + + + + + 5                                 0 + + + + + 3                                       a + + + + + + + + + + . ",
". + + + + + + + + *               b c c             d + + + + e                                           f + + + + + + + + + . ",
". + + + + + + + g               h i + + ) j k l   m + + + + + m                 n k o p 8                 = q + + + + + + + + . ",
". + + + + + + + r               4 + + + + + + + j s + + + + t               . u + + + + + v w               x + + + + + + + + . ",
". + + + + + + + y               . 8 _ z + + + + + + + + + + ~               A + + + + + + + B               C + + + + + + + + . ",
". + + + + + + + D w                     ^ E 5 z + + + + + + F             G H + + + + + + + 9 *             | + + + + + + + +   ",
". + + + + + + + + >                           b / I + + + + |             J + + + + + + + + + 8               : + + + + + + + . ",
". + + + + + + + + D &                             b K + + L               M + + + + + + + + + N               O + + + + + + + . ",
". + + + + + + + + + } E                               k + P               8 + + + + + + + + + >               Q + + + + + + + . ",
". + + + + + + + + + + + v C .                         . g + c             ] + + + + + + + + + R               S + + + + + + + . ",
". + + + + + + + + + + + + + 2 T U - .                   k + J             b V + + + + + + + W w             = + + + + + + + + . ",
". + + + + + + + + + X X + + + + + + Y Z n               > + 3               / @ + + + + + + h               ~ + + + + + + + + . ",
". + + + + + + + + + ` | M  .+ + + + + + + w             U + ' b               / g + + + : ;                 e + + + + + + + + . ",
". + + + + + + + + S c       & K [ ..t _ 0               < + + a                 . l 8 m |                 % + + + + + + + + + . ",
". + + + + + + + + p                                   b +.+ + 7 @.                                      w #.+ + + + + + + + + . ",
". + + + + + + + + $.                                  > + + + + j w                                   b Z + + + + + + + + + + . ",
". + + + + + + + v                                   / S + + + + + s ^                               G ! + + + + + + + + + + + . ",
". + + + + + + + I J                               M H + + + + + + + i ;                           { ' + + + + + + + + + + + + . ",
". + + + + + + + + + d A ] b                 w %.d + + + + + + + + + + + O %.c               G ; s + + + + + + + + + + + + + + . ",
". + + + + + + + + + + + + S d &., N $ 5 u  .9 + + + + + + + + + + + + + + + + j 4 5 $ 5 &.r 9 + + + + + + + + + + + + + + + + . ",
". + + + + + + + + + + + + + + + + + + + + + + + + + + + + + + + + + + + + + + + + + + + + + + + + + + + + + + + + + + + + + + . ",
". + + + + + + + + + + + + + + + + + + + + + + + + + + + + + + + + + + + + + + + + + + + + + + + + + + + + + + + + + + + + + + . ",
". + + + + + + + + + + + + + + + + + + + + + + + + + + + + + + + + + + + + + + + + + + + + + + + + + + + + + + + + + + + + + + . ",
". + + + + + + + + + + + + + + + + + + + + + + + + + + + + + + + + + + + + + + + + + + + + + + + + + + + + + + + + + + + + + +   ",
". + + + + + + + + + + + + + + + + + + + + + + + + + + + + + + + + + + + + + + + + + + + + + + + + + + + + + + + + + + + + + +   ",
". + + + + + + + + + + + + + + + + + + + + + + + + + + + + + + + + + + + + + + + + + + + + + + + + + + + + + + + + + + + + + +   ",
". + + + + + + + + + + + + + + + + + + + + + + + + + + + + + + + + + + + + + + + + + + + + + + + + + + + + + + + + + + + + + +   ",
". + + + + + + + + + + + + + + + + + + + + + + + + + + + + + + + + + + + + + + + + + + + + + + + + + + + + + + + + + + + + + +   ",
". + + + + + + + + + + + + + + + + + + + + + + + + + + + + + + + + + + + + + + + + + + + + + + + + + + + + + + + + + + + + + +   ",
". + + + + + + + + + + + + + + + + + + + + + + + + + + + + + + + + + + + + + + + + + + + + + + + + + + + + + + + + + + + + + +   ",
". + + + + + + + + + + + + + + + + + + + + + + + + + + + + + + + + + + + + + + + + + + + + + + + + + + + + + + + + + + + + + +   ",
". + + + + + + + + + + + + + + + + + + + + + + + + + + + + + + + + + + + + + + + + + + + + + + + + + + + + + + + + + + + + + +   ",
". + + + + + + + + + + + + + + + + + + + + + + + + + + + + + + + + + + + + + + + + + + + + + + + + + + + + + + + + + + + + + + . ",
". + + + + + + + + + + + + + + + + + + + + + + + + + + + + + + + + + + + + + + + + + + + + + + + + + + + + + + + + + + + + + + . ",
". + + + + + + + + + + + + + + + + + + + + + + + + + + + + + + + + + + + + + + + + + + + + + + + + + + + + + + + + + + + + + + . ",
". + + + + + + + + + + + + + + + + + + + + + + + + + + + + + + + + + + + + + + + + + + + + + + + + + + + + + + + + + + + + + + . ",
". + + + + + + + + + + + + + + + + + + + + + + + + + + + + + + + + + + + + + + + + + + + + + + + + + + + + + + + + + + + + + + . ",
". + + + + + + + + + + + + + + + + + + + + + + + + + + + + + + + + + + + + + + + + + + + + + + + + + + + + + + + + + + + + + + . ",
". + + + + + + + + + + + + + + + + + + + + + + + + + + + + + + + + + + + + + + + + + + + + + + + + + + + + + + + + + + + + + + . ",
". + + + + + + + + + + + + + + + + + + + + + + + + + + + + + + + + + + + + + + + + + + + + + + + + + + + + + + + + + + + + + + . ",
"  + + + + + + + + + + + + + + + + + + + + + + + + + + + + + + + + + + + + + + + + + + + + + + + + + + + + + + + + + + + + + + . ",
"  . . . . . . . . . . . . . . . .           . . . . . . . . . . . . . . . . .           . . . . . . . . . . . . . . . . . . .   "};
