/* XPM */
static char * WE_xpm[] = {
"64 64 90 1",
" 	c #9C9C9C",
".	c #9A9A9A",
"+	c #232323",
"@	c #565656",
"#	c #686868",
"$	c #353535",
"%	c #666666",
"&	c #323232",
"*	c #676767",
"=	c #393939",
"-	c #383838",
";	c #242424",
">	c #6A6A6A",
",	c #656565",
"'	c #4A4A4A",
")	c #616161",
"!	c #4F4F4F",
"~	c #999999",
"{	c #2C2C2C",
"]	c #4D4D4D",
"^	c #272727",
"/	c #3C3C3C",
"(	c #9B9B9B",
"_	c #838383",
":	c #737373",
"<	c #808080",
"[	c #757575",
"}	c #828282",
"|	c #8B8B8B",
"1	c #2B2B2B",
"2	c #8F8F8F",
"3	c #979797",
"4	c #909090",
"5	c #626262",
"6	c #6E6E6E",
"7	c #5B5B5B",
"8	c #464646",
"9	c #474747",
"0	c #424242",
"a	c #7C7C7C",
"b	c #717171",
"c	c #787878",
"d	c #858585",
"e	c #8E8E8E",
"f	c #949494",
"g	c #8D8D8D",
"h	c #919191",
"i	c #5F5F5F",
"j	c #727272",
"k	c #414141",
"l	c #555555",
"m	c #494949",
"n	c #747474",
"o	c #6F6F6F",
"p	c #6D6D6D",
"q	c #898989",
"r	c #5D5D5D",
"s	c #343434",
"t	c #8A8A8A",
"u	c #6B6B6B",
"v	c #868686",
"w	c #767676",
"x	c #3E3E3E",
"y	c #3A3A3A",
"z	c #3F3F3F",
"A	c #888888",
"B	c #696969",
"C	c #8C8C8C",
"D	c #959595",
"E	c #878787",
"F	c #797979",
"G	c #7D7D7D",
"H	c #454545",
"I	c #595959",
"J	c #262626",
"K	c #969696",
"L	c #989898",
"M	c #2A2A2A",
"N	c #818181",
"O	c #4B4B4B",
"P	c #929292",
"Q	c #5E5E5E",
"R	c #313131",
"S	c #777777",
"T	c #515151",
"U	c #606060",
"V	c #2F2F2F",
"W	c #7A7A7A",
"X	c #848484",
"Y	c #575757",
" ............. ........................  .......................",
".++++++++++++++++++++++++++++++++++++++++++++++++++++++++++++++.",
".++++++++++++++++++++++++++++++++++++++++++++++++++++++++++++++.",
".++++++++++++++++++++++++++++++++++++++++++++++++++++++++++++++.",
".++++++++++++++++++++++++++++++++++++++++++++++++++++++++++++++.",
".++++++++++++++++++++++++++++++++++++++++++++++++++++++++++++++.",
".++++++++++++++++++++++++++++++++++++++++++++++++++++++++++++++.",
".++++++++++++++++++++++++++++++++++++++++++++++++++++++++++++++.",
".++++++++++++++++++++++++++++++++++++++++++++++++++++++++++++++.",
".++++++++++++++++++++++++++++++++++++++++++++++++++++++++++++++.",
".++++++++++++++++++++++++++++++++++++++++++++++++++++++++++++++.",
".++++++++++++++++++++++++++++++++++++++++++++++++++++++++++++++.",
".++++++++++++++++++++++++++++++++++++++++++++++++++++++++++++++.",
".++++++++++++++++++++++++++++++++++++++++++++++++++++++++++++++.",
".++++++++++++++++++++++++++++++++++++++++++++++++++++++++++++++.",
".++++++++++++++++++++++++++++++++++++++++++++++++++++++++++++++.",
".++++++++++++++++++++++++++++++++++++++++++++++++++++++++++++++.",
".++++++++++++++++++++++++++++++++++++++++++++++++++++++++++++++.",
" +@#######$+++++++%######&+++++++*######=-##################;++.",
".+>       ,++++++'       )++++++!      ~{]                  ^++.",
".+/(      _++++++:       <++++++[      }+]                  ^++.",
".++|      ~1+++++2       3^+++++4      5+]                  ^++.",
".++6       7++++8         @++++9      .&+]                  ^++.",
".++0       a++++b         c++++b      d++]                  ^++.",
".+++e      f++++g         h++++g      *++]       biiiiiiiiii;++.",
".+++j       !++0           9++k      (-++]       l+++++++++++++.",
".+++m       n++6           o++p      q+++]       r========s++++.",
".++++h      e++|           t++t      u+++]                v++++ ",
".++++w       kx(           (-y(      z+++]                v++++.",
".++++!       uu      A      ,B      C++++]                v++++.",
".+++++f      Aq     D!      _E      o++++]                v++++.",
".+++++F      ((     G+f     ~.      H++++]                v++++.",
".+++++l             7+a            2+++++]       w********I++++.",
".+++++JK           LM+7            :+++++]       l+++++++++++++.",
".++++++G           N++1~           O+++++]       l+++++++++++++.",
".++++++7           )+++_          P++++++]       |ddddddddddQ++.",
".++++++ML         .R+++%          S++++++]                  p++.",
".+++++++<         d++++=(         T++++++]                  p++.",
".+++++++U         %+++++|        f;++++++]                  p++.",
".+++++++V~       (-+++++o        W+++++++]                  p++.",
".++++++++X       q++++++9        Y+++++++]                  p++.",
".++++++++++++++++++++++++++++++++++++++++++++++++++++++++++++++.",
".++++++++++++++++++++++++++++++++++++++++++++++++++++++++++++++.",
".++++++++++++++++++++++++++++++++++++++++++++++++++++++++++++++.",
".++++++++++++++++++++++++++++++++++++++++++++++++++++++++++++++.",
".++++++++++++++++++++++++++++++++++++++++++++++++++++++++++++++ ",
".++++++++++++++++++++++++++++++++++++++++++++++++++++++++++++++ ",
".++++++++++++++++++++++++++++++++++++++++++++++++++++++++++++++ ",
".++++++++++++++++++++++++++++++++++++++++++++++++++++++++++++++ ",
".++++++++++++++++++++++++++++++++++++++++++++++++++++++++++++++ ",
".++++++++++++++++++++++++++++++++++++++++++++++++++++++++++++++ ",
".++++++++++++++++++++++++++++++++++++++++++++++++++++++++++++++ ",
".++++++++++++++++++++++++++++++++++++++++++++++++++++++++++++++ ",
".++++++++++++++++++++++++++++++++++++++++++++++++++++++++++++++ ",
".++++++++++++++++++++++++++++++++++++++++++++++++++++++++++++++.",
".++++++++++++++++++++++++++++++++++++++++++++++++++++++++++++++.",
".++++++++++++++++++++++++++++++++++++++++++++++++++++++++++++++.",
".++++++++++++++++++++++++++++++++++++++++++++++++++++++++++++++.",
".++++++++++++++++++++++++++++++++++++++++++++++++++++++++++++++.",
".++++++++++++++++++++++++++++++++++++++++++++++++++++++++++++++.",
".++++++++++++++++++++++++++++++++++++++++++++++++++++++++++++++.",
".++++++++++++++++++++++++++++++++++++++++++++++++++++++++++++++.",
" ++++++++++++++++++++++++++++++++++++++++++++++++++++++++++++++.",
" ................     .................     ................... "};
